junja94/rosbag_plot/data/0427_mission1/motion.csv
command_linear_x,command_linear_y,command_angular_z,linear_x,linear_y,linear_z,base_x,base_y,base_z,cot,joint_position0,joint_position1,joint_position2,joint_position3,joint_position4,joint_position5,joint_position6,joint_position7,joint_position8,joint_position9,joint_position10,joint_position11,joint_position12,joint_position13,joint_position14,joint_position15,joint_velocity0,joint_velocity1,joint_velocity2,joint_velocity3,joint_velocity4,joint_velocity5,joint_velocity6,joint_velocity7,joint_velocity8,joint_velocity9,joint_velocity10,joint_velocity11,joint_velocity12,joint_velocity13,joint_velocity14,joint_velocity15,joint_torque0,joint_torque1,joint_torque2,joint_torque3,joint_torque4,joint_torque5,joint_torque6,joint_torque7,joint_torque8,joint_torque9,joint_torque10,joint_torque11,joint_torque12,joint_torque13,joint_torque14,joint_torque15,time
0.5,0.5,0.5,-0.051294080727585935,-0.011568173777454055,-0.01795357468474616,18.922704141235787,166.10361558150325,-2.3667073676571486,11.51190112507544,0.018962879241444172,0.9791947311162948,-1.3069833093881607,230.05346895052534,0.051719601843506095,0.9267255184054375,-1.3595577418804168,190.4371194476285,-0.013085935073904693,-0.8334381517767906,1.3477691012620925,232.77671420260515,-0.0319863766618073,-0.7619778949022293,1.2470542734861374,176.7339393589367,-0.04868945032733052,-0.0238249125536693,-0.01664781611149523,-0.25241178716643126,-0.047790102372560206,-0.0686967678915536,-0.02883723172786092,0.13826839610914007,0.006625819846695365,-0.14184552369655182,0.0424578514610171,0.062077049503867957,0.0016966101653891348,-0.03311979123853048,0.17642444961488146,-0.4669955982108791,-29.242806568145753,-23.59083869934082,11.423712754249573,-7.2650612401962285,23.955707292556763,-40.9410424041748,10.583934998512268,-12.226108684539795,-22.871923179626464,23.133409090042115,-17.58171268463135,9.491326122283935,26.78498790740967,18.3837739944458,-9.901122813224793,5.993201215267181,0.0
0.5,0.5,0.5,-0.05271905605219973,-0.011259147254170732,-0.011981119914867914,18.908884160823927,166.08482341790778,-2.3726017250457807,20.427188925270123,0.007737854660954327,0.9618219208717346,-1.314746804833412,229.77996611759932,0.040579785536974666,0.8701215025782585,-1.3858608388900757,190.40522155863516,-0.009182792762294412,-0.9152615293860435,1.332942453622818,232.76750754465309,-0.029174158135429024,-0.7828303241729736,1.2915887343883514,176.41172670754906,-0.0044094287506998295,0.0059880757490000415,-0.028498903760003996,-0.6396442274581934,-0.012049057301764204,-0.08008700861613624,-0.06641162064717947,-0.18916411698301452,0.006426951668280829,-0.10556922202757185,-0.028765826834383362,-0.21070267670761608,0.0012817309160183515,0.004542161143350106,0.05435472429242634,-0.7608771873889287,-27.955021266937255,-18.639458723068238,10.488842129707336,-6.283849472999573,23.207804946899415,-33.73912105560303,13.499655318260192,-12.4274769115448,-24.725280227661134,31.04748688697815,-14.21133337020874,9.251480164527893,28.136244506835936,20.871724643707275,-12.350325889587403,6.84983270406723,0.5
0.5,0.5,0.5,-0.033544978137511144,-0.012418192793227882,0.004694893686038262,18.88636001347567,166.05465647444598,-2.3716418430463357,32.90432847476228,0.005190967181697488,0.9667770370841027,-1.3083076828718185,229.48136896749136,0.03543483747169376,0.8549048951268197,-1.401024841070175,190.26099541350683,-0.005906665087677538,-0.9332028737664223,1.3083159524202346,232.6427801585113,-0.02540296223014593,-0.7582557120919228,1.3071466535329819,176.0586396405731,-0.002384334309292569,-0.0032152906418677733,0.05677196266105166,-0.5168103758158685,-0.004307915406189185,-0.004149814046324367,0.011151932145136639,-0.35835385306658085,0.006429544009719398,-0.0027984966028640305,-0.07454151102545677,-0.16358084199792064,0.010094655615938728,0.057806557586391645,-0.005766482246838362,-0.5265100160944196,-27.625271282196046,-20.213742513656616,9.895876808166504,-6.462105226516724,24.276799936294555,-32.21690349578857,16.084088225364685,-12.480610179901124,-25.302809638977052,32.56968518257141,-12.38117437362671,9.008370685577393,27.473517456054687,18.287533321380614,-14.989935936927795,6.435348811149598,1.0
0.5,0.5,0.5,0.5122167736315576,0.08552942788247263,0.024622164344489363,18.92006851140126,166.1075668831329,-2.364767458175342,56.87242431609335,-0.061096299394666854,0.8784227392077446,-1.3360771703720093,230.1413338795176,0.024583720044320218,0.8273730528354645,-1.36394360601902,190.92978288533166,-0.00725141500675818,-0.946176272034645,1.275770515203476,232.98805179747956,-0.035370481992140414,-0.69726343780756,1.2705584514141082,176.26680890786076,-0.38754953651643087,-0.4077074434766324,-0.17530933006085309,5.113743377404512,-0.14652592336317688,-0.22585933213445863,0.2752339458667837,5.297483298818869,-0.03550983763664975,-0.045863529514153276,-0.0884264655120584,3.440748757996779,-0.06761043564639992,0.1728764423583132,-0.15619501518125814,3.591823260199342,-20.074131937026976,2.1170077350735665,16.21777709007263,0.6239712738431991,13.377244081646204,0.4833722510933876,19.486057391166685,-0.38958048257045447,-25.845893626213073,48.18947065353394,-6.323670843541622,15.533524775505066,27.864610347747803,37.08852375984192,-20.56073863506317,18.492728679180146,1.5
1.1348543167114258,0.15543723106384277,0.3161102533340454,1.8308471831264057,0.13548294140797773,0.10114166621719704,19.24837528738466,166.6550610497707,-2.334844937993876,22.682499496680702,-0.329193005412817,0.6798190769553184,-1.402192940711975,235.09843301013458,0.05807771284831688,0.6532373470067978,-1.3173914855718614,196.24276332293132,-0.13937006775289773,-0.9567548695206642,1.264101711511612,237.55437499429183,-0.03802522758487612,-0.6472176739573479,1.1700120013952255,181.34231038665413,-0.24457001010038443,-0.22627401763238378,-0.2391264173673732,11.831941075857548,0.3682611566964926,-0.283621654446746,-0.14309207837810456,12.472396438600816,-0.372160144144452,0.14556616471303013,0.06873064849251569,12.220001435606386,0.08924699968992997,-0.04306449089824369,-0.14840362488345454,13.971807479392812,-3.991205666512251,-8.611560325846076,22.994004103019833,-6.253231114081573,-2.043152963966131,4.155805859640241,16.66876248142682,-1.8698296921624569,-17.358866492658855,19.102336160838604,-8.198788151443004,7.272039925158023,18.806435930654406,26.73473799355328,-27.313124277591704,15.78847606357187,2.0
1.1348543167114258,0.15543723106384277,0.3161102533340454,1.8380766260150891,0.10537423640741743,0.09225257103546342,19.661332680335857,167.49706913991832,-2.3577341042159103,11.695079381698854,-0.10211842197924853,0.6536817213892937,-1.3369817394018173,241.2540237053637,0.1104885645955801,0.6064841294288635,-1.3529744464159013,202.7681028035809,-0.22013020426034927,-0.8698259711265564,1.2938423615694046,244.10601576460937,-0.037074279272928834,-0.7440355888009071,1.1063535910844804,188.5872532858728,0.38658572473344777,0.11276008896200121,0.2463530572696198,12.353516518812404,-0.0418140062203966,0.08052287908995583,-0.10968795796437388,12.705586657268546,-0.04796350379562361,-0.02520976918476195,0.10568460565195731,12.941863576845046,-0.14534464755086549,-0.12017908500602456,-0.23040135513494206,13.581904229480202,-22.305421278476715,-11.432313704639673,23.48993222363293,-6.743061527577229,21.82273227982223,8.1498582213372,25.123353042602538,-1.1436973332241178,-10.566487373113633,13.429183875992894,-21.3492143201828,7.1680969344079495,15.436616070121527,10.461141565740109,-22.67550559282303,5.118137050308287,2.5
1.7226345539093018,0.20879173278808594,-0.14938008785247803,1.8219637037242344,0.011563744141928472,0.10337343643538432,20.028676840052725,168.38221730811472,-2.3783868561005486,11.42915871976826,-0.1631712182238698,0.728835879266262,-1.4402506411075593,248.01166399717732,0.14466829389333724,0.6053429907560348,-1.368963195681572,209.49411803664384,-0.2516579443216324,-0.8961142110824585,1.366673735976219,250.9886277147742,-0.10113020275719464,-0.7594360381364822,1.0015312907099725,195.76679019915682,-0.029540090754764426,0.12919535545481653,-0.13294797345973705,12.789233263430292,0.09217002721142756,-0.13300555900190317,0.10427476920994762,12.905095990814376,0.018573008465130034,0.10294697377363332,0.06185449804240727,13.080794355254248,0.11282586080697309,-0.15698733297051634,0.11197521105908619,13.128608959855242,-12.449930752376094,-16.57061320781708,25.50731770992279,-8.835018122196198,20.77818883895874,10.734704557061196,23.61581379890442,-0.6218581254547462,-16.174380164146424,17.15414519429207,-29.567758560180664,8.557831872105599,24.872002258300782,9.035181511938571,-13.867626755833626,3.807285738317296,3.0
1.7226345539093018,0.20879173278808594,-0.14938008785247803,1.6714465595536205,-0.09289873831168323,0.09352300014144216,20.4285739428823,169.23771972630612,-2.3942670588465447,10.49809724038936,-0.20247624188661575,0.7518795061111451,-1.4375375401973725,254.4910513418684,0.17703564889729023,0.6070129925012588,-1.4002914011478425,216.10154610231223,-0.21364769726991653,-0.8218724152445793,1.3445696771144866,257.56563855367165,-0.03583259381455719,-0.7949210914969445,1.1189233666658402,202.3612194554392,-0.2754457592459735,0.013143081369598875,-0.04458220198485761,11.527221796440745,0.03887627596295099,0.20379793911540897,-0.28737488540166306,11.878360165405223,0.06624439460369208,-0.020214687055815684,-0.08361142118647033,11.491851742807937,0.07853252923660393,0.04982594492278556,0.2635902011377893,12.224058531163692,-24.777749640662222,-27.781250796318055,29.287589931488036,-13.0977987575531,17.275820739269257,8.08796692341566,17.406998488903046,-1.3157343512121589,-6.969707029759884,-2.693475714251399,-16.418782108798624,2.277177968141623,18.42190865278244,22.772208924889565,-24.23761765360832,8.212500476241111,3.5
1.2913928031921387,0.13098353147506714,0.5485696792602539,1.58956165394398,0.10304444819843477,0.08218111874998722,20.74223391345809,170.09658015142796,-2.4190948244194046,14.837171165165099,-0.2769939149171114,0.7197595053911209,-1.468860467672348,260.38423614515284,0.1749224703013897,0.5775068710744381,-1.4055792021751403,222.09884842470265,-0.19480202302336694,-0.8485699108242989,1.3581386935710906,263.33914764556016,-0.006035615393439002,-0.8204118973016739,1.2381507098674773,208.50889185119732,-0.10864696825533227,-0.18475767472267585,0.012771200028855942,11.911324985099531,-0.24762629422907273,-0.3255209976258077,0.4375175925115091,11.860548435371006,0.034134344512537176,0.007497559632001754,0.051464289050767976,11.714152339720483,-0.07416071754949533,-0.007448103603136797,-0.07752435071151399,12.21918463477899,0.8199186391010881,-9.688641505874694,15.670883356332778,-5.787772486209869,5.540646785013378,13.158235222632065,33.788881545066836,-1.1208348607830703,-19.33576523065567,11.852807889133691,-27.350767283439637,7.6089748594164845,12.27163512185216,19.553872079849242,-21.032483248710633,8.283432132303714,4.0
1.2913928031921387,0.13098353147506714,0.5485696792602539,1.6192331570301794,0.09600300635063132,0.10773058246635689,20.928950518198516,170.93004859316,-2.4272976452827346,11.179955735261446,-0.12800219187512993,0.655625085234642,-1.3847969990968705,266.23202972663506,0.023566260242660064,0.5511938259005547,-1.2630901223421096,228.19319774203308,-0.16920911088585855,-0.824469872713089,1.324439047574997,269.57527721198005,-0.005883415739590419,-0.8173190081119537,1.1838812214136123,214.84226013206742,0.5358352116006199,0.01911061298569334,0.3197932402124939,10.526101065328522,0.2376293658846594,0.07630379586306922,-0.24239450058120082,11.538181342153505,-0.06294124044318275,0.005156238844482559,-0.039411385374935444,12.104844674943026,-0.03920113989124128,-0.05973135429809867,-0.10240020532161066,11.544763673688026,-1.192906209230423,-2.8687070233374836,17.822677413150668,-3.7831447342713362,13.425887513160706,-1.077369315698743,30.183624641038477,-5.352649999172427,-20.965772844590248,18.452169553041458,-29.8121187210083,9.905703723430634,14.892093600183726,-5.302185216769576,-20.544204897880554,0.27786117935553195,4.5
1.6675958633422852,-0.0078081488609313965,-0.16103971004486084,1.7904275528732527,-0.05265805326832282,0.08882819263371788,21.160091227047406,171.8326925253408,-2.436321496224019,13.82883753439622,0.023085812352701397,0.7155140927433967,-1.2040192717313767,272.1498414567127,0.27645510375499727,0.5824162104725837,-1.4120226460695267,234.26992694747324,-0.2511102648079395,-0.8970067965984344,1.3625461286306382,276.5318776395104,-0.09152676438912749,-0.8463892629742622,1.0895460826158523,221.01515509681175,0.01712317308998688,-0.055942862662973554,0.03386368028980567,12.18062002620799,0.24854393394834368,0.07319480005350115,-0.02883853046520424,11.824642998474769,-0.09837336923036037,-0.10031612546050019,0.06567282046981888,14.002305953591092,-0.020045077330684117,-0.11992268555801949,0.02233509352630414,12.103526198482138,0.3515125043690205,-13.769979439526796,18.975803556442262,-5.064425228427862,-5.772163436263799,12.654147964343428,24.431577348709105,0.36416825335472824,-13.45766902089119,19.771678216457367,-28.48754789352417,8.77704097867012,29.837836971282957,11.040067604891956,-15.360050418376922,3.8413967924006283,5.0
1.6675958633422852,-0.0078081488609313965,-0.16103971004486084,1.783015592284329,0.01590166290401723,0.07551920714205654,21.563828317662693,172.68851698225197,-2.45685281321535,9.111463811854884,-0.1174902281165123,0.6619134479761124,-1.3000819474458694,278.5955888255569,0.27992777243256567,0.5496580454707146,-1.4181095534563064,240.8831959502146,-0.2649803274869919,-0.8727369421720504,1.3672429883480073,283.4784780871059,-0.0941318945772946,-0.879975414276123,1.1256393265724183,227.61081908216886,-0.22351190251117908,0.051600833533852794,-0.1248583941775387,12.326307386781842,-0.134964994594752,-0.08610559332128064,-0.05837552463469397,12.828081598525932,-0.00863923991021936,0.012885469751086667,0.01203218161264498,12.799256158077137,-0.13792104860139065,0.023780480542684362,-0.09263513376188127,13.120139704119902,-20.170089416503906,-14.278087649643421,25.457710294723512,-8.519168877452612,7.207573342621327,8.629915131926536,21.86626961708069,-1.3837668197322637,-8.11529851347208,7.24751752000302,-21.03682020664215,5.058527726791799,22.12383325576782,20.255830036252735,-23.376143453121184,5.211151778902859,5.5
1.7734758853912354,0.12192845344543457,0.08722114562988281,1.8071510155778925,0.12179134279878451,0.09354677961278748,21.936228648042235,173.56801293339467,-2.4726528292978376,11.69405029753543,-0.16784195005893707,0.7243787056207657,-1.4088872075080872,285.1099010066793,0.2294031174480915,0.5142827738821506,-1.397970062494278,247.38230199625207,-0.286354553848505,-0.859739810526371,1.3740401995182037,290.2387884174149,-0.10760084559209644,-0.8545990565419197,1.062128686606884,234.34856805860142,0.002690949811801814,0.10160830536595522,-0.22801938563155125,12.673149914455202,-0.08189352801085548,-0.07993328133184831,0.03639923275069576,12.44381416207007,-0.030157704529314325,0.17038424814238426,0.009508720963313318,12.847927702669478,0.18481520219918526,0.034691438372391595,0.08800326238793418,12.369931491428643,5.0280748927593235,-13.359246854782105,11.175063551552594,-6.615050934553146,4.791926978807896,9.461463840007783,33.03758418083191,-2.896280505778268,-16.348745789527893,22.245856821537018,-35.80350380897522,11.739178512096405,20.23668158531189,8.898491173814982,-6.339466941487044,3.1445596984028814,6.0
1.7734758853912354,0.12192845344543457,0.08722114562988281,1.8150090170048296,0.056182794922630216,0.09888435724049961,22.349111127594096,174.4070239271171,-2.499373500510154,12.97483606795149,-0.19879504702985287,0.7168701091408729,-1.544108704328537,291.8047171827367,0.1300928395614028,0.4880464275181293,-1.4140340793132782,254.01011442142158,-0.2616896995157003,-0.7927390056848526,1.397251128554344,297.00505863010216,-0.04906893065199256,-0.8580804741382599,1.1891281574964523,240.81707428509358,-0.1401672406865164,-0.055914609203589316,-0.23543661882125336,12.793450572095624,-0.28440556411245377,-0.029507142046577513,0.021931781280238608,12.694579250556247,0.0851392858493624,0.0034580179879407868,0.08824589049182686,13.224641945557527,-0.07789911071589052,0.024056296326162654,0.1660572449143393,12.556942912247512,17.77653264045715,-10.874094989299774,5.818116720914841,-6.190401818752289,1.5386134198680521,7.068455066680908,42.05977596282959,-6.053851535320282,-19.891865282058717,16.36774549484253,-42.69899787902832,12.98834384918213,9.650504567623138,7.475700458288193,-3.4470644461666233,3.732945257425308,6.5
1.7017831802368164,0.2271478772163391,0.06900453567504883,1.8552101319143512,0.0891403148831709,0.13475687043880366,22.73084181390764,175.32333632300532,-2.523665991994626,15.567404638864328,-0.2757167556881905,0.673468395769596,-1.5656533378362656,298.55385534671024,0.030964961114368635,0.4690277011692524,-1.373477784395218,260.7539845598111,-0.2538088721036911,-0.8018670254945754,1.4413647013902664,304.07630571263417,-0.1184134929254651,-0.816168401837349,1.2028551304340362,247.52581206896187,-0.23789251986438006,-0.19684143121401396,0.1983857225763516,13.331566390596127,0.13232437534424307,0.2448137874175682,-0.14725049143983132,13.309324775715215,-0.05108230414408903,-0.051434730721000105,0.017572322511366225,13.934417145099165,-0.19294140097951748,0.12247859768559209,-0.12881205956190306,13.646433691951993,0.046917413175106046,-13.80281067609787,26.1517507314682,-9.917887613773345,10.442634320259094,12.657316303551196,26.01916284341365,-0.9088594217877835,-15.482729127705097,9.100393233150244,-33.4123558139801,9.660061914362013,16.895885655879976,17.190292880237102,-15.128766390797683,7.540427769124508,7.0
1.7017831802368164,0.2271478772163391,0.06900453567504883,1.9044621383855687,0.14306178846660456,0.11117781128854631,23.110388816237467,176.23872321650356,-2.509140763583806,12.230455845368706,-0.4212966910004616,0.6130022287368775,-1.427210727930069,305.3871686129247,0.13334344159811734,0.5780706077814102,-1.356624128818512,267.77822622409263,-0.2750922579318285,-0.8548374223709106,1.4121553069353103,311.4855774759624,-0.20321303136646748,-0.7455892238020897,1.0049847823381424,255.16718013452865,-0.18681886576764006,0.145810306083961,0.12163355526296037,12.291739017874077,0.05854090694326428,-0.02279851606786917,0.39086675169881735,13.105187733722166,0.07399248942541012,-0.08515445017339074,-0.09298366482372092,13.975416528723063,0.013155535300194985,0.1305390909489268,-0.4811334405013371,14.832574984494403,-1.8462900349497795,-13.019941041469574,31.625086167901756,-10.383638863563538,13.492477943301202,14.154157469458879,17.824676209688185,1.130779713387601,-17.900363569259643,6.0229540576785805,-32.86914219856262,5.426989391446114,24.737117323875427,18.351236902121453,-14.338129185289144,5.6270627097785475,7.5
1.741018295288086,0.2999083995819092,0.29885947704315186,1.3644009469491984,-0.0528303837511624,0.03639239358901469,23.416966998267547,177.05720239455576,-2.5220189350387674,6.757877654254697,-0.23219963751733302,0.6900253248214722,-1.4390866190195084,310.86782892674887,0.12053973462432623,0.6939918622374535,-1.3483216935396194,273.78746219608695,-0.2049409181624651,-0.759597829580307,1.3623201084136962,317.5554713757381,-0.02954207396687707,-0.7555742391943931,1.147583163678646,261.4090052075796,0.5148491596688521,0.30960135614291207,-0.0825502732304272,7.377824986918066,-0.1459673166358446,0.41334635536413716,-0.18080750869004691,8.363258851349865,0.0988269191863689,0.4182586146947013,-0.12033708522905967,7.098350903162758,0.45787099983597324,0.0407472921448679,0.6413577357524014,6.86172926578716,-5.5625591143965725,-19.06408869802952,16.577998062297702,-11.701519247613614,11.665763457342983,-20.075571206212043,33.0888027381897,-11.374116897583008,-13.997196866422891,-10.191395206451416,-38.85787344932556,-0.6084595595858991,13.32709832429886,-15.269925979487597,-15.699421239942312,-3.806204933929257,8.0
1.741018295288086,0.2999083995819092,0.29885947704315186,-0.12142026081321008,0.35398322704940666,-0.0003484898795839731,23.42104280695202,177.31627137053312,-2.5369410316553997,48.53101711983122,-0.4396797724813223,0.921140028834343,-1.4956477296352386,312.01094561251216,0.06419482076948042,0.8406448653340339,-1.320167156457901,275.62292297495986,-0.10623176749795675,-0.7041096645593643,1.2609228938817978,318.5669717552693,0.13826524216681718,-0.678154109120369,1.2312080127000808,263.0425913040915,-0.46849578579399165,0.15432591823466796,-0.5969317114495657,-0.488955721258394,0.07735414433109922,0.026916330531591127,-0.015321081528756324,0.3215204621523993,0.06483847131052473,-0.41905990740451315,-0.08606280035273976,-0.14753826615990848,0.036471027303589,-0.047805813298190954,0.019850928035937212,2.1525119874048957,-0.8037336876988411,-15.337483567222954,17.410965347141026,-7.487125429882435,8.403315054476261,-9.014206877946854,28.618243032954634,-4.396121034799144,-11.489042588174343,-9.037708151508122,-27.71190839447081,0.5193719515507109,2.7727695059776307,-5.516663643624634,-23.218564153164625,2.2257634502928703,8.5
0.21479225158691406,0.38295626640319824,1.165377140045166,0.3814595777895961,0.4469130651660326,0.030268334541089032,23.147639550666014,177.42548399731655,-2.537870264923861,29.82537510304361,-0.18408033579195035,0.8833433434367179,-1.4555023723840714,312.2938350409095,0.12085240251995856,0.7746882426738739,-1.401673303246498,276.1778797676965,-0.21653913110494613,-0.9040005499124527,1.3123728501796723,319.1755390568328,0.047219764905166814,-0.8888300794363022,1.1410270708799362,264.1991042260994,-0.048059643363682084,-0.010570457532247906,0.49481390693147775,2.2433899967512336,0.5091104382540973,-0.4871921887086792,-0.01608799421249109,3.054608584286596,-0.2891622386074508,-0.06083343997484423,0.1375314101232774,3.1410911612930823,-0.13120090040053356,-0.26911892826748923,-0.30356678309765567,3.8565207292187953,-15.979594687968493,-0.8944506496191025,26.135164096802473,-1.1385733995912597,6.585216130465269,-5.290807691216469,13.556471400111914,-2.357418663888238,-6.358055824227631,12.80368224091828,-19.71717952258885,6.476147593855858,18.431918026357888,19.45715115427971,-18.94699270298239,5.3137924894317985,9.0
0.21479225158691406,0.38295626640319824,1.165377140045166,1.2286304937197927,0.11741730641385255,0.07385903334998228,22.677878870978265,177.57341355297237,-2.5222039971112102,22.202073011539007,-0.07863689115038142,0.8142975428700447,-1.3246204888820647,315.5611134815774,0.14274075165977593,0.6134009447693825,-1.3220459198951722,279.3534020670842,-0.2731185760349035,-0.9216361761093139,1.3308954328298568,322.4930243029456,0.007554615903736703,-0.8887871757149697,1.1334886342287063,268.36302384545087,0.6537306394060208,-0.31568673547481596,0.5687472782407733,9.439454725426378,-0.13506374832866047,0.05562891100136762,-0.11788813234655925,9.303414420224728,0.0313221218226427,0.1312573234936085,-0.0001685438998289679,9.753716989206307,-0.030167726552928004,-0.1500967742841327,-0.009531074873826248,11.04758335490319,-18.754896550476552,2.4174544785916807,13.069306349307299,-0.37241942540742456,6.059349963665008,3.25037782818079,25.06756311023608,-1.9100177302677184,-1.1399092228710652,26.18222368940711,-19.258455330096186,10.85736194346442,13.023344733975827,17.212010031938554,-17.128712977021934,4.745826997281983,9.5
1.6034600734710693,0.2757294178009033,0.8264515399932861,1.760475010507357,0.13370768411447134,0.058264819365487816,21.917283592317673,177.63187759099287,-2.5248190241781514,12.20638071656516,-0.1615169158950448,0.6757348564267158,-1.3421918803453445,321.35065548524733,0.29453570321202277,0.49249808803200723,-1.3408156126737594,285.3515445660319,-0.23369550734758376,-0.8722077184915542,1.3253463745117187,328.6938704705419,0.005473914713893464,-0.9711650612950326,1.1362272721529008,274.7368053688698,-0.14339440678386747,-0.19760321597294211,-0.3857863183297119,12.199436921121922,-0.260509058925647,-0.28731409623482285,0.22326496988353156,12.524352531670893,0.14256259489359774,-0.12367212133868481,-0.012606978630051734,12.546617128300444,-0.022233182268414812,0.021906146539854458,0.12386483415637768,12.271878480728997,13.183351233303547,0.7760894852038472,9.56582565434277,-1.6751020190306007,-10.162532962560654,8.49668227739632,31.575292567191646,-3.3701738154143097,-19.827964284606278,17.25739851087332,-28.986740589626134,8.785992561988532,11.301533613204956,29.934092178344727,-11.260815752744675,6.61294936299324,10.0
1.6034600734710693,0.2757294178009033,0.8264515399932861,1.898040511754825,0.024948383718545873,0.09397525174999931,20.986204568695342,177.66287245183233,-2.564454762720164,11.727103581647977,-0.2248044116050005,0.6700848919153214,-1.4888247495889664,327.99551312967577,0.1329023015499115,0.45135792061686514,-1.360757122039795,292.21717403248266,-0.2000130046904087,-0.8470700857043266,1.3622091311216353,335.41851773803796,-0.03864325401140377,-0.8879794383049011,1.1942915660142899,281.2196859035242,-0.12855235820514485,0.02472937944330951,-0.08364623099886152,13.482939075454576,-0.135563736056063,0.04850221860042327,-0.10468079157569654,13.479935876630178,-0.038739180943623636,0.16806462360324292,0.0714631230813664,13.432310019576693,-0.17885627692186126,0.20138128667217262,0.007909496960292469,13.110573644131714,6.772636392656714,-10.872886117696762,16.02547686815262,-7.081445567607879,5.730444591008126,13.979643495082856,33.01649984836578,-2.2072533165686763,-23.00622228860855,13.843412209963425,-32.19820560455322,8.626199796646834,15.375250039100647,16.56729402542114,-15.209173365831376,6.031127622127533,10.5
1.8046107292175293,0.08150649070739746,-0.057089924812316895,1.9273412048630352,0.07081887930489768,0.14240319795459155,19.922300074801836,177.66836926986014,-2.5744265021508705,11.568012552340111,-0.3038933469355106,0.6541489884257317,-1.4474348300695419,335.1817909297845,0.1553499534353614,0.5646004588901996,-1.4109284859895705,299.2770752392115,-0.24611164428293705,-0.8211388581991196,1.3674504327774049,342.7802082111481,-0.14784615110605956,-0.782759858071804,1.0501173788309097,288.64411277160974,-0.10564452988551318,0.07622238201815666,0.004659833537692899,13.496062221173792,0.06482848487653815,0.17236734973989898,0.07970639219356881,13.42841165108351,-0.030920324861211296,-9.687126409032575e-05,-0.05969939162418795,14.317368773581562,-0.08922080890943983,0.11925542052599257,-0.34269310865904856,14.67635486441987,-13.322457130234689,-16.98541048526764,33.5795400929451,-11.636938076019288,16.27983073234558,15.387995846271515,18.734480180740356,1.9124820782244205,-14.576527044773101,0.7214609674178064,-26.660279932022096,3.793145072236657,23.44974027633667,20.507925065215677,-19.8682547981292,6.662854249998927,11.0
1.8046107292175293,0.08150649070739746,-0.057089924812316895,1.8596687547642892,-0.06566868367072934,0.11012450650438935,18.897400778558655,177.66564144391384,-2.573519841799576,10.57245895981352,-0.19273402608931064,0.6232793003320694,-1.425848126411438,341.7839392140934,0.10557934653013945,0.6134617063403129,-1.3984548211097718,306.15980520028586,-0.20621112532913685,-0.7663288855552673,1.3256216555833817,349.91877190212136,-0.06525494530797005,-0.7904146602749824,1.1362536343932153,295.82199064871895,0.2531885246456102,-0.23961033212404523,0.13700226977595886,12.299514067408072,-0.0005947738480287511,0.14897959265624897,-0.2843096700722764,13.05565149933971,0.049365263610755925,-0.017508639982588663,0.05520294609686339,13.169982251296199,0.09413534514667106,-0.0701328620195146,0.3598501808749298,13.181100983468363,-6.975571847259999,-8.180510079860687,18.339358808919787,-7.264534150541294,10.602435347698629,0.7906506230682134,30.686479687690735,-4.611934448275715,-15.08975709926337,5.567089246064424,-28.492519973516465,6.589749011062086,12.657684178352357,10.123374255001545,-17.761497502550483,5.433350125742145,11.5
1.748422622680664,0.13704639673233032,0.132440447807312,1.76315164920024,0.11668301353894234,0.12669802564131796,17.946962470028357,177.59862225609623,-2.5823687022821145,11.428351977555952,-0.1956892152875662,0.6247122567892075,-1.4618674343824387,348.3010127535052,0.12611827120184899,0.5815199109911918,-1.4175054275989531,312.7976074824655,-0.27179899290204046,-0.841812487244606,1.4054156213998794,356.8152218027173,-0.1080702679976821,-0.7963631492853165,1.0829187986254691,302.74984986205664,-0.0758205617807233,0.17632173471221058,-0.24822523411083913,12.314984659133327,-0.12447821225399947,-0.20837855921399367,0.241476692523337,12.305416569816407,-0.1540415961119522,0.025404713575241104,0.052508796385098574,12.90684017091236,0.14819066839214662,-0.08510276766220666,0.040557642347501185,12.725699682058663,-5.0917853057384495,-10.715730514526367,23.4169992852211,-8.365308492183685,14.211095739603042,12.892107005119323,29.528420128822326,-0.49105565044097604,-14.204274363517762,12.011687616854907,-36.09043611049652,8.95447814822197,19.548329157829286,8.405354942679406,-12.106704073250294,3.8709169394522904,12.0
1.748422622680664,0.13704639673233032,0.132440447807312,1.8483837832628294,0.05820037152970966,0.13156981300288423,17.009272274658144,177.56841186736452,-2.5645932236618436,13.684248268172027,-0.28880700446665286,0.6142558991909027,-1.4663422173261642,354.8897282234684,0.11939404252916574,0.5412682512402535,-1.3945386189222335,319.4949697988583,-0.32198593199253084,-0.8470207127928734,1.4211096781492234,363.74935456866683,-0.10706311345100403,-0.8432736054062844,1.1253020930290223,309.6187606429916,-0.17424721198921603,-0.11091296422773894,0.20454768865503337,12.89842837154594,0.11434636135286494,-0.0036007066427188655,0.014900190907753701,13.070582605201878,-0.09847008870645943,-0.10558058373255821,0.027159834308451206,13.825276021921987,-0.27451370567026184,0.02477368059776564,-0.32366024665148513,13.9215360887125,-10.931545231230556,-10.028702368736267,35.744502267837525,-9.791516444683076,12.630644516944885,16.032510466575623,17.786518896818162,2.1419612928899006,-8.814513342194259,8.34168792694807,-26.316562628746034,6.888835819959641,19.14732656478882,21.04818016052246,-21.326687622070313,6.532934370040894,12.5
1.75923490524292,0.1838555932044983,-0.03777599334716797,1.8864065776210395,0.02930363245235472,0.08354119360135695,16.032694675241956,177.58876662259252,-2.544134319862947,12.343445167592595,-0.28473572447896006,0.6647350126504898,-1.4584273606538773,361.3958480577293,0.1287841621786356,0.5121640802919865,-1.3171066200733186,326.13797327397,-0.31241425141692164,-0.8167011013627052,1.3992408680915833,370.8347530658855,-0.05194706266003777,-0.8267393279075622,1.1254142627120018,316.5697619994509,-0.013267214547070656,0.10167973179599459,-0.08786278669683219,12.4024757926605,-0.11569767253508922,-0.06128769891069313,0.02881070480024883,12.880397493980364,0.07470470927291892,0.12847754415544496,-0.05303675473532687,13.315922494994506,0.2889028940312991,0.012903841762922348,0.3788464134118297,12.872831605123624,10.578793342635036,-8.269459923505783,13.17894410327077,-5.7679065275192265,4.531847095936537,11.588086054325103,34.96886522293091,-2.394652652144432,-15.018688110113144,16.2897654344514,-41.51910112380981,11.385408409833907,14.643357231616974,5.289183802399784,-6.887515511820093,3.385957580301911,13.0
1.75923490524292,0.1838555932044983,-0.03777599334716797,1.8277031887748614,0.16763575344622914,0.07288645506655196,15.056559391679075,177.63621237339882,-2.536749943258272,12.303212392357597,-0.36324917823076247,0.6462313696742058,-1.4374247676134109,368.08355497810334,0.17978339277207853,0.5465687552094459,-1.3806759822368622,332.9424486338943,-0.33534786373376846,-0.8207266026735306,1.3912784296274185,377.9363597067236,-0.08203250083508465,-0.8110037994384766,1.1479641425609588,323.6057881996179,-0.05794248960340094,0.10389885270884976,-0.006487081549884152,12.390957298703427,0.22570567711946685,0.06000850025635944,0.02023666046962628,12.377765519328143,-0.10507241804049547,0.04635388500283336,-0.028402085993608717,13.24610661514833,0.018411094158813802,-0.01714505373528575,-0.11298763540156471,13.079869960055648,-0.05435337368398905,-14.939716596603393,29.176407670974733,-10.43520742893219,8.22291693881154,9.955294958055019,18.52746054958552,-0.7255664531514049,-4.772931201756,8.56729686036706,-26.677527198791505,6.459450321048498,11.62342659715563,13.815751065630465,-19.85116372153163,5.620377817323897,13.5
1.6730685234069824,0.24936389923095703,-0.185807466506958,1.5577720828846358,0.07799064499379446,0.050834836016617396,14.18995400864362,177.67662974579918,-2.518171619751732,15.911624833640246,-0.4015541173517704,0.7370365652441978,-1.4591124951839447,373.89872123950846,0.12836663162335754,0.504755435436964,-1.3002905929088593,338.9011888383105,-0.39178589567542077,-0.7585688629746437,1.3777642929553986,384.21479235680374,-0.017896283270383718,-0.828952574133873,1.1909121304750443,329.62469772560326,-0.1689709794273362,-0.03907088664426129,0.03566388609452923,11.044941947844476,-0.2860377285028881,-0.22352856728835113,0.3151105561986897,11.360632928972834,0.019419486299689454,-0.09531857990258788,0.00206065436595417,12.073688043091925,-0.053765399386339424,-0.022211302895976833,0.0073832127593726395,11.5210973102345,8.197115277722478,-14.25926105067134,23.614758673906326,-7.4574149739742275,2.525079867504537,17.90719993233681,25.868026394844055,1.9051124534010888,-3.614677305445075,10.14345177590847,-34.39898698806763,9.814505906812848,11.947281336784362,11.619989581406116,-13.361645286157728,5.694878710117191,14.0
1.6730685234069824,0.24936389923095703,-0.185807466506958,1.8295127223446122,0.1765616261731616,0.07185841270630684,13.24465200999801,177.68647278931664,-2.50671478047002,11.891573895474078,-0.20016772068105637,0.6793560072779655,-1.3945613890886306,379.7946838587936,-0.034736276712210384,0.5198073816299439,-1.1971742475032807,345.1117494111249,-0.2748540111631155,-0.8149643489718437,1.3570353043079377,390.9516989489599,-0.012198982494301163,-0.8332555118203163,1.1781933891773224,336.23492313781395,0.5666488713576503,0.005208225019424062,0.21669605073647072,11.022958844679,0.3642886148861388,0.2591851765084625,-0.5131105214517521,11.772473526280235,0.1377895984070289,-0.011195270313255769,0.00515253951087054,12.751918002316197,-0.0007937253013266332,-0.004503694136214374,0.039392949048832226,13.071008049180751,-7.527356172651053,-4.927965679802001,17.378464318588374,-4.744688430731185,7.5774500696361065,0.34492427252233027,27.538643973469735,-4.905370149728842,-5.630458029657603,10.294586304351688,-23.75071786481887,7.275679365275428,5.893650372736156,4.5969493354856965,-23.504218604676424,2.6317925149947405,14.5
1.7107486724853516,0.2756316661834717,0.6580191850662231,1.4213355042445592,-0.1921677238054391,0.063392723717286,12.421683707970725,177.51697613218653,-2.503976193264435,11.623228110671254,-0.02489339333424141,0.8307865211367607,-1.2858636265993117,385.2029408767683,0.14701780134142609,0.6008487844467163,-1.373535186648369,350.68984791495046,-0.298625920265913,-0.8508719623088836,1.413904888033867,397.39743360329055,-0.041207039358559995,-0.8750626024603844,1.164682735800743,342.42552788828414,0.09978178511552191,0.3597582923181071,-0.4940124664172011,9.814472173841718,-0.3045341680984653,0.19762637332245292,0.3771659020624227,9.407601898991283,0.050370540607549356,-0.053646598071768734,0.022975233533851273,11.929856595539587,0.2962229981922079,-0.17150883939816414,0.2508910940539588,9.954714086376686,0.3039124231785536,-28.153599821180105,30.44124766483903,-7.405409656949342,2.430523185385391,10.947442049384117,15.59214858431369,0.2169223016407341,-0.4261256892234087,4.826460563018918,-28.014303641319273,5.301251179687679,20.912135516554116,-3.9488959001749753,-22.27140564829111,-0.1642594212491531,15.0
1.7107486724853516,0.2756316661834717,0.6580191850662231,1.6137018694236434,-0.1906383955944062,0.03960842426856917,11.595160182817395,177.69973131796203,-2.4845099635140513,11.550925320865044,-0.29940525426995007,0.6773095801472664,-1.3808406496047974,390.7115989708833,0.0876472305925563,0.5972396180033683,-1.1803640937805175,356.142995545565,-0.1525937016494572,-0.8021515342593193,1.2864394670724868,403.55151313457236,0.1996084164828062,-0.9444656470417976,1.330498033761978,348.1345299009876,0.14874407605466167,-0.4826229266163371,0.6610829484986118,10.478038467166806,-0.13373469200910543,-0.035239566557882976,0.07496372363968977,11.39530160184832,0.38527633373503534,0.2277288763564874,-0.4646867406424935,11.162561998026515,0.17282459352017038,-0.03444052420813903,0.10375917868771185,11.642568934506205,7.330074566444382,10.821997507885099,5.804839637354016,-0.33127724286568994,-4.34690677985549,-7.9035097025334835,38.06837489128113,-7.140453742686659,-10.409669294506312,3.265384687818587,-34.90036906242371,4.42573167616385,-4.597928856313229,8.99630896911025,-15.567021550368517,4.262187745012343,15.5
1.6905457973480225,0.20388472080230713,0.5524731874465942,1.3865435353098372,0.007542935007268813,0.0028957872946392418,10.851696879749097,177.71162327774212,-2.5114072103188407,12.651639848407372,-0.10315350013319403,0.6516462036967278,-1.2442390537261963,395.7784015483537,0.11706323020283889,0.6266010919213295,-1.336552700996399,361.8167635157261,-0.10067372409626842,-0.8369879984855652,1.2304037421941758,409.0469254169357,0.2278043022751808,-0.982023130953312,1.391562814116478,353.76022377462255,-0.2783453192189821,0.17279338552571016,-0.4300405568301837,9.947662740216273,0.5057056658500224,0.0017714052453082533,-0.5146228069948229,10.336430177223999,-0.1356540154176275,-0.11892998047057252,0.14859908454098877,10.391128448705297,0.008803013209809925,-0.11809718176793728,0.2248391195155365,10.23215184504976,-18.07051210448146,-1.0345315615087747,18.065816240161656,-2.47435605362989,23.84734555363655,0.6569878293946385,27.099415203668176,-4.499647630446125,-9.13466633424163,11.157220019996167,-18.03125289991498,5.70192977757426,-5.332387497276068,22.372816499099134,-23.269234919846056,7.547283069975674,16.0
1.6905457973480225,0.20388472080230713,0.5524731874465942,1.6528594891089785,-0.21074651602138794,0.030829577695520707,10.029014005690945,177.8421466785719,-2.5114398486253826,16.68506825646602,-0.36957900516688824,0.743711419403553,-1.5019305777549743,401.2280438699573,0.30217193350195887,0.6469402351975441,-1.4977029001712798,367.16513649286003,-0.08614033404737712,-0.7466256195306777,1.2792331117391587,414.5406834062567,0.2465762712061405,-0.9094087904691697,1.4938861668109893,359.2368083490555,-0.3488232137702731,-0.07221600717654808,0.10141149770694521,11.265607638819102,-0.18032063247028482,-0.045658348373066614,0.13660425764789913,10.694073695319876,0.07810127621873895,-0.09002986350757897,0.14943049371526887,10.840903687822586,0.1812901601408858,0.31210352455185836,0.0841713101066283,11.435025045020254,0.7170753921568394,-3.8715069530159236,18.52453063696623,-4.360872578378767,-4.0044869022071365,-0.5978625782951713,27.03252336051315,-4.195809190287255,-1.257148921713233,1.4987053970992565,-20.079285147488118,3.943597272146726,-6.553102021738887,23.54108920253813,-25.142794164791702,13.4820469147712,16.5
1.5724668502807617,0.2568182945251465,0.022351622581481934,1.5252699110374974,0.1777173364765804,0.02065704398491416,9.196850166789808,177.8494958251641,-2.5186974649305895,13.199096059110317,-0.17767752438783646,0.5989054253697396,-1.3219620341062546,407.17588310168435,0.06743439640791621,0.5994580185413361,-1.3568079620599747,372.8082549520108,-0.06714821303263306,-0.840242432653904,1.241379137635231,420.1478988896463,0.2558452318608761,-0.9053505727648735,1.4959602773189544,365.4657198430302,0.37734796389096587,-0.2894594177054216,0.25487980365651636,11.380696391003491,-0.29382968685074556,-0.09312136173923585,0.09487917158310194,10.915769791949232,-0.00633256171819101,-0.18324308454430036,0.07401092192744546,10.801843056177486,-0.23342044460657504,-0.17662893262220225,-0.0396285248069252,11.898933256599978,-0.6559368865936994,4.199254891872406,9.155408112686127,-1.3598395489435644,6.189291715696454,-2.745832768380642,38.79205722332001,-6.425354590415955,-17.03065806388855,3.707182763777673,-21.043420850783587,3.345314755041618,-10.307902979366482,17.68411587640643,-26.965522780418397,9.348600986655802,17.0
1.5724668502807617,0.2568182945251465,0.022351622581481934,1.657860184105845,0.05759973790068111,0.03957252310774691,8.338046659354463,177.77369267680845,-2.5152614048530695,12.005112395492976,-0.1737591616809368,0.52763607442379,-1.3099323850870133,413.39988659678943,0.09870807107537985,0.6176396438479423,-1.421857015490532,378.6734304645313,-0.1094574422389269,-0.8989272648096085,1.3739222770929336,425.90482041173766,0.10574892340780934,-0.9137962156534195,1.455311707854271,371.73478804411224,-0.02536603530274153,0.10071743146101633,-0.0685847481244064,11.315575307295529,0.30296312456972374,0.22987696348505268,-0.31701599378239637,10.815207843818241,-0.017296426201135563,0.19054527741796665,-0.024077917278815506,10.552031392677373,-0.3798046676684513,0.13020696773829613,-0.2689522012744272,11.694787725780962,-19.47597507044673,-16.49000150680542,37.01455141067505,-13.945212898254395,12.476809388846158,8.396450993567704,8.827580430414528,-0.2471166080760304,1.4876119499094784,-5.702680077962578,-7.160343307107687,0.5979693293850868,1.3686379872262477,28.72231248050928,-40.94424222946167,12.46297329723835,17.5
1.4296648502349854,0.1427026391029358,-0.6024190187454224,1.7016024221729937,0.14316962111738055,0.07613247244786395,7.497894166113621,177.70164651814568,-2.515158846332584,16.10619803761634,-0.20731631085276603,0.5421516102552414,-1.3326049810647964,419.3697189728396,0.22329943276941777,0.6455402386188507,-1.4821966290473938,384.60348301674975,-0.1393725849315524,-0.8862801957130432,1.353632984161377,431.7784606875319,-0.07259696130175143,-0.838612340092659,1.2634687089920045,377.85332379494184,-0.23961178167690492,-0.11822586449141123,-0.05377825418891732,12.222337780225386,0.17160604772150567,-0.1383398269710573,0.10013998963050914,12.310853876571823,-0.19368786920900685,-0.15652150340157248,0.06471716367398604,12.420456260581386,-0.26361443400224066,0.14616727698620724,-0.4660439827530602,12.791119728235845,-19.832771334648132,-5.658587370552123,35.037656421661374,-8.855162726640701,11.985301229953766,9.738907577991485,13.587538325786591,0.9337079970142804,-11.122890189681202,5.284248316511512,-17.651054091453553,4.243527575731277,19.904270944595336,34.4966708946228,-26.96817876577377,13.434303839206695,18.0
1.4296648502349854,0.1427026391029358,-0.6024190187454224,1.7209826429096353,-0.011332042052200862,0.09146000864519654,6.609726475268158,177.73085603149585,-2.50357200934869,12.313892850139132,-0.23984029941260815,0.5999920338392257,-1.3483897596597672,425.5716971984086,0.264349477738142,0.5698084470629692,-1.398295914530754,390.9164150183366,-0.24498680606484413,-0.8714487555623055,1.3448474645614623,438.410352554094,-0.012459998893318698,-0.8599827286601066,1.2075636130571366,384.4918076499527,0.15064906752003718,0.17076566953692196,0.11153029820555234,11.718218059924975,-0.015686870342410605,-0.1641166858142864,0.17723290553708135,11.979938351839744,-0.14603378527747501,0.1198403613338222,-0.0391108499876454,12.927574697606067,0.3675300933820511,-0.2186381472288363,0.31444769367598807,12.125864218462919,9.08523947790265,-9.25257449908182,23.816448333859444,-7.06926656126976,0.1516784167289734,9.43284763649106,23.251313676834105,-0.8461927668936551,-4.965523232519627,22.420878150463103,-30.277276592254637,9.858002872467042,15.484143152497708,4.3382027458027,-14.931457931697368,3.0906175784615333,18.5
1.612043857574463,-0.11432516574859619,-0.34619271755218506,1.801617691907412,0.0064773273003578815,0.02579374420073025,5.695877027833953,177.80217838295823,-2.5105052881664993,12.89496631125895,-0.23939340710639953,0.5667644488811493,-1.2705138695240021,432.06247562751855,0.2584622283279896,0.526464139521122,-1.3771578949689864,397.43922144579915,-0.24768553256988526,-0.869381836950779,1.3491077387332917,445.2174908275184,0.01842083282526801,-0.9300531786680222,1.300124853849411,391.1920247547748,-0.1714460823835341,-0.16191986689200616,0.02041578851568346,13.058243583323458,-0.05671261353005736,0.03412021454571212,-0.06252009904973801,12.714235556535227,0.029632491970381175,-0.012640772554793891,-0.011672071170679603,12.979716717936087,-0.15345337543005116,-0.03663439282403007,-0.004976880217422525,13.468569306692219,-16.569363865852356,-13.871868190765381,29.405820302963257,-10.004800209999084,4.4245735424757004,10.361464746892452,13.372495448589325,0.5492491952329874,-0.8301671280525624,7.222495194599032,-8.60245252341032,4.504468355178833,8.545576884895564,34.269306602478025,-32.616843643188474,10.433758685588836,19.0
1.612043857574463,-0.11432516574859619,-0.34619271755218506,1.8954255977231336,0.09454207122172509,0.06170864000550396,4.722059749113543,177.9084335821785,-2.501263578392699,11.559182627963096,-0.32191666439175604,0.5570106101036072,-1.2936753034591675,438.85551287992166,0.2043776585161686,0.515171285122633,-1.3442265641689302,404.1494149085258,-0.2874042522907257,-0.8716653120517731,1.338968722820282,452.20048753093425,-0.09691115651279687,-0.8939278084039688,1.1670315253734589,398.3417565842607,-0.1034421187812522,0.12754912330375956,-0.045467103946229576,12.825378472708968,-0.11550986678887364,-0.09286882925995489,0.18780664140047537,13.044931454366935,-0.10536430341920373,-0.006793171850463282,-0.0020035480164569313,13.824751056944741,-0.21662474946589985,0.14301592152930984,-0.42089381566871387,13.84684485839567,-4.811980774933472,-10.208315825462341,28.831774530410765,-8.968780415058136,5.828423603177071,15.797222805023193,17.897259020805357,2.2194813336245716,-11.437596054077149,14.901371924877166,-23.157417340278627,7.1424781656265255,21.395165252685548,19.68635269165039,-22.814859285354615,5.003091262578964,19.5
1.75636625289917,0.1524292230606079,-0.08668172359466553,1.9347762918863034,-0.04477814331060341,0.05364763647440391,3.741069042141472,178.0414469183404,-2.4939529652841705,9.930373984141141,-0.33754648953676225,0.6675761124491691,-1.3524562507867812,445.5460413268847,0.17786675602197646,0.47691751599311827,-1.2814660161733626,411.08617224407266,-0.2827820552140474,-0.8493104201555252,1.3187609219551086,459.52116195311066,-0.1445532450824976,-0.8207636365294456,1.0233947092294693,405.46782100392033,0.03681178600163267,0.22415544346288863,-0.15105038766745887,12.901967576813444,0.0022455984371142386,-0.03175127696721803,-0.005123832640142722,13.480365730803832,0.13221507258950077,0.11346005719780214,-0.08239318441169491,13.983832754263222,0.027607119565018448,0.1167993742034582,-0.0795186698965892,13.394887463696998,5.260995639301837,-12.921879410743713,19.748164801597596,-7.525439956188202,5.3732530122995374,15.270174279212952,25.732656688690184,0.187234214337077,-18.39764298439026,18.07427587509155,-31.923829517364503,8.570234732627869,25.551956510543825,12.27188262462616,-13.058014488220214,3.1220765367150305,20.0
1.75636625289917,0.1524292230606079,-0.08668172359466553,1.9156556775035327,-0.047580840996026455,0.04919560883341565,2.7223311420666056,178.22451395709587,-2.5105970292014015,11.468395445031346,-0.28248928152024744,0.7244960305094719,-1.445643075108528,452.4256273651227,0.17978950440883637,0.4844285111129284,-1.3432772958278656,418.19461605936505,-0.17563876796513797,-0.769080825150013,1.2693808817863463,466.7702879067097,-0.09357115296646952,-0.7849482968449593,1.0882397943735123,412.3904778914419,0.1875928194312273,-0.046605390302291924,-0.2060101710285327,13.29228925993338,-0.0566098026347252,0.05685986222806716,-0.18835073177285375,13.643589447892012,0.23944947129441851,0.13217515303034033,-0.05356330275791787,13.75305981368002,0.14532627857312186,0.04861419281083857,0.25702376624457696,13.132599347221992,15.304587903022766,-11.162822860479356,2.249378786087036,-5.657112541794777,-4.7653240666538474,7.142373694777489,39.29743144035339,-5.321998216807843,-28.068008489608765,16.863724989593027,-32.50143844604492,10.065122368335723,18.988764476776122,12.24825314283371,-10.982980072498322,4.702982794046402,20.5
1.7147717475891113,0.19113922119140625,0.0638265609741211,1.7872931390853464,0.09780303302069662,0.07709660336007687,1.7242668493000926,178.32556907438132,-2.5362279454879437,10.42276736123939,-0.14033803401514888,0.6451813134551049,-1.4363151466846467,458.9108131927698,0.033925783705199136,0.5482551753520966,-1.407648276090622,425.2078679047832,-0.08619030822068453,-0.7642528581619262,1.2653691601753234,473.79851977110354,-0.04294319392181933,-0.7737816366553306,1.2640824162960052,419.2666969785462,0.19445186274601967,-0.08906153239510126,0.2025877078682139,11.783417576390201,-0.12142924035553296,0.1946334332374336,-0.1529116396014366,13.055996593085347,0.009576219543890612,-0.15255867704669515,0.09770339403457952,13.072987128076374,-0.034800500623157864,0.03970490129586306,0.1849209230589902,13.27098006169225,-6.632940271794796,-4.872769854590297,16.01861280411482,-5.272941059060395,8.156669998466969,1.1911416352167725,36.46511584486812,-6.474187287539244,-25.06633265018463,8.291810302697122,-22.85054637029767,6.815167478190269,17.11675962924957,2.6641785952448847,-28.96334710597992,4.384078222555108,21.0
1.7147717475891113,0.19113922119140625,0.0638265609741211,1.7911329520932826,0.20120706178783226,0.1343449051595422,0.7145182658299464,178.29798470155657,-2.5112175467518165,14.780581445159848,-0.18881470438092948,0.6361930233240127,-1.4163995260000228,465.4212638787369,0.15210354700684547,0.640674523115158,-1.4650476878881455,431.7980662297074,-0.148234080709517,-0.8598457506299019,1.3473773330450058,480.58056060957455,-0.12388848599046469,-0.7214103299379349,1.1207791256904602,426.39592924642335,-0.39969315504546493,-0.01964592342426082,-0.16115029354552063,12.826126308316757,0.3018169032094604,0.12092593441686235,-0.018418677739371062,12.700507207458264,-0.11813856619408857,-0.15333203250942576,0.0625186465866467,12.949460053438477,-0.15570110839365794,0.08760326691624681,-0.440516385656667,14.350888878342104,-32.79913435935974,-16.51889012813568,38.01490570068359,-11.84097550392151,17.883651762008668,14.373403987586498,14.272690153121948,2.1592317283013838,-10.918996820449829,-3.2309573028050362,-14.643626925945282,1.6627695782308,26.02318534374237,26.8951864528656,-30.520836515426637,12.179459099769593,21.5
1.7006354331970215,0.33408451080322266,0.27219176292419434,1.7336202320565217,0.1931591075655207,0.10616725491715456,-0.20353162123317808,178.0713500730134,-2.50771884354518,13.065006813019604,-0.43367303907871246,0.6645457816123962,-1.508508363366127,471.66453247976614,0.26213083796203135,0.6816972443461418,-1.4671379739046098,438.4728127220484,-0.15462394949048758,-0.9276753878593444,1.345483592748642,487.05703843912335,-0.14500613030046225,-0.7248338660597802,1.024208915233612,434.10187250838635,0.42416606838241927,-0.03740746412296979,0.05802775184937681,10.71059543539579,-0.10268881619165562,0.07685541071752772,0.1225152244151738,11.852517738351315,0.088275733457128,0.03918108063143369,-0.04527170011950059,11.270024135289201,0.08810663397222139,-0.11923613448562297,0.11115334167356737,13.74664823338195,-1.0821161371469499,-9.998317271471024,23.39937701784074,-8.550424396150992,6.603202582746744,-3.2059118012338876,21.309024074077605,-4.919333204282448,-22.951717858314513,7.211653586812317,-24.27052765607834,3.741253400128335,20.248522238731383,18.57920020788908,-16.754958288725465,6.763794800201431,22.0
1.7006354331970215,0.33408451080322266,0.27219176292419434,0.8775006351404535,-0.06541733445329323,0.014372752981161521,-0.8633463265089274,177.90175176393396,-2.5035882484713654,5.027591259406345,-0.07306997844949364,0.7465250739455223,-1.370333720445633,475.96279320426277,0.17760322198271752,0.7640107774734497,-1.4499983775615692,443.3791384480468,-0.1285839056968689,-0.7717959702014923,1.3337714064121247,491.60015520306547,-0.042443571792682634,-0.7589697319269181,1.1861711674928666,439.11916652255036,0.1290705582061636,0.4830958621708736,0.11918484906355827,5.075993703617214,0.042715869488899806,0.2607672471274751,-0.1809995975229522,6.107937277953727,0.035060378703163,0.4161173918147562,0.0026176003978910034,5.391499356696894,0.2715985827387765,0.042632588297328605,0.4335841490183974,4.82220927505374,-18.019889528751374,-19.47790488999337,16.681626578867437,-9.541760627999901,22.015261850357057,-19.07992547750473,33.56432271957397,-10.490717290639877,-23.093785014152527,-5.800435827597976,-32.02314637184143,1.6811617250926794,21.083179907798765,-13.375732005350292,-20.221491689682008,-2.331421120651066,22.5
0.43236351013183594,-0.125512957572937,-0.051427483558654785,0.6916311962112353,0.2627780355181132,0.06440021975857362,-1.2354823936362493,177.69175216214387,-2.5245232371911177,25.025330729339558,-0.1589996294118464,0.8227609252929687,-1.4507645279169084,478.25512018526484,0.04212587031448493,0.7704802215099334,-1.3188396593928338,445.9026606261817,-0.06655307656154036,-0.7497789096832276,1.3134818667173385,493.99021609230874,0.03702130905236117,-0.7759704324603081,1.2923335492610932,441.2271440498533,-0.4579049471035754,-0.00922694304409784,-0.1928917086679266,4.24393827044388,-0.8405344823757407,-0.15894812825550667,0.9974059009903098,4.68810520015024,0.13190166530105404,-0.23183610057580675,-0.15151582763961807,4.846021056590291,-0.09786187916716899,-0.4555125065338663,-0.4169820639620774,4.601722187479592,-7.81072780624032,2.1850038170069457,14.956976006180048,-1.9745091789076106,6.531008910834789,-6.339384418129921,35.40174979150295,-3.090595183223486,-21.036251356601714,-5.245295642577112,-30.496761355400086,2.935514307618141,9.012602711170912,16.23624981760979,-22.451876457631588,9.415625153970904,23.0
0.43236351013183594,-0.125512957572937,-0.051427483558654785,1.1454185741854084,0.24742711734335654,0.0743595259543682,-1.4905872537798512,177.23732048822404,-2.4831012088392743,21.45294588473485,-0.3492808440886438,0.8534198096394539,-1.4535050797462463,480.796955214048,0.09228105076996145,0.6319159746170044,-1.3405440521240235,448.9811610300903,-0.04586327034980059,-0.9270393845438957,1.175890502333641,497.19539650957404,-0.026679641734808683,-0.865084654390812,1.0843644547462463,444.4501077498483,0.5201579926659737,-0.07008156310398118,0.36088095122538744,7.503951209598556,0.4314735388852002,-0.31754742655452955,-0.4003758765128575,8.050988211951653,0.03671820231213637,-0.3155450876096312,-0.2777243823567705,7.8744404835479545,0.019638329299295047,0.2358450974230439,0.135031404280784,8.956086284268064,3.5993167428672312,5.680961596518755,14.27081137161702,-0.010058407983742655,-0.7021121288836002,5.659568510502577,21.29708229549229,-1.5530972454859875,-31.2671604681015,33.99082946702838,-14.694257127940654,8.894786257892846,26.82241646051407,28.33908290296793,-15.25572904124856,8.399340775571764,23.5
1.3836708068847656,0.21178340911865234,0.9621474742889404,1.690053645698219,0.06047807048755694,0.05044750441115012,-1.6595836380420952,176.54676470580532,-2.4743194698457467,17.976740451394484,-0.13226677763625047,0.7984872364997864,-1.3108967566490173,486.218546895566,0.11802891870262101,0.5973928967118263,-1.328017060160637,454.26461541222614,-0.15698400334687904,-0.8959247401356697,1.279601861834526,502.2845270219253,0.05525458876887569,-0.8417265608906745,1.207608312368393,450.41889834284535,-0.45344979986188405,-0.15808418843717395,-0.2090761205926022,12.37464763946091,0.3634048535830836,-0.02985118628222377,-0.3520024258533241,11.762090689433114,-0.3356365818648824,0.15530416276116107,0.4132046122701169,11.90361598462373,0.18250506833132843,0.002872532426905649,0.14584375218581877,13.226908841593211,-21.8874926276505,-8.189922328591347,23.939699525088074,-3.4100947419460863,8.442280398607254,10.23281453371048,18.76955867469311,-0.021878985133953394,-10.43770639717579,3.4749584325402973,-3.895722166597843,3.8959478069585747,8.169201202001423,39.92754891395569,-31.223627862930297,14.605182256698608,24.0
1.3836708068847656,0.21178340911865234,0.9621474742889404,1.789445474024624,0.20469893912532755,0.03503884825569834,-1.6664718488420254,175.59496088581216,-2.4717231105767006,12.498926855522333,-0.32109718173742297,0.7261244460940361,-1.4661489164829253,493.0297078969114,0.27110546559095383,0.6062942984700203,-1.4466661608219147,460.5919573263582,-0.17939522355794907,-0.8409532168507576,1.3506590938568115,508.81329205095136,0.03038492447056342,-0.8462840411067009,1.240569967031479,457.449769509944,-0.17628873706569578,-0.0432077445880015,-0.18207511307881977,13.107793443769635,0.16329941210155197,-0.101665644350834,0.003748298549112253,12.359176612308818,-0.08431699095754051,0.07339287363257883,0.12663954204763792,12.67507436126421,-0.25248724365612607,0.058650150543207234,-0.19509984155871327,13.189553984600026,-9.921470736404881,-15.52601438999176,32.15320239067078,-9.32037942647934,11.090740726143121,8.447360153235495,15.81082985162735,-0.538796671978198,-4.736723370440305,5.10585234163329,-14.434149383716285,4.640112941251136,6.774616885371506,24.792265955507755,-28.972233753204346,9.489925994277,24.5
1.647416591644287,0.17718744277954102,-0.3234163522720337,1.7898232589550473,-0.01917175403612197,0.069958628852183,-1.628479048305647,174.666826481514,-2.4387916424366534,13.180752910469106,-0.31362333938479425,0.7384483069181442,-1.49494653403759,499.63481131131897,0.2595899436622858,0.4989241510629654,-1.3436597084999085,467.0732562185874,-0.2685715202242136,-0.800134948194027,1.386983758211136,515.6018529631579,-0.04803505157935433,-0.8102706062793732,1.0732164925336838,464.2378355916316,0.14330433651425836,0.054064084010853844,-0.04887089537108111,12.45979861738556,-0.029499410414992582,-0.055489250083221205,0.09119076893864696,12.166706393024516,-0.07483745504118529,0.11650673257089482,-0.009299406827396543,13.192157932966415,0.11072146000225555,0.016920939519023334,-0.03688200506490038,12.633882742683342,15.97649819135666,-12.601012318134307,14.28922282397747,-6.8090675413608555,0.8672239878773689,13.180031733512878,31.603654108047486,-1.491510001992574,-17.967749772071837,16.547167707681655,-42.43409648895263,12.147564568519591,20.706826086044313,6.215882063489407,-4.255372835472226,2.9303605266939847,25.0
1.647416591644287,0.17718744277954102,-0.3234163522720337,1.7714461024112802,-0.01605668746519379,0.06668196831427647,-1.6478111722979023,173.74242275644102,-2.435136550289011,13.838388852071926,-0.3548001790046692,0.7082137849926948,-1.5079995095729828,506.1834712809536,0.19740212108939886,0.5296509844064713,-1.3600837302207947,473.569901732851,-0.2629268301278353,-0.804589841067791,1.3776214450597764,522.5752442691169,-0.01686635885875148,-0.8081499981880188,1.1312862974405289,470.99117482939107,-0.3249396589233723,-0.18278492479127717,0.08891135017591946,12.694373461440914,0.0320138472201934,0.12915138486599256,-0.12549207101593787,12.856087050343517,0.036965297495583506,-0.13997771191965397,-0.0078026015635483115,13.360992340581227,-0.13799786946821377,-0.02809062811469029,0.047271661783021085,13.635659709977663,5.985000349860639,-15.123458199501037,22.97247617766261,-9.05602882027626,2.5296512546762826,10.542450103312731,24.226983431726694,-1.078905280806357,-12.141916391290724,3.2648356230556965,-28.799200931191443,6.055165885370225,10.12795887246728,23.447060298919677,-14.791725769415498,8.495959151387215,25.5
1.6793270111083984,0.23516082763671875,0.3880760669708252,1.834433004658297,0.0322778785228931,0.07005024760499272,-1.6308258289930198,172.7626926701192,-2.4128550507345476,12.878087702879679,-0.20002822436392306,0.6200265440344811,-1.3931718158721924,512.6136725278697,0.23534118197858334,0.5669932305812836,-1.3964075553417206,480.1703948683681,-0.26798681139945985,-0.8155302426218987,1.3892599260807037,529.4830362236719,-0.023021816575783303,-0.8462379038333893,1.1736903178691864,477.9950388453371,0.6018295467955418,-0.08140402951823841,0.2755133858565085,12.013164072104992,-0.12668357907293573,0.0421326443267812,-0.047028979390774835,12.315794876626512,-0.08884289568169597,0.02810898823495262,0.08676969628001728,13.12452166405119,-0.03497309190236493,-0.008843297325534535,0.0007409768470752045,12.937207781369414,-2.5724182748794555,-7.495510048717261,16.169339599609376,-5.940049954183196,4.511393878236413,6.454526075515896,31.10294466495514,-3.496043733516708,-8.854450836479664,10.63212400868535,-33.331085810661314,8.71734107453376,13.354556787014008,10.042390545383096,-13.885690271183849,4.376769249117933,26.0
1.6793270111083984,0.23516082763671875,0.3880760669708252,1.761548929315075,0.12001257304695233,0.059288706518811324,-1.6064000430522234,171.82974371661385,-2.399361948519368,12.752254721279726,-0.20376682259142398,0.6000100108981132,-1.3667009431123733,519.0218149044791,0.22804938085377216,0.5621912696957588,-1.4088717520236969,486.6371951722782,-0.3369350554049015,-0.8892715758085251,1.431618646979332,536.360661281316,-0.14759220506995915,-0.841024044752121,1.0422180932760239,484.8894807197665,-0.29092768941910246,-0.012458807443300407,-0.08688039923656556,12.354981670201912,-0.03331314726131649,-0.1272483256613399,0.17492450085692454,12.509030248723587,-0.08915228872903638,-0.18499099146997888,0.052066700331806305,13.261694252803492,-0.21955835914393543,0.0024267399122580536,-0.3430695671556903,13.5203167623962,-15.030465165972709,-9.243255529403687,32.95283222198486,-8.740225386619567,9.77376593902707,15.360446999073028,16.56651204109192,2.2027389860898254,-3.304919740520418,10.12280991781503,-26.73577435016632,6.5059587650559845,21.485181938409806,24.819509282112122,-16.947001628875732,6.719972802400589,26.5
1.809755563735962,0.05411875247955322,-0.09457111358642578,1.8186175310370307,0.030546333789898805,0.030795669012312957,-1.5554750372588722,170.91993897281083,-2.365600327223175,10.84989388676144,-0.33827261373400686,0.62789286673069,-1.3766134583950043,525.3717301361146,0.21128380842506886,0.563179849088192,-1.3322838044166565,493.2675478055916,-0.31312551453709603,-0.939035952091217,1.41731511592865,543.3562127598602,-0.18985181897878647,-0.8382383117079735,0.9125447005033493,492.1337122241598,-0.10148769229317445,0.1489063384139366,-0.10745916845842869,11.91466591136597,0.05401895152372742,0.05154167512428085,0.07646297944090417,12.6245200350181,0.229631904272248,0.019374899468815675,-0.12406278518534501,13.128836528301983,0.13488469546708357,-0.029066719298672723,-0.010392392915720985,13.40976113715868,-1.7719869750738144,-7.535176661014557,25.02639796499163,-7.130265681743622,9.316568832099438,10.268168840408325,19.967081789970397,-0.27715796768665313,-15.341763687133788,16.473898540735245,-33.20225421905518,7.1462160897254945,25.409259033203124,22.179144821166993,-7.328057680875063,4.135367826800794,27.0
1.809755563735962,0.05411875247955322,-0.09457111358642578,1.8185127978646605,-0.03206650224414602,0.042406746124137744,-1.5621632088828488,169.9745056173068,-2.354750566045185,12.649145287382904,-0.281406387090683,0.6719498780369758,-1.4146797841787337,531.6733938784805,0.23832597248256207,0.5357236307859421,-1.354606574177742,499.8768313981643,-0.20412311397492885,-0.8550218603014946,1.3471063750982284,550.0597203620797,-0.12279324799776077,-0.8541818875074386,1.006069120168686,498.6552422960916,0.15419577317340566,0.039356930340919895,0.02317493269189433,12.44872761039169,0.08149607218275257,-0.04979616995898829,-0.10829868770407212,12.735432913994785,0.05189981696712616,0.18258520867764796,-0.08536052025579492,13.043012656122611,-0.009890357894933886,0.02910061551311562,0.09529288550982963,12.254156137033604,7.81963816665113,-7.068611111938953,13.489874407052994,-5.184816872477532,0.8681555213779211,6.047629943192005,29.763148069381714,-3.4045525934547185,-23.79511622428894,20.179034481048586,-32.3462820148468,9.804053964614868,22.09065737724304,19.69739111661911,-7.519454767182469,5.05465257152915,27.5
1.778033971786499,0.08264541625976562,-0.05962181091308594,1.6564938776006704,-0.08294567136270281,0.03835662642950567,-1.5929909940778908,169.03718808538892,-2.342847481009073,10.566079128652541,-0.16017899714410305,0.7419530913233757,-1.3547176736593247,537.9686957463684,0.3001425238698721,0.5613843727111817,-1.4053509056568145,506.229053055677,-0.2123928287625313,-0.7782403671741486,1.3425050228834152,556.8427086565188,-0.12477040532976388,-0.838199243247509,1.0424866610765458,504.8116195384716,0.30519022245741184,0.10102633950508394,0.24702036613588393,11.753810624661615,-0.1450791019838915,0.14213541085363354,-0.04943905134565995,11.742936438588101,-0.04019662749169575,-0.013258434300012376,0.06030679480839719,12.968036157310866,-0.032288766922399716,-0.04617820611554827,0.05945171439903353,11.407570060610494,4.441336909141391,-16.311069860458375,25.110284147262572,-7.266506209373474,-4.750531477332115,6.297023973464966,19.075376824727282,-2.1322784809581936,-17.7825088596344,10.091492498219013,-29.29567008972168,7.807283424176275,31.731106643676757,12.364249583519996,-13.685579697787762,3.5975831580907105,28.0
1.778033971786499,0.08264541625976562,-0.05962181091308594,1.6791861024439458,0.032609689506866865,0.017756271089228212,-1.7193832164099279,168.13614956827692,-2.330012379901211,12.738078837993642,-0.1791838212683797,0.6989995914697648,-1.3298735386133194,544.2577736969341,0.18856387443840503,0.5854175397753716,-1.3914804816246034,512.5262063308929,-0.16387924686074257,-0.8492557719349861,1.3342946362495423,563.5097023084669,-0.11526008389890194,-0.8813006317615509,1.1133006083965302,511.1754724723578,-0.30333320184540763,-0.12970710266974778,-0.22038730583307523,12.014888865721817,0.01875059807008417,-0.05887188091544157,-0.043503869201454604,12.164092278040648,0.2782175995695898,-0.055704560757893186,-0.11416306680908095,11.922042725106376,0.16077606636931183,-0.11653629320500246,0.3392421891868581,12.642910359436007,-26.901653881073,-19.074093737602233,27.893531575202942,-10.053753869533539,5.949326199218631,8.886461022123694,12.662993892692029,-0.011567732058465481,-11.136362434476615,7.386764397397638,-10.862129608560354,4.504683007262647,30.97942770957947,35.94732275962829,-24.339562401771545,8.488704659938811,28.5
1.645136833190918,-0.0725407600402832,0.21750140190124512,1.5277247971037207,0.0797330502163456,-0.001672558306933048,-1.7089029694939197,167.29447309809294,-2.3310320844832058,12.933821155745552,-0.32881238624453546,0.6632667076587677,-1.4636028707027435,550.2700077231498,0.23201292231678963,0.5716676789522172,-1.4519478476047516,518.5583504203117,-0.11256531121209264,-0.8568156588077546,1.379660919904709,569.3004687797185,-0.01288340163425346,-0.9332482895255089,1.2925577771663666,517.5817487104057,-0.05726399336526355,-0.051400370640103825,-0.0774078665197161,10.861152230227935,0.18438655895792888,-0.07858153287268207,-0.08608589090346054,10.680233645277315,-0.15901179337287716,0.04528232482635179,0.2737149285114804,10.401690921094255,0.04745670600364802,-0.04793787743587047,0.16579642109589282,11.343201754005749,-5.565517110824585,-16.1548691034317,34.80483766555786,-11.798518342971802,5.967348966561258,3.975278954990208,8.556187907122075,-1.7658731587708463,-14.198896781802178,6.532341135442257,-10.765734204798937,4.893771172650158,16.35575853064656,29.381245872974397,-30.580015897750854,8.392819268330932,29.0
1.645136833190918,-0.0725407600402832,0.21750140190124512,1.1314379408923487,-0.38863859636432296,0.06315866214342515,-1.736018523403044,166.58569363788695,-2.3167266662558603,11.928201232962234,-0.09508344225842848,0.7477626851201058,-1.2832906064391136,554.860808777978,0.021796189615452023,0.6112916016578674,-1.3096599817276,523.4572996836077,-0.14563566081225873,-0.8237317651510239,1.4127733373641969,574.5383063594885,0.010252025349036558,-0.9702887725830078,1.2883991283178329,522.5443275979005,0.753452717098626,0.09694878983690679,0.9347179424308802,6.840425242191582,-0.4224813593100313,0.23101805574529863,0.3638522807110083,8.007574620202165,0.140074851441105,-0.04647383690052278,-0.2954318091680472,9.767005431342294,0.30108110992196613,-0.1345023028236797,0.11329891332083479,7.881649128652371,-0.6702991211414338,-17.115349120795727,44.19893575310707,-8.541096231639385,-7.028693849891424,7.009988102465868,2.135315222805366,0.2796674256050028,-7.0174264051020145,-7.497562087140977,-26.282714910507202,1.1433144937083126,34.65166353940964,10.817890509963036,-27.704713459014894,2.245715483133681,29.5
1.1954545974731445,-0.6162480711936951,-0.3824874758720398,0.8471251299045608,-0.28826413940937984,0.0176470946149846,-1.9378960772471066,166.0495264619822,-2.272727104895375,18.105104573264825,-0.25101499156095086,0.7672199118137359,-1.3150105813145638,558.1856126123492,0.2216423738002777,0.7595856031775474,-1.3455274504423143,527.0088754949926,-0.07149429234646959,-0.8161364066600799,1.2631560337543488,578.7277504154714,0.2352281704172492,-0.9772905585169792,1.4350180941820145,526.0859884012505,-0.8379837246934854,0.1681663425989523,-0.8547310770527937,5.466451325797616,0.4130087053694499,0.31036810499152495,-0.17278050363476571,5.69359791582454,-0.012682857912419958,0.05663974189738898,-0.054204538517683074,4.9222913985256245,0.09266516344117241,0.21171740677576026,0.332460676426782,5.64374239023201,-2.0553248745203017,-6.087453656792641,11.221418434381485,-5.090409270599484,0.6905384331196547,-18.51155311331153,27.54162920027971,-8.597175798504614,-8.414080536365509,1.357917065322399,-25.4159930145368,1.5992336668120697,0.3992488719522953,13.422965212650597,-16.951562771573663,4.691905953364913,30.0
1.1954545974731445,-0.6162480711936951,-0.3824874758720398,0.6417486623940176,-0.42642624615618585,-0.014028104851917873,-2.192145879628578,165.66474051081332,-2.271716664939968,21.469243466403395,-0.19070365767460318,0.8894888499379158,-1.2722978401184082,560.5877704849466,0.17615337018607533,0.6961228978633881,-1.3783952647447586,529.8254997022073,-0.1284980986591836,-0.8529851421713829,1.311076882481575,581.230885198725,0.15346962858515326,-0.9027821126580239,1.3679613238573074,529.0564219484016,0.4301927836811533,0.2671586655392951,0.05037109865910676,4.272061631804582,-0.3700985409613302,-0.25310350727334646,0.1497988489311685,4.89139131923153,-0.30722127662434945,-0.18052285411358987,0.15187751075923647,6.063045304230436,0.1804750575429223,-0.17895777946811267,-0.11822227221414446,5.617162627249351,-4.0452926179021595,-4.5689209368824955,23.82426603913307,-0.6354731026105582,4.105772217512131,-1.0736015221476556,17.837737332787366,-3.4870659308927134,-5.311111412383616,7.478127761036157,-13.478543037474155,4.081336682376568,-0.3217226871848106,14.478176269754767,-29.53671419143677,5.534794123070315,30.5
0.6815307140350342,-0.42390263080596924,-0.3403916358947754,0.35862853976737136,-0.27866755710084146,-0.027922837541373573,-2.438884958656249,165.38873865362388,-2.2785888930416713,16.48333174994774,-0.3933323389664292,0.8630648329854012,-1.456312621831894,562.1644282343494,0.21231804709881544,0.80070467710495,-1.3928446507453918,531.3063038869817,-0.1757230171188712,-0.8686510398983955,1.3810544508695601,583.4317639674883,0.2589346460998058,-0.9042830163240433,1.433170604109764,530.8269223054588,-0.4990061344553968,-0.15756922651340366,-0.0744285507594919,1.655099757356674,0.10421368215726677,0.25524089037954384,-0.07706995113949844,0.872696697377267,0.17260813227310767,0.003417956061859955,-0.014655691438127404,0.8979522266258948,0.17568958687677674,0.3314759834451705,-0.10430564100047592,1.1604214580840087,2.645693745166063,-19.391251271665098,21.252257315218447,-8.420332381902263,3.080233075618744,-7.9097108165919785,21.911144045889376,-4.683061786089093,-2.5723242792487144,-1.7375799334049224,-23.41430441841483,1.0585194815602152,0.731940315887332,-3.224582343548536,-25.99751635726541,1.1764809376560152,31.0
0.6815307140350342,-0.42390263080596924,-0.3403916358947754,0.04118716818286025,0.05432905913715506,0.009606697407841163,-2.544477739934228,165.31695288526657,-2.2464066541252636,73.83874441737049,-0.2837703935801983,0.8231431004405022,-1.4035354149341583,562.9271760984507,0.13858270435594022,0.8043837147951126,-1.2688198989629746,531.528960773278,-0.10706886608153582,-0.8559326612949372,1.2688224148750304,583.2704795159531,0.29256969191133975,-0.8305676904320717,1.391798308491707,531.2113831444599,0.5868049562948914,0.006213887860845618,0.12030505091605043,0.5814738160548303,-0.2598805561183555,-0.08599813438606084,0.35361306944119747,0.1446656389139673,0.20294186999334907,0.21506160053361142,-0.29942966055738557,-0.6242938250832064,-0.32118174030640667,-0.04679824663078547,-0.2011314320182929,0.44957337399297354,4.966507985433563,9.853951057605446,1.7391601891815662,-0.16677733452699614,-0.1829188460484147,-19.292449776902796,44.788162021636964,-7.2647272958979014,-11.31130206465721,1.6991950887441636,-34.84017499446869,1.4686028187349438,-11.74497833892703,1.3785150473564862,-15.985957360118627,2.8782998494245113,31.5
0.18175840377807617,0.3128098249435425,0.5486263036727905,-0.12802480208068792,0.2131214953586828,-0.00039333448247203125,-2.462548315840504,165.37280788588737,-2.2516363734722087,25.568603703180404,-0.1841680608317256,0.9235203352570533,-1.2756905788183213,562.4617350485792,0.20217891317617614,0.8167291465401649,-1.3705418848991393,531.15761743243,-0.13096744898706675,-0.8275749889016152,1.254063366651535,582.4953295744746,0.1350857075676322,-0.8052460986375809,1.1984027510881423,531.0697529022883,-0.3536394211230485,0.10054935251093157,0.037827284946359764,-0.3079468016313283,0.3112653411393813,0.06374207027693701,-0.4834827085113495,-0.026347186846414995,-0.19829355331383286,-0.10306680206449789,0.23934376512523692,-0.7375368362426842,-0.15428223997539975,0.0851639033569138,-0.25129905897742305,-0.05765682170650252,2.8250517612695694,-12.979489400833845,33.200710649490354,-1.5828790076775476,-2.252103243917227,1.0383260736614466,0.4155319522321224,-1.0446299042832106,-3.6570190748386087,26.42857168093324,-12.527261753827334,9.70874079110101,21.466394807063043,7.144033064991236,-24.56410359993577,3.0638026545941828,32.0
0.18175840377807617,0.3128098249435425,0.5486263036727905,0.30685199238819366,-0.4699200463562741,-0.00940453543374448,-2.5086791991964326,165.28415854781187,-2.2530242747642424,19.004498254123256,-0.06893518129349104,0.8815602076053619,-1.214626390337944,563.0599891063139,0.12722837003413587,0.7384466290473938,-1.4139639699459077,532.0177135318179,-0.14466565705835818,-0.9036356303095817,1.3545975929498673,583.1592050851453,0.22238899040967225,-0.8417726987600327,1.303479477763176,531.5086319662765,0.7626956528285094,-0.24181535808501983,0.9041510196961835,1.1849749896939632,-0.4008585269494063,-0.048356394867277636,0.4102585543941126,2.004445456876923,-0.2811586261467099,-0.4322421841999782,0.012996517890470453,2.0714798852052096,0.5436556859327777,-0.06713943665823582,0.3248999149711303,1.3558721435244043,4.205425141602754,-30.296426639556884,33.92359585940838,-5.732738224603236,-7.164149655103683,7.861516457870603,0.37774777637794615,0.1783562257641461,-2.7489972764998676,1.8073052661120892,-6.543132403641939,2.800897312841844,14.582502656653524,18.35862816274166,-35.1277858543396,7.342246445864439,32.5
0.4167182445526123,-0.5407789349555969,-0.4085138440132141,0.19412648607103086,-0.16293125720711782,0.06313363564550445,-2.734216500522799,165.16320519152228,-2.230564643356088,35.73071812507431,-0.24414131861180066,0.793533675968647,-1.2995738199353217,563.4965371037354,0.16031681597509306,0.8526354417204857,-1.2324596434831618,532.8848683939782,-0.18024490509182214,-0.9167317509651184,1.2411169230937957,583.6755901968703,0.24199602223932742,-0.7692477628588676,1.2792228060960769,532.0337491063439,-0.9644672876379171,-0.12817583356729467,-0.973286806709571,1.9071913442111303,0.4227430305735142,0.11569773586676327,-0.08102056132673488,1.589343323380276,0.23726025277186405,0.3837094443747908,-0.2850139149052621,0.33369744385515526,-0.353763724556999,0.20155969356325368,-0.36480201548425617,1.1982849039251404,-2.2233762833476067,4.197934819534421,3.75127255089581,-0.9619862562604249,-2.1296900095790625,-19.921194332167506,38.10438639640808,-4.089250141605735,-14.362567993309348,-1.2897241076827048,-26.110799690969287,0.20559612919576467,-5.749251330569386,15.364660259485245,-17.388921491205693,7.140290699722246,33.0
0.4167182445526123,-0.5407789349555969,-0.4085138440132141,1.0595796487953963,0.3319396675014968,0.02446330766708587,-2.757513191960766,164.83205348761592,-2.2126539693426057,29.49970994492408,-0.20408440504223108,0.7000205272436142,-1.248894453048706,566.3713628471332,0.23860352754592895,0.7672648549079895,-1.260845236182213,535.3650884497584,-0.23458869233727456,-0.9640047261118889,1.1988410091400146,585.4742787672974,0.14619508430361747,-0.7427202025055886,1.1054541796445847,534.400176572274,0.011369659340062404,-0.035693538974399266,0.07120712360881788,8.768478652754226,0.19133805367215775,-0.3633444701452349,-0.07946451267124521,8.978441678878259,-0.21385075397136927,-0.23528739844516885,0.09613473937889089,7.592714590439055,-0.27193544815538073,-0.06303056179675096,-0.1956543352857589,8.690010607940067,-2.0001255932077764,6.391931008640677,17.835205091685058,0.6553754357621073,-1.832403917312622,13.203856379389762,17.8927809458971,3.4047594593837855,-12.906030763685703,38.49500205278397,-4.59525502115488,11.586536741256714,10.060473907655105,38.51025465011597,-20.15174068108201,14.718317131996155,33.5
1.4571309089660645,0.13903117179870605,0.3408569097518921,1.5964712470760007,-0.08736046168134154,0.02400566837773837,-2.5990535496699523,164.12590706476402,-2.203632253295348,14.36915516544388,-0.33829370692372324,0.7081253391504287,-1.3546267104148866,571.6491981576498,0.18224495194852353,0.6301808965206146,-1.2606991469860076,541.0036974941252,-0.31671287298202516,-0.9250371813774109,1.2406315666437149,590.4593480302235,0.1373144135437906,-0.8318945804238319,1.1781748151779174,539.7398650310272,-0.03056230752951806,-0.013304298272023335,-0.03458936419114462,10.927912196639115,-0.2634855121012308,-0.08829678502286356,-0.06798163254584078,11.453750500298145,0.04072871809258599,0.26399773232262275,0.0755392344814816,10.434359906202042,0.22052393224268094,-0.24608518724147996,0.39099844766658565,10.632795373301528,14.188220043182373,-10.98871177904308,16.12416940718889,-5.712546987275127,7.4050683393888175,4.004814699217677,22.710394549369813,-1.659529151134193,8.743416104018689,38.32834709167481,-29.418044090270996,11.604271664619446,0.40772401221096516,4.45862408220768,-1.8835525955446064,3.2985482371610124,34.0
1.4571309089660645,0.13903117179870605,0.3408569097518921,1.554905313289978,-0.07647480590646116,0.005787576430168207,-2.4356405059372626,163.3024724353674,-2.212259159522182,8.942778123938613,-0.17719336142763495,0.6446795329451561,-1.3074148553609848,577.4335693502701,0.11171910464763642,0.5974316048622131,-1.3070097881555558,547.143216235215,-0.1647364781051874,-0.8404517984390258,1.206688402891159,596.1852794627405,0.23303865291178227,-0.9342141023278236,1.3202225172519684,545.7249287352508,0.5571184443424603,-0.13150565309635234,0.24862630126827895,10.957647659206105,-0.055526165283180884,0.05631689102678674,-0.20229179489073065,11.54906498777519,0.3341297489837096,-0.006546838578402382,-0.047047467197452925,11.176865829583434,0.11029967835381398,-0.0780037499189372,0.21228670407757513,11.43438760809228,2.1579985547065736,2.8882991892821157,5.626078741345554,-1.1348727310961113,7.520326710790396,-5.559208281412721,38.637375612258914,-7.250713167642243,-11.474971770197152,10.788997474350035,-25.661104369163514,4.990910026021302,-11.254484494924546,13.355445805191994,-17.810118131637573,5.248416088335216,34.5
1.4623427391052246,0.20686233043670654,0.2142164707183838,1.6412409939088164,-0.01262747527354888,0.010363221712805699,-2.276540777139317,162.45765620986032,-2.2373994505538723,11.823563208731859,-0.042395634712884205,0.631952044069767,-1.2691097974777221,583.4134203773035,0.19617960933595896,0.6159505870938301,-1.4593621343374252,553.1411035226039,-0.09298620317131281,-0.8728317406773567,1.2876206362247467,602.1949098318311,0.20799186192452906,-0.953629264831543,1.4535735076665879,551.4800440811002,-0.19958319684337475,0.12443495125407754,-0.39251470008245926,11.96253426122094,0.3048599396065027,-0.03298435681213731,-0.2122544427187049,11.697503630776428,0.059539585333237326,0.11297406354091274,0.17687502497554994,11.799391122066268,-0.120672110216698,0.018046951945587298,0.21224719952261173,11.098581844487477,-13.651737657189368,-5.530075541809201,11.133708079010248,-4.233566217785701,23.496599345207215,7.68025029450655,38.263359518051146,-3.8386048114299776,-13.121032915115357,17.80351390361786,-26.413743295669555,7.468187547922135,-0.2767894575279206,14.321033412516117,-20.22420045852661,6.765626934915781,35.0
1.4623427391052246,0.20686233043670654,0.2142164707183838,1.7321958838368756,0.03425368719997064,0.05653758689808601,-2.170338962283843,161.5709117303277,-2.2110815196840825,13.278693051586677,-0.12464109569787979,0.6094492650032044,-1.3378235125541686,589.8458141718716,0.3100134508311749,0.5846994426846505,-1.4866083872318268,559.4072818533097,-0.06614501379430295,-0.7902552729845047,1.3204354792833328,608.5463776385288,0.1379097906127572,-0.8990686824917793,1.4572461932897567,557.6076073032489,-0.00938351939921323,-0.2268047358802163,0.176078198201583,12.68497523253306,0.01035133094012107,-0.02261360869493866,0.0356186749736055,12.087425440258684,-0.01591709315274714,0.029097897371337885,-0.006053901658004794,12.43783164898154,-0.17557980857576513,0.17374196590054944,-0.21280586950821714,12.559970898443751,-13.521593079473824,-6.77342024102807,22.70994237661362,-7.024729219079018,3.714451708421111,8.006744494140149,27.630818305015563,-2.4704606756940484,-7.79198893290013,0.656104962900281,-18.73213777065277,3.3205726629681886,5.191932873036713,22.82624216672033,-33.16842554092407,11.125051329135895,35.5
1.7249336242675781,0.23595142364501953,-0.09446418285369873,1.6661718149022038,0.21022119880290957,0.04139633414300969,-1.9633432788982728,160.66893212810837,-2.197212486113651,12.422287503627333,-0.2929622945189476,0.5664895331859588,-1.4124319022893905,596.2151350956245,0.27188276186585425,0.6093216335773468,-1.5042440164089204,565.5749486044399,-0.10953749645501375,-0.8577087241411209,1.3278401720523834,614.8128857320356,0.03665039725761744,-0.8216020482778549,1.3438095098733902,564.283679157238,-0.3515546459036938,0.01868781231837893,-0.24462387898847598,11.495455327331626,-0.07071824405343353,0.02048945370168087,-0.03875925704046034,11.32065637497616,-0.154374902765036,-0.13617314806037442,0.10538784204807822,11.27060690018316,-0.2408779440351429,0.08630231458278693,-0.24667714904496982,12.462322978514361,-17.227514449954032,-15.21895648241043,38.249336338043214,-13.368012199401855,13.971762161254883,6.947831967379898,12.057981674671174,-0.7081046938686631,-7.3664933903515335,-2.177288418859243,-9.317940562069417,1.6342573812231422,7.787106853127479,25.457438201904296,-37.32290167808533,12.455320550203323,36.0
1.7249336242675781,0.23595142364501953,-0.09446418285369873,0.9082318676829876,0.31647009920287456,0.0887438163827616,-1.7457977627309864,160.00963399956572,-2.1725181681527412,11.418267255663345,-0.2774932977184653,0.6566679513454438,-1.470966454744339,600.7816026199553,0.146345006916672,0.6767875492572785,-1.3588541501760483,569.9323261340816,-0.25715103358030317,-0.7663454252481461,1.3683488881587982,619.5218014162699,0.11804785417742096,-0.8754999047517776,1.3335455077886582,569.200547143731,0.2517794540609646,0.3457682655856894,0.08852457301068278,4.1406638175993615,-0.4335199540352674,0.42463996610012716,0.3656060114638205,3.5696144540573624,-0.33383848796819715,0.5015507189238659,-0.10512572414790311,5.268034216884419,0.6307891594118696,-0.48738484493533685,0.056468177485244464,4.02642690096135,3.668360347747803,-13.346325048729778,19.038800567761065,-10.807860795657616,3.6496321295201777,-14.301627131551504,32.7750547170639,-9.561299095526337,-5.018374329507351,-18.266823026239873,-43.86791437149048,-1.6407403914444147,4.523660632073879,-9.094502391666174,-10.435187413394452,-1.9126057852967642,36.5
0.4435155391693115,0.41250288486480713,0.19657564163208008,-0.09670687141533167,0.21104840828551474,0.020068666187792204,-1.53470058812304,159.80985703380583,-2.1785711010571136,59.73784885665118,-0.35367737606167793,0.7318484750390053,-1.381649341583252,601.5486298578998,-0.11788402988400776,1.0636254000663756,-1.5244573277235032,570.9341257329602,-0.02247773227543803,-0.8706049498915672,1.2367232674360276,619.8812808107625,0.1717216043919325,-0.7758828291296959,1.1875655353069305,569.0454977379944,-0.3113666646985815,-0.38831875480045036,0.3342450984499331,1.1512476299702585,-0.31384489127794934,0.7862338718987597,-0.9016735746505655,3.3091592426553507,0.7843711526889124,-0.6994837778961609,-0.3111643314950938,-2.5667910645593968,-0.2988347807384972,0.895601949612025,-0.3395814597548923,-2.014154275238227,-28.260517349243162,-35.95896453693509,39.69121340751648,-16.373221102952957,12.88837591469288,-6.616500567793846,-16.02195442967117,0.22273540497757494,2.060281331986189,0.8729179547727108,-2.7729769068956376,0.31265577698592095,22.05872517824173,44.463806965351104,-22.383091982416808,13.58237347587943,37.0
0.4435155391693115,0.41250288486480713,0.19657564163208008,0.1681862826840371,0.13634644239633945,-0.055040126656797576,-1.4332984912179234,159.74737136218673,-2.1561026712121016,110.84624537245104,-0.33936329951509836,0.6445805424451828,-1.3330331802368165,602.0849745932156,0.12922949610510842,0.9516648083925248,-1.3896231651306152,572.4938833901948,-0.03212000076824552,-0.9721130120754242,1.2465752583742142,618.4641371582516,0.07416269971959992,-0.62630579829216,1.1206746232509612,568.7937308566901,0.6173272942672807,0.7418046021628784,0.19502599322000522,2.985448390616039,0.4664343056578842,-0.8836515312142434,1.224915104960416,2.5517151825055926,-0.4387013474830457,-0.0037012133408910308,0.20632849939663625,-1.4134064056017681,-0.2410970345517098,-0.24612640742581854,0.026571156229886265,2.629538513701687,0.5879493179917336,-0.8093364556133748,12.864801675379276,-4.690613919744501,0.8632485041022301,0.35409382060170175,17.293459753189236,0.08667878919281065,-21.871829746030272,33.99427168019116,-16.166002029180525,8.052408231571317,21.585051806867124,22.492676721289754,-15.367655730843545,9.887357733128592,37.5
0.359005331993103,0.44994497299194336,0.5373952388763428,1.2222050995609974,0.004932790028987546,-0.00449103651672868,-1.1450446394444314,159.63113192722412,-2.1734179069641386,23.625301119152535,-0.19474821403622627,0.8013872995972633,-1.2490698939561844,605.9905326819417,0.17450997427105905,0.8068353280425071,-1.2000666433572769,576.0310161657605,-0.2155012970417738,-0.984386778473854,1.3090860587358475,619.9917606855865,-0.00666047299731872,-0.73899718105793,1.1037899231910706,571.9706364914132,-0.28639795812561925,-0.39112097233710236,-0.21053504440031845,9.553408950013997,0.25201735287883953,-0.06080493820279294,-0.24204376183456422,10.082516621133886,-0.16306001216246738,0.09279813221228198,0.05626948640356904,7.316421324245763,0.1671556484516364,-0.3076373059938103,0.3477908787060444,8.275632144281074,9.465422243252396,-0.016044331435114145,19.75939805328846,-0.38028390671126544,17.606690121442078,5.1027693926543,16.024939792752267,0.08029689313843846,-13.737431390695274,61.14927152633667,-22.89518578335643,16.97985499858856,16.755093009024858,10.279442588090896,-3.834328319504857,4.910368022196926,38.0
0.359005331993103,0.44994497299194336,0.5373952388763428,1.3636641337716595,-0.08308403385419635,-0.01415400860329716,-0.9594838129267254,159.0445511436105,-2.147887446323802,15.048552720977153,-0.2409905457496643,0.7747143679857253,-1.4205998748540878,610.7683116624286,0.29959268853999677,0.7588628348708153,-1.391217184662819,580.8964669644358,-0.28099592700600623,-0.839447760283947,1.3102224028110505,624.6832630906725,0.2063344430923462,-0.9674658897519112,1.4051641893386841,576.4033020190834,0.047445545780029415,0.15114593564583098,-0.16232616294095725,8.819061648262364,-0.38789497738272105,-0.17312360761248843,-0.1951618346667807,9.014874317807044,-0.06437245760554527,0.07930117840799959,0.17175759442528757,10.028204527318566,0.16991747504345855,-0.17799829307605308,0.18037755760295343,8.399947888775765,6.5562720242887735,-8.755469492897392,16.094088831096887,-4.16628621541895,5.938335716128349,-4.43479703437537,23.07022994428873,-3.965467026159167,7.188564030118287,22.620960200689733,-30.09224902510643,9.604686170338537,-2.203210523147136,1.6021773112006485,-8.095835553146898,2.6012739697424694,38.5
1.4792366027832031,-0.2513781487941742,-1.0207737684249878,1.5405628820812358,-0.20583685369010005,-0.005931177257058365,-1.005519978129526,158.26312385362905,-2.160691949602903,17.63094416474801,-0.030980540673772337,0.6911259561777114,-1.143633042871952,616.1087856683995,-0.0027639218971307854,0.6313855510950088,-1.3048070919513703,586.6512324945056,-0.24577548764646054,-1.0049941322207452,1.396450224518776,630.869031601565,0.18530260764062403,-1.0183241859078407,1.4187414789199828,581.3828327968134,0.3865115269055599,-0.37445395020710054,0.5012141246911902,11.823227969108556,-0.06683966400351674,-0.11573825774215164,0.3287291475592343,12.339732540960803,0.14212362438989518,-0.2043889379403947,-0.012862305933527359,12.632926932836533,0.045968170535729005,-0.15697314453963307,0.16257859699834015,10.70089949836758,-1.2254500529170036,-11.186276367269457,24.813035219311715,-4.987796819806099,-1.9325265159457923,4.802870053388179,9.324651355817913,0.025115463972324507,-5.793074775896966,17.00830586761236,-21.206108951568602,5.719007562641054,19.18738707214594,34.288948135375975,-17.096273648738862,11.047133238315583,39.0
1.4792366027832031,-0.2513781487941742,-1.0207737684249878,1.7072195727012016,0.15239738395119706,-0.03307264368182066,-1.1972797528141315,157.43926027001595,-2.1450878453602216,13.68418773057295,-0.13807469350187604,0.5979587906599044,-1.1795848822593689,622.3901091307401,0.12317266889935126,0.6346598812937736,-1.297484848499298,592.881038354332,-0.134049910902977,-0.9504162928462029,1.382345986366272,636.9969964356877,0.18134733349084853,-0.9944733029603958,1.4288909190893173,587.4802015021573,-0.51739531439543,-0.02598335193132166,-0.41050125471734566,11.857393108795677,0.6370773614591555,0.13600064024161893,-0.4600042785167892,11.434302108637064,0.2704530693962411,0.3274363364146245,-0.12343422944967761,11.300094289294616,-0.10611872150297541,0.17389074247422426,-0.12220631219974781,12.362407431511572,-31.536607730388642,-9.388921342119575,27.587976858615875,-7.50871534049511,14.090971652269364,2.6952145082131027,10.691503106802703,-1.7678525832423475,1.8962870717048645,-2.402956541478634,-2.410016456395388,1.2893351943779272,-0.25893357411026957,42.526592893600466,-36.70292518615722,13.659799365997314,39.5
1.458712100982666,0.3103213310241699,0.38754236698150635,1.7186366407217042,0.1933936208140484,-0.009446373488377808,-1.2578286042808486,156.56482083006014,-2.127793252858076,13.307742792561879,-0.30499613508582113,0.5968856030702591,-1.3641686707735061,628.640650605828,0.30303108140826224,0.5814210367202759,-1.4275194454193114,598.968209120944,-0.10864371333271265,-0.8412869787216186,1.3166030466556549,643.0682132965215,0.06867260656596046,-0.946495893895626,1.3571025371551513,593.8917498591513,-0.035160251688325185,0.01645602573826014,-0.15749426985625523,12.265887307040598,-0.10450481348240925,-0.3065697201762482,0.11262883243751252,12.251930590568595,-0.23115453211412543,-0.05169506276758717,0.12759278925793605,12.307817345623244,-0.32522917820910024,0.056760590345520515,-0.30709037412944956,12.375419575344981,5.3908790774643425,-9.141500668525696,34.58124878883362,-8.775046763420105,-0.9988085025548935,7.269697929397226,8.979556468166411,-0.10938308638287708,-7.6708411352336405,13.93070410490036,-15.855265812389552,7.0786752344295385,11.814668756984174,25.374306712150574,-27.7815535736084,8.753807390928268,40.0
1.458712100982666,0.3103213310241699,0.38754236698150635,1.6135940139456892,0.11056160863037323,0.04330644558383688,-1.3327372282690337,155.71149292672703,-2.106567818372675,15.707955320132552,-0.3335878598690033,0.6316901883482933,-1.397803001999855,634.7371567072618,0.2111115950345993,0.5628132534027099,-1.3601764845848083,605.2080914743644,-0.19661559596657752,-0.8742371290922165,1.3748484134674073,649.4297038513085,-0.06395321868360043,-0.8776546663045883,1.1354547679424285,600.294863510805,-0.3375287185910731,-0.07306163953284248,0.00015365618045002152,11.47270140281498,-0.181625978523614,0.12547832592140323,0.10297081732339956,12.009787572664283,-0.10941690398728973,-0.19862092289212413,-0.05324007266066981,12.324773625704731,-0.21067115069963516,0.11847347134874303,-0.5173604299161878,12.83235037544248,-10.591744816564024,-7.293658681120723,34.26292656898499,-8.135664345072582,7.072451828606427,11.321235993430019,13.789613317027689,1.2332463262975215,-12.429640675783157,8.78220975741744,-22.82620291233063,5.515335696190595,24.69329026222229,25.81198345810175,-21.02661403417587,7.341816731560975,40.5
1.731614589691162,0.4213904142379761,0.09535813331604004,1.8701619796754403,0.035685337236814905,0.060105870281757776,-1.3766951187232612,154.7990553613113,-2.0776191226961953,11.604908013571752,-0.3139270199090242,0.6378941839933395,-1.4001579028367996,640.8310179127292,0.1506981571018696,0.5655281591415405,-1.278091014623642,611.7350069873232,-0.2281865993887186,-0.9340603414177895,1.349767708182335,656.2265042795369,-0.03721065977355465,-0.8645839530229569,1.0402547201514245,607.2051957633857,0.6508774365278868,0.199862459741624,0.0037111848635973197,11.582063439199324,-0.07884052457348792,0.061278165160370435,-0.03115054324847599,12.317973928293632,-0.09140980282627995,0.1979984394329191,0.014065168947558174,12.773183573983916,0.3605491468021612,-0.05108276912674897,0.37994178637924947,12.243651085060911,6.7243232777714725,-3.7384096517041328,15.50167141288519,-3.941547914855182,16.200536186397077,5.01020759999752,29.097308182716368,-3.1157673699595034,-20.316692352890968,27.442191473841667,-38.06725743293762,9.994494817256928,17.446819620132445,3.0451630105078222,-4.823025869820267,1.6137532223202289,41.0
1.731614589691162,0.4213904142379761,0.09535813331604004,1.6391362532211853,0.08716028956963591,0.06392714598200919,-1.501943595570477,153.8906856558354,-2.0613393087660925,10.519963149960928,-0.17897409684956073,0.6994041803479195,-1.3793941509723664,646.9928151724977,0.14290936946868896,0.6074784600734711,-1.3690844804048539,618.0662807028154,-0.35013963401317594,-0.8969958883523941,1.3998948454856872,662.8293392636776,-0.06746543535409728,-0.8759943747520447,1.0726778009533882,613.5448229592607,-0.3259634854546569,-0.00410832501500825,-0.02218386064911043,11.855050648227225,0.23586115132805055,0.2079808306335922,-0.22082407233365786,12.060394909131878,-0.1877500508632599,-0.1488882197653708,0.09888333677814048,12.524231315230727,-0.4112814727755996,0.06340776377323011,-0.41684644583267205,12.73328286015718,-24.30834452867508,-17.986673364639284,37.94672194480896,-10.360568208694458,9.597155046984554,10.356125057935715,9.367846502885222,1.156150919246138,8.291714826524258,6.856634753681719,-18.214199879169463,4.611133550759405,21.295524044036867,20.087788616586476,-23.497804045677185,4.165792587306351,41.5
1.5526249408721924,0.2761263847351074,-0.10136008262634277,1.6236755745259361,0.07589214179777304,0.06109202251544634,-1.5669585728651652,152.99360629226845,-2.038476153351532,10.304698542520544,-0.1590740517154336,0.6667103737592697,-1.3450171661376953,652.8517481078829,0.16193468637764455,0.6282394522428513,-1.3567790776491164,624.2523557963958,-0.3492615483701229,-0.9162894144654274,1.380271521806717,669.0484529759351,-0.03242907369378372,-0.8713881188631057,1.134764122068882,619.9513389473456,0.4231446014380306,0.0014013915484401966,0.21225576330070656,10.541158432989562,-0.2694346071388076,-0.19879023172060792,0.18431699364544302,11.280497429065909,0.07225367173361859,0.013652219413082044,-0.009802471536727524,11.404720072112047,0.2795110106281329,-0.00885426845431272,0.3999538041505311,11.405318684146069,-2.5998913787305353,-7.676453526169062,17.372731323316692,-5.0068192964070475,10.102471062391997,2.9740360440686344,28.817705940902233,-3.782518129469827,-0.9311070435214788,20.711616145092993,-30.446205173432826,9.04377901500091,7.054997350201011,1.2143223048746585,-13.634094433262945,1.2319145727629075,42.0
1.5526249408721924,0.2761263847351074,-0.10136008262634277,1.655444264961008,0.2033083740570837,0.062098185455971795,-1.607342637862076,152.19651494520286,-2.0283236196119847,16.95625044139333,-0.12486627941951156,0.6654691678285599,-1.3371794801950454,658.677105709206,0.15991079032421113,0.6269794318079949,-1.3736577785015107,630.2271110411175,-0.26060764424502847,-0.9308235225081444,1.346041930913925,675.234733653276,-0.048140872501007834,-0.8717351794242859,1.1212634098529817,625.9305216534793,-0.31645891070595467,-0.033519247833859185,-0.2888206466558949,12.044190199741609,-0.07897304259027892,-0.14105848272064833,0.12574226154020407,12.313425355678213,0.14645682251912365,-0.031898420167134345,-0.10911547675253448,12.329415531463722,0.0045999195692735615,-0.02295777474398651,-0.03108656159001149,11.998527011185098,-6.063423728048801,-3.929034025967121,21.57180173397064,-3.8946127908676864,8.20599643290043,13.224892476797104,24.36561828672886,1.0132877551577986,-7.61917639657855,22.082327150553464,-29.078888213038443,9.007764975344763,19.121268757656217,21.842030602097513,-9.187248700484634,7.493580987788737,42.5
1.6690912246704102,0.22388780117034912,0.1397007703781128,1.6568181439747074,0.11975832009830928,0.040559408606817844,-1.680829820559442,151.37814088834364,-2.0271729617898155,12.122275844566657,-0.331163811609149,0.6590641969442368,-1.4413531923294067,664.9096635309407,0.19444573242217303,0.610326152741909,-1.4086069005727768,636.7352238519809,-0.26742990255355836,-0.9419272670149803,1.3643225479125975,681.5315251846629,-0.060423624669201675,-0.8521690154075623,1.115164631009102,632.5061549001058,-0.39696082933876264,-0.03677910761358187,-0.061160521875171556,11.677242021571198,0.2713645840999994,0.09353914653005305,-0.21894571417746853,12.121346904700806,0.026991728276095427,-0.010595585005239418,0.015872661265134966,11.721299763411961,-0.15613682631552317,0.01623091256741205,-0.1459847118553281,13.010738359477848,-11.459253443852067,-15.741037373021245,34.15245903968811,-10.500436742305755,13.115872194468976,9.329465834498405,11.786309295482933,0.23592743817251174,-5.986522329114377,9.234363063126802,-18.346991531848907,4.895611569657921,15.010469822883605,29.43379674911499,-20.271479649543764,8.618192144632339,43.0
