junja94/rosbag_plot/data/0427_mission2/motion.csv
command_linear_x,command_linear_y,command_angular_z,linear_x,linear_y,linear_z,base_x,base_y,base_z,cot,joint_position0,joint_position1,joint_position2,joint_position3,joint_position4,joint_position5,joint_position6,joint_position7,joint_position8,joint_position9,joint_position10,joint_position11,joint_position12,joint_position13,joint_position14,joint_position15,joint_velocity0,joint_velocity1,joint_velocity2,joint_velocity3,joint_velocity4,joint_velocity5,joint_velocity6,joint_velocity7,joint_velocity8,joint_velocity9,joint_velocity10,joint_velocity11,joint_velocity12,joint_velocity13,joint_velocity14,joint_velocity15,joint_torque0,joint_torque1,joint_torque2,joint_torque3,joint_torque4,joint_torque5,joint_torque6,joint_torque7,joint_torque8,joint_torque9,joint_torque10,joint_torque11,joint_torque12,joint_torque13,joint_torque14,joint_torque15,time
0.1360865831375122,0.030329227447509766,0.25029873847961426,0.07720056195600213,0.06055380510720834,-0.01669204896391925,16.045951918472646,164.097565601463,-2.317971308649443,11.402699616240914,-0.047858044779859485,0.8255365899205208,-1.2928536695241928,11153.72819035127,0.2801714114844799,0.7345764422416687,-1.520582944750786,11249.010120373761,-0.11727343413978815,-0.7689421671628952,1.346962444782257,11824.679726239225,0.054853716548532244,-0.6331574183702469,1.3718832755088806,11502.226635388506,-0.12937461363499533,0.26124027007429956,-0.2440549038412156,-0.006122069016763163,-0.13806658508276914,0.033343867350165694,-0.05681068565897996,0.5357015539491887,-0.08392838222941386,-0.024452497965033154,0.10054056123846923,0.31615548669548504,-0.09483792475268592,0.16362202782221466,-0.08554393657434263,0.1799976365362381,-20.635108757019044,-18.88451235294342,14.686606063842774,-7.266363587379455,9.12232660651207,-0.23170100644230843,34.16970817565918,-5.0310999751091,-7.3385059356689455,6.7282930376380685,-18.65320004940033,4.637056727409362,9.311472713947296,-5.384675969257951,-33.33820122718811,4.163448749184608,0.0
0.1360865831375122,0.030329227447509766,0.25029873847961426,-0.10455762445028469,0.020053864922233555,-0.02104915756235413,16.062423917049358,164.11235681012488,-2.3241724000331674,6.6608652175753305,-0.11267256990075111,0.8583001452684402,-1.3933804589509964,11153.615369155872,0.21234393253922462,0.6604727047681809,-1.5326462668180465,11249.149208934105,-0.1436630579084158,-0.7815595200657844,1.372553319334984,11824.464352569,0.024292144370265306,-0.5892864045500755,1.3670143300294877,11501.976488920478,-0.09431450742086653,-0.06409331098587662,-0.14336559036398225,-0.349425602578452,-0.09875845388270468,-0.25983022272875456,0.009420745013596174,0.052746831563615384,-0.0494424294053944,-0.03320975836802637,0.03354932890113446,-0.8324782689604392,-0.05629223074399838,0.020680434318691078,0.009602421535415394,-0.843446877618445,-16.525483622550965,-22.034143342971802,13.2776207447052,-9.23054988861084,9.734810585975646,2.4513184167444706,34.04366769790649,-5.443797218799591,-4.036154826879502,14.931507873535157,-16.957647399902342,6.7297581720352175,4.1181304430961605,-2.986061018407345,-31.80066559791565,5.166401612758636,0.5
-0.10007399320602417,0.01294863224029541,-0.006456494331359863,-0.08931310051337882,0.0034113055956511034,-0.011522061514178769,16.056795775490542,164.17325278906097,-2.3307876840175252,10.225384758053057,-0.14354117758572102,0.8101843222975731,-1.4383172261714936,11153.420521530523,0.18562042877078055,0.5231822574138641,-1.5275119757652282,11249.126721311302,-0.17308588862419128,-0.7935609993338585,1.3811061012744903,11824.034966501667,-0.01129465291651286,-0.5956778326630592,1.3719435560703277,11501.537288623074,-0.04863975511623598,-0.11022234001056357,-0.03845801643741811,-0.35215720016741925,-0.0381937826586016,-0.22112985899583693,0.009924408171839798,-0.13867084920734027,-0.050311516516837164,-0.011802091132940546,-0.014797083330516715,-0.7167573767506525,-0.06243508977740828,-0.03307262184473785,0.019901351418163002,-0.7314701895816619,-13.72805425643921,-20.58831106185913,15.770767812728883,-9.666621739864349,8.219968264102937,8.991109592914581,33.67468938827515,-5.292884435653686,-1.6186126324534416,16.21974884033203,-17.22371389389038,7.159406559467316,2.975138879418373,-2.8706593902781607,-33.51129313468933,5.495536165237427,1.0
-0.10007399320602417,0.01294863224029541,-0.006456494331359863,-0.07601347915848869,-0.019536243180395405,-0.010557671917934552,16.040046924072108,164.22596245418805,-2.3358394582255944,13.135347951532012,-0.1784141939878464,0.7564137378334999,-1.4589519143104552,11153.22413660625,0.14776705481112004,0.4570191495120525,-1.5296284031867982,11249.003607295814,-0.16877504281699657,-0.7907498627901077,1.3493138659000397,11823.687175280545,-0.008272950366254007,-0.6034546360373497,1.404193947315216,11501.186868319537,-0.04844213796052824,-0.08786118993979139,-0.030673801165309773,-0.39453813987538927,-0.0600210968197616,-0.07989074272867618,-0.018046522674708344,-0.2927379161196517,0.030463254846654332,0.003372747507138233,-0.05631938554751637,-0.6112555728087851,0.03290630053111137,-0.009574058950182741,0.07608562370064097,-0.6365792544485076,-12.179598088264465,-18.34805295467377,16.27173858165741,-9.861866254806518,9.570975015163421,10.79392397403717,34.81651597976685,-5.432994997501373,-0.6407220549881458,16.558803663253784,-16.87902611732483,7.18391056060791,0.9382515109499218,-2.9299152097664773,-34.75751729011536,5.819364247322082,1.5
-0.03275018930435181,0.013663709163665771,0.06384062767028809,0.017800573092349364,0.01801812440421856,-0.005352820635572037,16.037873529141223,164.24927640927308,-2.3429325530084295,10.210341389040916,-0.18979117907583715,0.741662114560604,-1.4710486716032027,11153.149188778578,0.13820711836218835,0.42638794660568236,-1.5408237034082413,11248.935307784323,-0.19103837758302689,-0.7919424092769622,1.3576643592119217,11823.527852277723,-0.03362150419037789,-0.6034200039505958,1.409424945116043,11501.003955420487,-0.02558122125925844,0.030200767760038338,-0.029191949028761262,0.11389806364321448,-0.015794696744152105,-0.014131860156295655,-0.023325764473660627,0.0854611580432522,-0.0806199070291589,0.025642786512064045,0.041726488446884265,-0.030163553047000947,-0.08929538340557254,0.03876517114731709,-0.04142130330634013,-0.05119888189973862,-9.990538311004638,-16.556613826751708,16.888612699508666,-8.697043511867523,7.651751081943512,11.003041801452637,34.46237169265747,-5.031505060195923,-2.0587270663585513,18.363233375549317,-17.054016757011414,8.290919523239136,1.0170934189856053,-2.2946070943231462,-34.452639446258544,6.520566554069519,2.0
-0.03275018930435181,0.013663709163665771,0.06384062767028809,-0.01202355742980164,-0.020976165056881314,-0.0011394318351999736,16.038662966081073,164.24333218447728,-2.341258602527188,9.943859968946773,-0.19523381546139718,0.7453101107478142,-1.4729730939865113,11153.189793053416,0.13770222350955008,0.42324580386281013,-1.5632023268938064,11248.990408018446,-0.20943644009530543,-0.7743565201759338,1.3519734078645707,11823.525490872345,-0.05386178249493241,-0.5943051585555077,1.4067789459228515,11500.9927662684,0.007335604769021896,-0.033853491208140206,0.019073063664417193,-0.013502339196773233,0.018092406672604838,-0.02612703042091513,-0.0514801933821539,0.04741167692885962,0.0024944535703637066,0.014635695333041689,-0.04668960039417836,-0.044282937759270925,0.0024961957713924197,-0.027788388258779523,0.038270156621049406,-0.07295295350151103,-9.022922506332398,-18.32838412284851,16.659417099952698,-9.350504908561707,7.943516955375672,8.839552607536316,35.14173915863037,-6.172227966785431,-0.6921709409356117,18.052815494537352,-17.403503551483155,8.05545981168747,1.267073550671339,-5.1061766707897185,-33.86716634750366,5.2918293416500095,2.5
0.005137443542480469,-0.03665053844451904,0.0497967004776001,-0.0731821420355077,0.0017253150396401044,-0.004616376110502124,16.028655336517144,164.2631568563009,-2.3422388952956954,10.587200654458005,-0.1835894622653723,0.7031466126441955,-1.462884412407875,11153.114350906415,0.15823959074914457,0.3857607047259808,-1.5770388281345367,11248.883628351703,-0.21035946577787398,-0.7885978543758392,1.3380771017074584,11823.408439601342,-0.058396852556616065,-0.6242425918579102,1.4164850860834122,11500.844496112106,0.019688119089849184,-0.09843167357305793,0.007932974917443719,-0.20926409494012635,0.03493341346233775,-0.07709510857207692,-0.005525336807237151,-0.41168288253577484,-0.01640677985084177,-0.06435206969088961,-0.0021212620026579048,-0.2865944683120635,-0.02920580829314097,-0.0734083234821309,-0.009609773043501888,-0.3586592842240616,-9.589410061836242,-16.742579689025877,16.98951129436493,-9.822572848796845,7.094899859428406,11.59172164440155,35.79517099380493,-6.35606086730957,-0.5860495426668786,18.637837176322936,-16.045770773887636,7.7325853562355045,0.9611071059107781,-4.167594560813159,-36.154150314331055,5.673934187889099,3.0
0.005137443542480469,-0.03665053844451904,0.0497967004776001,-0.013161263314527065,0.008747267377612906,-0.06747288841108152,16.030842259025334,164.28773456739728,-2.3490469778223586,20.401376850688656,-0.1731954220123589,0.6868697571754455,-1.4772821420431137,11153.068438307166,0.16336044810712338,0.38143547996878624,-1.5852521044015884,11248.716710733972,-0.21487032750621438,-0.8058936086297035,1.361069073677063,11823.267864459693,-0.07843351859599351,-0.6446087032556533,1.4083763229846955,11500.730208549418,0.27333604146502455,0.21195594498410067,-0.1698710270818652,0.08022297385158077,0.08219877882077126,0.2034419183274055,-0.17471360177056913,-0.37837610162866364,0.30152587592973373,0.030965237027468964,0.23820452317986957,-0.8493401993614731,-0.06565966366974735,-0.06517094018919176,0.14327252390843465,-0.3012604806522351,-6.304851212203503,-11.455734649449587,14.396870722174645,-8.018479936942459,2.7106045565009116,11.816570475101472,34.014280271530154,-5.74893299818039,1.302731362665072,16.260159515216948,-14.793967404663563,6.459326620362699,-0.4208133986592293,-5.388797741085291,-30.47282127022743,4.212166379652917,3.5
-0.06937932968139648,-0.0227624773979187,-0.012981653213500977,-0.08369168204094121,0.048794804905560325,-0.5794392879787185,16.03680863385874,164.34704199729242,-2.554609547599082,3.3856330849571554,-0.15931865019258112,1.0833951729536055,-2.1934226542711257,11153.40603652558,0.09603259275027085,0.8692752958834171,-2.2076244354248047,11248.41613511567,-0.03468630252842558,-0.9565268090367317,2.1758507823944093,11822.437394852948,-0.14362458761781455,-0.8857834476232529,2.149200734496117,11500.617750449837,-0.44988211173542547,0.7978072260172262,-2.231394691431265,0.9148003669369352,-0.4589051741871166,1.3229924047112918,-1.8338406717050548,-0.93848325599682,0.13048211180532243,-0.6417075601635354,2.170571436150672,-1.2226467806563575,-0.1855563606811938,-0.8669283971360425,2.110166614135911,0.003526800334418728,-2.375298065952957,-0.3872734070569277,27.89321853876114,-4.935214541483438,-2.6681821233034135,-8.993110156357288,27.18552566051483,-7.831329592419788,-5.796550294682383,12.987779232263565,-34.40085830450058,9.983865118548273,7.276530704200268,-5.74508904479444,-34.22322546958923,0.23408237364143133,4.0
-0.06937932968139648,-0.0227624773979187,-0.012981653213500977,-0.07314590013914185,0.008038850821356122,-0.028703781606966426,16.06651794133508,164.33264463592133,-2.6803026946581077,25.471248435907608,-0.22465089321136475,1.2136595034599305,-2.7103436255455016,11153.503658907495,-0.06829977752640844,1.1957023352384568,-2.6489269864559173,11247.743280181052,0.020687648924067617,-1.1474558907747268,2.59984583735466,11822.236290565252,-0.20663644559681416,-1.1612666285037994,2.611423316001892,11500.469113917072,0.15013843051071038,0.01846046469401498,0.0004660539948405295,-0.2844553052308931,-0.09274337430692305,0.07728473395096364,-0.06734774021046534,-1.1658272833124534,0.024797793869060208,-0.06673681904425902,0.018888353655303912,-0.1311078164082554,-0.03486528500013288,-0.08028601522225357,0.03960484149776134,-0.5604726522163651,-13.527354826927185,3.1279425644874572,22.209395294189452,-3.7232475090026855,11.09174548625946,-34.72267372131348,11.839207048416137,-8.42923198223114,-7.98506361246109,23.58615369796753,-27.073410415649413,5.588924777507782,6.627095983028412,-6.378820381164551,-24.75944878578186,-10.21123067855835,4.5
-0.06937932968139648,-0.0227624773979187,-0.012981653213500977,-0.03703681047442861,-0.0033053513261358885,-0.0071881971074852224,16.044470500864985,164.32745555156188,-2.6751977518918695,42.80092363044875,-0.18818900868296623,1.2242317551374435,-2.719840644598007,11153.430013229512,-0.09070272866636514,1.2120182651281357,-2.6611869752407076,11247.252470184256,0.021838374063372613,-1.1672992610931396,2.6122588515281677,11822.203658127522,-0.22289268739521503,-1.1743162471055983,2.6042043805122375,11500.16882896865,0.01937707242706148,0.01844173866484259,-0.021629212457665067,-0.03131075524827261,-0.024175534083751,0.014576083597646013,-0.0088418300905364,-0.8802120088803772,0.001830764700020771,-0.019714716183439198,0.014872440603887734,0.007351517781976299,-0.016951883566001403,-0.012604812576825015,-0.010595805985232708,-0.6768261822962299,-15.773862376213074,3.0354451894760133,21.520662288665772,-4.017696046829224,12.124093284606934,-35.97960744857788,11.416584792137145,-9.357379472255706,-8.377215881347656,25.279126272201538,-26.808526239395142,5.0693427538871765,7.4682227540016175,-5.118306691646576,-23.36024962425232,-10.073792581558228,5.0
-0.06937932968139648,-0.0227624773979187,-0.012981653213500977,-0.05578668577039947,-0.016269795424048505,-0.0009196506687316273,16.04503779898901,164.31970629014097,-2.67258643771745,28.42869040234807,-0.18557680651545524,1.2288490283489226,-2.7274443924427034,11153.426529067045,-0.09826513510197402,1.2156746405363084,-2.664554785490036,11246.810931006205,0.021612231638282537,-1.1705212152004243,2.6120111501216887,11822.21037324827,-0.22720664963126183,-1.1766157948970795,2.5979688715934754,11499.768845341368,0.0020772964182862747,0.0040397205546457765,-0.007039718161097224,-0.001008854050218732,-0.0063188128885827855,0.0021657578990505947,-0.0015849532744619244,-0.817499467006669,1.4553080903103042e-05,-0.0028307749213591265,-0.0007548856847401166,0.010623137082021642,-0.004223943526495721,-0.0009099742578480091,-0.01111397038211684,-0.7962831849579602,-15.716096367835998,3.179348623752594,21.331635417938234,-3.855994225740433,12.461962032318116,-36.11732475280762,11.301459879875184,-9.508384115695954,-8.441855916976928,25.66638261795044,-26.173427724838255,4.854187798500061,7.564202959537506,-4.551224985122681,-22.724978818893433,-9.661740074157715,5.5
-0.06937932968139648,-0.0227624773979187,-0.012981653213500977,-0.06203130784313023,-0.016835801185373554,-0.002632297381840224,16.048924933164923,164.32779749993378,-2.673489908166994,28.08050347723455,-0.18511972911655902,1.2317193764448167,-2.731707068681717,11153.423594529222,-0.10199642229825258,1.218571847677231,-2.6679907763004302,11246.356282707726,0.0221690190769732,-1.1728310549259187,2.612108449935913,11822.213595139725,-0.2287540514022112,-1.17925807595253,2.593859108686447,11499.305240718557,0.00023973621782811524,0.006374364062367388,-0.009326903219543069,-0.007015875843744837,-0.00836108268833457,0.007546159152625894,-0.009072294761735962,-0.9422463365021859,0.000977254327780597,-0.004602935222594061,-0.000491931757605248,0.005540335277438882,-0.002392678230869444,-0.006729073227949809,-0.007340222002417932,-0.973209297286707,-15.773409380912781,3.338255616426468,20.89609408378601,-3.455488120317459,12.708981699943543,-36.12255647659302,10.961962690353394,-8.840293271541595,-8.363187890052796,25.800900373458862,-25.527861442565918,4.897713136672974,7.3729405379295345,-4.428077239990234,-21.817264442443847,-9.081506259441376,6.0
-0.06937932968139648,-0.0227624773979187,-0.012981653213500977,-0.06707653727543927,-0.016213706073655167,0.0003101978643128359,16.042062526339414,164.33906263718575,-2.6729637924721983,26.002851662343563,-0.1849332531541586,1.2331312453746797,-2.7337473797798157,11153.421993352513,-0.10415945746004582,1.2201955848932267,-2.670264421701431,11245.859955713064,0.022489357320591808,-1.1739052200317384,2.6117624819278715,11822.215945017773,-0.2294546514749527,-1.1808766776323318,2.5896254551410673,11498.787267693275,0.00021906821395752772,0.0008231549376923405,-0.0009865963237386545,-0.0008391394487567443,-0.0005234976257850031,0.0006729896499049973,-0.0016457610987499786,-0.9522690271675209,0.0008056257566936145,-0.0007221125271590568,-6.525112303904357e-05,0.002030657669080881,7.384289394055002e-05,-0.0006542476263482972,-0.007707880535355388,-1.015670893168959,-15.656853017807007,3.2691591346263884,20.88916498184204,-3.281050646305084,12.860833010673524,-36.24561794281006,11.125227341651916,-8.714388697147369,-8.41221661567688,26.00416314125061,-25.553291206359862,4.885809588432312,7.3686696863174435,-4.148132839202881,-21.5547190952301,-8.854993770122528,6.5
-0.06937932968139648,-0.0227624773979187,-0.012981653213500977,-0.06709590754736655,-0.016731550162496868,0.00034087061326019426,16.04033698359477,164.34083744167424,-2.6711514690624143,24.28557121732971,-0.18512488305568695,1.2342765825986861,-2.7358847713470458,11153.421358317795,-0.1045823809877038,1.220550189614296,-2.6719275987148285,11245.357010338455,0.022691291980445383,-1.1742654401063919,2.611384471654892,11822.216969161545,-0.22938466273248195,-1.1809067499637604,2.5887766027450563,11498.27009976824,-0.00027360061620966097,0.0021770318071065013,-0.004162992773488399,-0.0011871388170663192,-0.0005078638128291787,0.0005449176622250227,-0.003533109618726711,-0.9342660244097287,-5.576167866250043e-05,-0.0003278061508731871,-0.0016965752873082287,0.0016799851443721839,3.52435626034657e-05,2.7751554875081055e-05,0.004608971756466966,-0.9349975592246181,-15.730279021263122,3.415141761302948,20.776750841140746,-3.33145002245903,12.896429901123048,-36.203417415618894,11.010289006233215,-8.734731013774871,-8.549548001289368,26.045486965179443,-25.32874687194824,5.082361342906952,7.464355762004852,-4.122224065065384,-21.4421968460083,-9.129998733997345,7.0
-0.06937932968139648,-0.0227624773979187,-0.012981653213500977,-0.060892440800899464,-0.01654803696393935,-0.00042152802975261287,16.040035023984707,164.33307923257655,-2.6711632397427096,26.59021188112431,-0.1851570002734661,1.2349706935882567,-2.73723384141922,11153.421255936935,-0.10490175757557153,1.2206507587432862,-2.6723880374431612,11244.891137341545,0.02270291671156883,-1.1743248617649078,2.610844806432724,11822.218430325061,-0.22938142716884613,-1.1807602763175964,2.591349277496338,11497.802988939458,-0.001052718113118777,0.002979295796864087,-0.007704857170951548,0.00018643712500126405,-0.0013313105023042711,0.0010981953326855635,-0.0012628376321591475,-0.8589347828036115,0.00023246231372273433,-0.0007749206839165122,-0.001954792492463188,0.0024762106230907764,-0.00018129285034824242,0.0010192568457464445,0.002212242872818241,-0.8941101085110078,-15.800062952041626,3.3639004969596864,20.88131875038147,-3.3543802881240845,12.96039852142334,-36.3304567527771,10.945356307029725,-8.992904903888702,-8.709534015655517,26.18189708709717,-25.287727851867675,4.923802375793457,7.607274856567383,-4.110463807582855,-21.594932889938356,-9.244361157417297,7.5
-0.06937932968139648,-0.0227624773979187,-0.012981653213500977,-0.05943406008922824,-0.016437803982548585,0.00012019636498799337,16.04057841019012,164.33608081593619,-2.6710626864390683,26.125064970231442,-0.18537922473109547,1.2362908891697026,-2.7401897248311258,11153.421334442282,-0.10534591452410473,1.2208621861347602,-2.6729727977484314,11244.458150659704,0.02268740307333781,-1.174474904884645,2.609892405457233,11822.219743598072,-0.22945756498892703,-1.1801839935120626,2.5930267027275047,11497.353251621895,0.000689441521809362,0.0006032682569503971,-0.0008006703987434849,0.0002911545126538555,7.495669471142983e-05,-0.0006520415942285994,0.00014940292921494005,-0.8148020488787989,-5.228425022888097e-05,8.301265284895386e-05,-0.00014221418462244422,0.0010593601732748405,-0.0001397689438939817,0.0007273560972416448,0.004708010498560372,-0.8138096358667941,-15.75515738923346,3.3511100654026973,21.054813337086433,-3.2250339685372973,12.96241216803316,-36.213739826451594,11.138939728089913,-9.313545485836777,-8.71712883033944,26.127884342442805,-25.286665557017876,5.2522742712318,7.688427421914872,-3.906718605127766,-21.9610840591354,-9.543049021581908,8.0
-0.06937932968139648,-0.0227624773979187,-0.012981653213500977,-0.05907989909845643,-0.016731701890559846,0.00037570850970659663,16.046478149510286,164.3393848598359,-2.6782147964360314,26.912413362015958,-0.18547061493444206,1.2370621600554357,-2.7418767373953292,11153.421327754697,-0.1055619433818765,1.2213349348277003,-2.6739954556991803,11244.028137687637,0.022882119284488668,-1.174619573265759,2.6093619759403057,11822.22142798446,-0.22963695494986291,-1.1801899564799978,2.594614346822103,11496.915696836531,-0.0006107069665120881,0.002972811809439262,-0.006032706444435756,0.000526404170675122,-0.0009883220966209725,0.0018822147733521075,-0.002405612315776538,-0.8268772541197724,0.0005445586013007811,-0.0005342093450465557,-0.002253441287936658,0.0033331331600238924,-0.0006348871967169178,-7.357953362492102e-06,0.001986839889924159,-0.8626233683975097,-15.781358842232928,3.5936804553169517,20.752333380096587,-3.230450538853508,12.953003888106466,-36.1392693590762,10.737453925668897,-9.076443499000511,-8.72870796829907,26.17708254572171,-24.86428543584264,5.051339711715926,7.564571352147344,-4.065708751109109,-21.685732476153778,-9.370906801366095,8.5
-0.06937932968139648,-0.0227624773979187,-0.012981653213500977,-0.061293237823504335,-0.01651858304017002,-0.0004167414200339552,16.051070677726578,164.33704112067736,-2.684355095782184,24.968122238693365,-0.185433237478137,1.2381070947647095,-2.744361206293106,11153.421217439482,-0.10601976651698351,1.2221932154893875,-2.674700268507004,11243.5960859632,0.022985384492203595,-1.174752122759819,2.608138076066971,11822.222616132074,-0.2296473577618599,-1.180250005722046,2.594332729578018,11496.468454221398,0.00032326384519765536,0.0010012594417685206,-0.002327488133192589,-0.000592376452350317,-0.0010345212717424869,0.0009271651761149482,-0.00037805639677021774,-0.7965738823067474,-9.824645892984283e-05,-0.0004581455711097771,-0.0008083199000029982,0.0029668937968259455,0.00032743369117895426,-0.00036619436951869345,-0.0012072206226207923,-0.8389956898132995,-15.753687286376953,3.474828612804413,20.900178728103636,-3.2405404305458068,13.057252044677734,-36.30317501068115,10.818009948730468,-9.073695781230926,-8.841531291007996,26.34022766113281,-24.873962297439576,5.2106493067741395,7.639607501029968,-3.9176240408420564,-21.700173206329346,-9.386192045211793,9.0
-0.06937932968139648,-0.0227624773979187,-0.012981653213500977,-0.057085055091162705,-0.014538819074277181,0.2369588828818632,16.05133193852245,164.33815364886377,-2.6607830441631797,52.81076823867073,-0.1692624421045184,1.2303806275129319,-2.68390930891037,11153.39057714508,-0.08330211040127324,1.1952601325511933,-2.6276663935184477,11243.195965736362,0.016118543165794107,-1.161881641149521,2.55502424120903,11822.253792919013,-0.20546786464750766,-1.186276863217354,2.5417453622817994,11496.108276663412,0.1669995609496407,-0.057075159904788154,0.7635622306723988,-0.5353965294047285,0.24562804528207477,-0.2705496353392079,0.5978863143069758,-0.7826660869185901,-0.08530358098060174,0.10085097398123054,-0.7117269603020198,0.5501414521470122,0.21414859914703538,-0.05967490894920528,-0.7245246602573095,0.22502264560609322,-28.47649426937103,4.36862328901887,34.043692378997804,-5.817070026397705,23.00872627735138,-28.497866454124452,23.553586587905883,-13.518269293308258,-19.654124341011048,21.562579352855682,-34.88727514266968,11.133878362178802,23.128091502189637,-3.2233543456345797,-34.10986795425415,-1.7909998248144985,9.5
0.5,0.5,0.5,0.10749188807685069,0.012904342604738767,0.5045032322751636,16.05985866978792,164.28827993558167,-2.377393583272148,41.239715583374995,-0.016649684253716258,1.005708512365818,-1.6777880579233169,11152.670742142607,0.0652466762252152,0.9642303910851479,-1.7249202167987823,11242.340518632405,-0.0066712586492212725,-0.960037112236023,1.5741730481386185,11823.380479483352,-0.06559098301455378,-0.9767619344592094,1.4964981293678283,11497.127746679831,0.24337557827597972,-0.534377999059857,1.9553967478733911,-1.3888697415718565,0.09507252207118114,-0.3265748176120929,1.9106523537004407,-1.8641579002777373,0.06308000177941606,0.5479045565290069,-1.7943620278999781,2.5344635129796327,0.1342602394793604,0.7991202573331835,-1.985291708852455,2.0694241833356015,-45.51372900009155,0.28480344224721194,23.451313796043397,-2.0819201315776446,35.816356573104855,-22.32941541671753,16.784540328979492,-10.39951714515686,-33.05281831741333,16.26215347766876,-19.62948229789734,8.024137742519379,43.85887984275818,12.484066133499146,-14.717265013456345,5.343691170215607,10.0
0.5,0.5,0.5,-0.010262182211513801,0.014652335002675019,-0.006989244255083033,16.102621622653714,164.23833740997344,-2.3123176262341705,17.30038601036934,0.011950070209359183,0.9468634510040284,-1.3238658446073532,11152.376098343002,0.04933282356709242,0.9105653893947602,-1.3522899067401886,11242.064953385527,0.009590136581100523,-0.848803603053093,1.3330389261245728,11823.84540603359,-0.05466496473178267,-0.7638069227337837,1.233617438673973,11497.298767115679,-0.05509760949589878,0.004856997936103389,0.032935362366902976,-0.2699538278985964,-0.06351908456133347,-0.05549211076588492,0.05828365966913224,0.10593722285894269,-1.2678472855952218e-05,-0.0842631562317557,0.04476468190234344,0.0648954732244489,-0.009601472463905624,0.06888965033849886,0.14263652051863399,-0.5470159953800308,-28.697733173370363,-21.529454746246337,13.15077603340149,-7.184816188812256,24.300853652954103,-40.47621221542359,10.527118940353393,-12.628396587371826,-25.509270181655882,24.78879008293152,-17.22220025062561,9.380836110115052,29.120922079086302,17.991610956192016,-9.103148016929627,6.038257949352264,10.5
0.5,0.5,0.5,-0.07831022275646975,-0.0030281108170329162,-0.004666960832602523,16.081928845750234,164.29711635761655,-2.3206606765404127,19.250379380298305,-0.003192477758275345,0.9216362965106965,-1.3076551425457001,11152.081985208619,0.034265296822413804,0.8508479925990104,-1.3483328413963318,11241.997474057525,0.013328016391023994,-0.9248200255632401,1.3069726383686067,11823.858441321834,-0.05218231257051229,-0.7688438946008682,1.2719704347848892,11496.963083223649,-0.007530980533754545,-0.02858776087959113,0.010891658832028448,-0.753416152260963,-0.01468040680057378,-0.1033590852145328,-0.03078668330041623,-0.3130751166349113,0.006942185721651058,-0.13596806961503957,-0.0685232216597003,-0.12966447769586179,0.002852278164156214,-0.010667722503937705,0.03997026852428473,-0.7854526636575763,-27.761080827713013,-16.844418969154358,11.964143376350403,-6.196002321243286,24.006557331085205,-33.327516298294064,13.25783706188202,-12.378069005012513,-27.336572189331054,33.094204092025755,-13.469586138725282,9.406239080429078,30.22291887283325,19.895644273757934,-12.469232745170594,6.927744064331055,11.0
0.5,0.5,0.5,-0.15439414221361192,0.04717517625482914,-0.0014990772903984118,16.04338573054785,164.36953045539096,-2.320132127518915,39.0300760016846,-0.02658556556561962,0.9052518236637116,-1.3329915899038314,11151.74850432421,0.002448976535233669,0.8180149313807488,-1.338899214863777,11241.764922877177,0.023017142647877336,-0.929288341999054,1.2780747210979462,11823.501700811468,-0.043072623749903866,-0.7239198279380799,1.285044019818306,11496.435601800122,-0.24475745736262305,-0.16791041829194228,-0.2538444767473148,-0.7233284443465194,-0.25523958160280313,-0.15049680929800818,0.2728221907473576,-0.8033903286240419,0.0918419045594363,0.2321820341049535,-0.18506663861761952,-2.3870769274716976,0.11437352247131262,0.2744359096149325,-0.04566800899252162,-1.767515257907859,-29.538472537994384,-25.60844934463501,7.684992628693581,-10.154822599887847,22.453182014524938,-34.07183081626892,20.47982605934143,-13.605976047515869,-20.75434932142496,25.159817797616125,-13.57965048313141,5.7861238551931455,24.91902297973633,3.6755883207917215,-18.616439938545227,2.3867342334985735,11.5
-0.6372934579849243,0.18530255556106567,0.8157632350921631,-0.6433231034287828,0.34189114709115237,0.01929915667096658,16.043715746540087,164.62819483645907,-2.3058740605912598,29.965508092016233,-0.28024595428607424,0.8385482248663902,-1.541377854347229,11150.036310777268,0.1564841409062501,0.8683102092146874,-1.422526814341545,11240.068896952187,-0.07472571909427643,-0.7192021182179451,1.2764041179418564,11820.816990285923,0.05682799757923931,-0.5718863922357559,1.1918823683261872,11494.938558838934,0.28218129297260564,0.17521044987986414,-0.1135023382747274,-5.756704429354832,0.3447138690009715,0.17240059429577698,-0.15156992457128085,-4.99639744758721,-0.41761037245093563,0.22493474642297145,0.07841202498005903,-5.583557827974018,0.11316514786794574,-0.2575380310566735,-0.041079691149691094,-3.942629002105678,-2.286570494174957,-10.444661185741424,24.278981568813325,-9.75329779561609,1.1014597195386886,-4.73610928516835,21.39895951192826,-4.138068011971191,-3.1141626438032834,5.1226408056169745,-26.675510666863993,5.413651269385591,12.427922647148371,-4.829775599129498,-21.91541983552277,3.3382112259138377,12.0
-0.6372934579849243,0.18530255556106567,0.8157632350921631,-0.39866034503865433,0.4641705221129675,0.002024725727205718,16.020225113440162,164.9950459439361,-2.2966769849709143,28.17465786445063,-0.2178104172361782,0.9284773704409599,-1.471485015153885,11147.490986694957,0.2111764294366003,0.8654981115460396,-1.3855547612905503,11237.684914278308,-0.20157334975898267,-0.7364867290854454,1.223873542547226,11818.53768193322,0.05813116243574768,-0.7970170116424561,1.0682721570134164,11492.876788593605,0.068318674454734,-0.06493556902994482,-0.15058729122813252,-3.5561825033404504,0.03884519680866112,0.004509108668128552,0.0620934203621454,-3.8968181273267346,-0.2009112584117955,-0.24469913801555293,-0.0446363559055915,-3.0079575827011547,0.0880898886736002,-0.21521203518119772,-0.003616561714971317,-3.0078175325522,-3.2629356545209887,-12.75821862436831,17.812588002681732,-5.231322017246857,-0.004526478350162506,-3.869420903921127,22.95585129849613,-3.0541561941616235,-2.4933514155074956,6.4235445147380235,-29.049483238346873,4.329413936549099,15.23972972214222,-2.332188864722848,-15.295979734361172,-0.7589115541568026,12.5
-0.41959303617477417,0.3322998285293579,1.1948151588439941,0.01820512733958215,0.45593531041701696,0.00027771821349648935,16.002005511374733,165.3115948656301,-2.301110372483835,32.5938629488213,-0.2052043308643624,0.9157623499631882,-1.4248679339885713,11146.285559683367,0.22674441691837274,0.8293993484973907,-1.354874069094658,11236.211473137648,-0.28883768409490584,-0.7900113922357559,1.2160150080919265,11817.549682349068,0.049761978714959694,-0.8599296417832375,1.0112754216790198,11491.783505850344,0.0019347886957611893,-0.021596855232614787,0.03165561075995165,-0.6858986330544063,0.18710937054179272,0.025145656657547352,-0.0946799393636407,-1.7077643054814198,-0.11149172523974789,0.11949537485470685,0.019573588307350086,-0.9586164984420674,-0.1897485618959939,0.09241331161153082,-0.23211726420060408,-0.619280973144362,-5.696519840359688,-11.900748060047626,16.57325580343604,-4.185108212186024,-3.968212706744671,-4.123553039170802,18.73028191011399,-3.0438186974648853,3.4352874888479707,15.491154484786094,-24.04739368792623,6.512017412420828,15.718674757946282,4.711539586856961,-13.529501840174198,0.3409357804048341,13.0
-0.41959303617477417,0.3322998285293579,1.1948151588439941,0.5620761040212575,0.47289338149994903,0.0166618944364615,15.990354646870546,165.6734707866818,-2.310954821919875,23.25813165328635,-0.2011674447898986,0.9047380569577217,-1.3680658239126204,11146.808382241341,0.22609906646888703,0.7947628980875016,-1.3940809446573257,11236.794801875027,-0.35047063782811166,-0.8209882178902626,1.269203394651413,11818.463774242624,0.026957556053530424,-0.8761505305767059,0.9991326481103897,11492.773658097132,-0.8172040139569766,0.032149806550858744,-0.1626159696418114,3.709218454087245,0.13270974513370637,-0.3241510998675033,-0.13003606543117108,4.133808193110953,-0.10921028920276031,-0.1414756963029107,0.12075782583268985,4.586543837351654,-0.08669082293083917,0.018589610139696396,-0.1093976213711847,5.1273546685078415,-11.971862046420574,-6.0617726109176875,20.174811320751907,-0.9982429986516945,-0.7627569943666458,-1.551156206727028,13.627188336476683,-1.5234520936012268,0.342388227134943,14.614433144554496,-19.653935862481593,7.847068681374658,14.726769897639752,28.38343222171068,-11.223808022662997,5.093188124801964,13.5
0.8935539722442627,0.43202900886535645,1.133873462677002,0.8695414726915639,0.23788203756343923,0.05826494812504583,16.024278335596247,166.14737160707875,-2.315485757417881,16.731302036225816,-0.09609982467110967,0.8533350819349289,-1.4132130390405655,11149.11946717459,0.21865949986269698,0.7263122400641442,-1.4045908641815186,11239.27297342792,-0.3724408380687237,-0.7841085639595985,1.3291824018955232,11821.264373393347,0.012222351797345255,-0.9354397264122963,1.0901449298858643,11495.713486064824,0.3189449805996703,-0.047445014569117455,0.26481566292653663,4.694712148968,0.1389658260252649,-0.20986482942153628,-0.0010654996784600814,5.22417918585944,0.11966286471035634,0.057971862080398874,0.09012625248805246,6.128963104203528,0.06677028957063123,-0.20657517969871061,0.04516818552253642,5.529776177955298,-16.4971583173424,-6.526095607802272,23.317450752705337,-2.841744992111344,1.5864578205347062,-3.059588985145092,20.663335511097685,-3.0095196049287916,5.283513063006103,2.4386846786364913,-25.419759426694363,5.137648905544775,12.676532667670399,15.84245921611786,-15.57076653316617,2.9631214133137838,14.0
0.8935539722442627,0.43202900886535645,1.133873462677002,1.1846762797412587,0.07964734509590769,0.06995243531518346,15.94687231372544,166.76434794433027,-2.3166260500598095,14.128490354033554,0.06736057374160737,0.7435710808634758,-1.2659533888101577,11152.92814653064,0.15239176746457817,0.6110061368346215,-1.3250606697797775,11242.981444477839,-0.2665497825294733,-0.8805966773629188,1.3274025082588197,11825.565099694233,0.024215684974833493,-0.9095970630645752,1.132058556675911,11499.699088802789,0.5798297006223743,-0.2266484388995418,0.7667927252497276,8.638352553555201,-0.3710947174597515,0.08797192302660027,0.0673518240471031,8.439883510652269,0.10987100041957751,-0.1836283708211345,-0.045702671338381726,9.54264333602471,0.04643355437340527,0.01953452910073536,0.18056251739223875,8.387100374237228,-8.503675811737775,-2.781960180439055,8.378128840252757,-1.7439654547395185,17.846829942762852,2.1756589598581195,36.103508167266845,-4.055390392988921,-18.231173214912413,23.1404025028646,-31.29094738006592,10.582766336500645,12.57895942568779,5.105807921886444,-13.488637047111988,2.317789674727246,14.5
1.1266565322875977,-0.057778000831604004,-0.3001044988632202,1.671236388170568,-0.03132196207622326,0.09008792069412357,15.884448224722655,167.4966516405495,-2.325237877026886,14.15915826390705,-0.16886732083396055,0.7094742846488953,-1.3702737951278687,11158.148790464653,0.12327836886048317,0.553327857106924,-1.3005246472358705,11248.223548192624,-0.22079544834792614,-0.9033541226387024,1.306249514222145,11831.128572309182,0.0692178888618946,-0.9111793392896652,1.2263530772924423,11504.709541403081,-0.5985751643639723,-0.14269024892818816,-0.603800260608543,11.572609807219724,-0.10351982212719606,-0.24698907441569656,0.11388134165927097,11.967664695918701,0.16708872020795884,0.08716611751157757,-0.06583972890367286,11.722553301352846,0.113063093152043,0.030078582954146914,0.1548537331148135,11.39371425930167,9.619740704745054,1.1362708127498626,2.685921618975699,-1.4547788281628165,4.030602917494252,11.227467792741955,41.04361680984497,-2.1600595543161036,-22.39692986011505,33.01140753746033,-33.26818396568299,12.415021965503692,12.870642566680909,10.90532421603799,-9.9493315545097,4.691306048594416,15.0
1.1266565322875977,-0.057778000831604004,-0.3001044988632202,1.8080183253120088,0.0445759512943707,0.0821012574957417,15.757118283433352,168.41113818458757,-2.3410075645548774,10.464394593173742,-0.2148983707278967,0.6803401535749436,-1.4221972543001176,11164.562205336591,0.11150734338909388,0.5054512387514114,-1.3307405936717986,11254.831309601392,-0.17939102880656718,-0.8509729889035225,1.3061405801773072,11837.644136791256,0.0348978241943405,-0.8477805113792419,1.215482432246208,11511.084264073901,0.07619013423028974,0.09346652671825124,-0.013743261235358422,12.681024121466073,0.13435848549535842,0.05614857001374288,-0.1419329679293398,12.408032022874409,-0.06957758903422687,0.1328065899609164,0.09869632964280552,12.770087513395483,-0.1887733345676974,0.14462748373220907,-0.14156368012852155,12.478781010450687,-5.665808213055134,-14.417479960545897,24.314921432733534,-8.67115255355835,12.58745915479958,14.855073647499085,25.709239974021912,-0.15691202848916874,-16.408409202098845,13.682977158203721,-21.679905366897582,7.044378739446402,15.362601299285888,12.364309518784285,-25.44126102924347,5.228218243382871,15.5
1.6154451370239258,-0.02512568235397339,-0.43749988079071045,1.8293948508529159,0.008126719240066659,0.10783696920779344,15.670307106945854,169.38289822740805,-2.3547810976536754,12.097152468683143,-0.21103010177612305,0.7066815987229347,-1.4020801711082458,11171.188248412676,0.1743589725345373,0.5556662204861641,-1.3612288188934327,11261.359109050178,-0.16729247361421584,-0.794623880982399,1.3018335676193238,11844.410352569334,-0.0034133470531560305,-0.8008498057723046,1.1611536222696304,11517.869663996986,-0.19978051269623115,-0.03429942348894484,0.03285207263109784,12.737709221641756,0.12721279195855953,0.21102840302075015,-0.1274174324340167,12.787343011609687,0.08829194184579624,-0.0435424382086028,-0.09389684406346543,13.059383382980492,0.03907533210571454,0.06183085877159585,-0.02111989992444518,13.779960895204146,-23.717040498256683,-17.48823474407196,30.183041491508483,-9.830569441318511,13.312974705696107,14.528897168636322,19.947863235473633,0.8617114989669062,-9.918937410674989,1.440152926146984,-15.755285389721394,3.8312612963514403,20.627867817878723,21.958449031561614,-29.188465571403505,8.535982072018086,16.0
1.6154451370239258,-0.02512568235397339,-0.43749988079071045,1.7413360313832928,0.1097047629731324,0.08855295677388732,15.45911377774487,170.31996705985893,-2.367598331086569,12.634261800638566,-0.364744088947773,0.7113296821713447,-1.464102125763893,11177.700268374836,0.2505704945325851,0.6400004124641419,-1.446937122941017,11267.925908750836,-0.1597155676037073,-0.8408648946881294,1.2944087374210358,11850.967936073353,0.019176677863142685,-0.7909045752882957,1.183819025158882,11525.061657789252,-0.20632721854310096,-0.006278879746654756,-0.15153197521429418,12.433802608494743,-0.002833909734808769,-0.11218623490882512,0.06213415195013223,12.49745654344239,-0.06191015661181203,-0.022328004443754233,0.1141159966103992,12.247923848729597,-0.025918711993856484,-0.060528588570822404,0.004184539589026411,13.49429821916781,-14.380971410386264,-20.35259880065918,33.83362972259521,-11.069593052864075,14.194134614467622,6.231152676269412,12.780917620658874,-0.9583160549362947,-8.728037303946913,2.621451886817813,-7.820330557953566,3.2837935524620114,8.518865856043995,29.31965242266655,-30.364946813583373,11.665812973380088,16.5
1.645421028137207,0.14997363090515137,-0.007914066314697266,1.742062309452669,0.019150342473487177,0.09999779259391219,15.215774442438741,171.16822276828083,-2.377742064474723,12.00240789767537,-0.3322384361922741,0.7398166626691818,-1.4890276396274567,11184.12580672837,0.24250679068267345,0.5209740421175957,-1.3269938433170319,11274.328361659744,-0.25450215980410573,-0.8016079285740852,1.3665027171373367,11857.54997762959,-0.004485575687285745,-0.8016167974472046,1.1041257232427597,11531.778044536508,0.11888860704654068,0.08091144476976747,0.004498791097026916,12.137794326603355,-0.03781340788954376,-0.15295698268049684,0.1639047694996698,12.053888581551712,-0.207967870524807,0.1410957056997977,0.05326000858459731,12.82849385586268,0.03683368409844676,0.044237349176102475,-0.05933838296978371,12.310515865503104,15.495186789035797,-13.256943986415862,14.557265745252371,-6.876458557844162,0.9045815297216176,12.560748431682587,32.01508098602295,-1.6575624288152904,-16.900512228012087,18.965582456588745,-41.02103068351746,12.257764496803283,20.919088125228882,1.4410648819804193,-6.134626836627722,2.265629352494143,17.0
1.645421028137207,0.14997363090515137,-0.007914066314697266,1.8264825726678509,-0.0374019911397321,0.11912340312683269,15.0479282748762,172.05370805489554,-2.3963510791190057,10.53590761140603,-0.34783985987305643,0.7379090133309364,-1.4635709923505784,11190.676694321986,0.1714231961965561,0.47262057289481163,-1.2826288414001465,11280.938367219473,-0.2911115722358227,-0.7762641671299935,1.3498481196165084,11864.567043229878,-0.020116121346945876,-0.7990219742059708,1.0889975601434707,11538.634754709867,-0.025825538996910983,0.01200023744038101,0.08147302978824715,12.759287861211414,-0.0845428219457172,-0.004866014092355781,0.024146721148292763,12.908169409207217,0.047585593377657796,-0.002975502166858173,-0.08543460637135614,13.808552415567013,-0.11094251011904593,-0.007811731479236433,-0.15529678342005995,13.651328049403343,4.0444273915886875,-17.77521161556244,26.88977957725525,-9.147671716213226,8.60218786779791,19.451963000297546,24.41506419181824,1.7635936245135964,-14.705204217433929,5.446254855580628,-32.44268593788147,6.586763331592083,18.55617447376251,10.720313297510147,-17.942399654388428,3.7839548549056055,17.5
1.6618094444274902,0.17417526245117188,-0.08223259449005127,1.8521336899943472,-0.03570583998291065,0.1198869791535992,14.912715900312808,173.03411707094995,-2.3937678162316733,12.065076370662212,-0.30347593769431114,0.7671692204475403,-1.4410267448425294,11197.324268677847,0.18739265598356725,0.5162532186508179,-1.3032593250274658,11287.518528362805,-0.26399162858724595,-0.7659923693537712,1.296284630894661,11871.786013621013,-0.03807699954631971,-0.7987113410234451,1.042805442214012,11545.609263247065,0.17237706958266677,0.03987099989398781,-0.019229129464262286,12.954834251265561,0.10924665745934332,0.07301692897323381,-0.1044497294977307,12.613947939296535,0.030038572155407034,0.046537225768001615,-0.05467045823675904,13.839257381955147,0.08024506654490432,0.009799579149703325,0.023197813107111664,12.972010993148412,7.208800090849399,-18.06090545654297,18.643093314766883,-8.0765505194664,8.173994045555592,14.260742549896241,27.95258973121643,-0.19464016675949097,-18.38258358478546,11.813430279232561,-33.1302502822876,9.121720328330994,19.802945289611817,10.282283912152051,-11.403449258729815,3.65021430298686,18.0
1.6618094444274902,0.17417526245117188,-0.08223259449005127,1.8588769396847957,-0.01248115318042345,0.12707049075948398,14.8521034311843,173.99652801369353,-2.4180193026857832,10.126048987154425,-0.2419998575747013,0.7678681367635727,-1.4628952008485794,11204.223908732303,0.21668186262249947,0.5284619095921517,-1.3617591255903243,11294.248758462747,-0.2628503715246916,-0.757160593867302,1.3000282579660416,11879.027240573498,-0.03799610582180321,-0.7845474249124527,1.0467082262039185,11552.405208855504,0.08711354927996451,-0.011504480779886224,-0.07966482678640846,13.288698262840576,0.0005642074979717253,0.011949322057714762,-0.061854510524024374,12.935069979404409,0.04155352798855076,-0.024699129642148633,0.05338216993916519,13.884364650281498,-0.050645303713030845,0.021796042362015444,-0.038705139345357284,13.133946010579859,6.651560897249729,-18.038339219093324,14.779625588171184,-8.207725999355317,5.395900026746094,13.566210565567017,32.514764089584354,-1.3256131012691186,-18.91975700855255,8.193235774338245,-34.290433921813964,7.993955922722816,18.47962389945984,11.385117174917832,-10.907960917800665,4.397637949343771,18.5
1.741178274154663,0.18185573816299438,-0.11073637008666992,1.8382883517549424,-0.004143996696457354,0.12744848307550638,14.798885585021166,174.9664036900238,-2.4541802776533177,12.390727311864058,-0.274171389862895,0.7188990399241447,-1.512506895661354,11211.149106475857,0.18191202994436026,0.5717935121059418,-1.4353464645147325,11301.107516642776,-0.1961724191904068,-0.7666519823670387,1.321784662604332,11886.146064334192,-0.03213318326510489,-0.7852252522110938,1.1303280359506607,11559.31325273906,-0.29066728626969845,-0.17525571653852232,-0.012651194268717242,13.350847007103285,0.015666710167953755,0.14483760136076398,-0.23450695731848417,13.413331581305766,0.0737417647158757,-0.09445818082755102,0.017064530165750148,13.489130609404398,-0.06642843155206873,-0.0024958594296567295,0.2431735365879926,13.6977369763283,-3.9721408473700284,-17.235880663394926,22.56982120204717,-9.933291895389557,7.3376206926070155,7.018305633086711,25.764283451810478,-2.6413736214349046,-15.930235594138503,1.9748785395547748,-23.02893858730793,5.120187250401359,11.641085477769375,24.777755420207978,-19.061903833299876,9.597004089951515,19.0
1.741178274154663,0.18185573816299438,-0.11073637008666992,1.7647390505409075,0.05886383597325721,0.15182476984302695,14.716174855560077,175.99091480981286,-2.48026139495839,11.314645144259591,-0.2814814077317715,0.7217095771431923,-1.4714407902956008,11217.893702903224,0.25253279350697994,0.5700506463646888,-1.4402744960784912,11307.84015938254,-0.25192519165575505,-0.7692621466517449,1.3415812826156617,11893.196787523399,-0.045309718908392825,-0.8078052109479904,1.1589678204059601,11566.28699944658,0.2687001846699219,0.17806523224870413,0.15235728186286693,12.260544288171983,0.10874507331673518,-0.16699440513915195,0.19969980372230975,12.308270445198454,-0.19866589047668642,0.10461738245704275,0.06368013016161396,13.390098819093545,0.069009182383576,-0.08412700624799851,-0.010772849047649745,12.480314939306929,10.472617333456874,-17.261699976921083,24.930696580410004,-9.237459228038787,2.457367779593915,10.40437423467636,25.278780884742737,-1.4949961426993832,-13.33951596930623,11.134588906913995,-33.42236612319946,8.85960908472538,19.66934675216675,2.5234823266044257,-15.02486599944532,2.669872774106916,19.5
1.6542961597442627,-0.0759013295173645,-0.3261151909828186,1.7267024372398811,0.0034500973151247085,0.12139601815262582,14.72197243461804,176.93309946285072,-2.4912723845692244,8.436215273626486,-0.21135703191161156,0.7627060544490815,-1.376031379699707,11224.225185647947,0.28059757135808466,0.5101593592762947,-1.360531221628189,11314.28164349819,-0.27511011347174646,-0.7515175828337669,1.3322506070137023,11900.109072352629,-0.03139387649483979,-0.8104062697291374,1.1472534787654878,11572.769781547682,-0.05827030069817081,0.07784592555206545,0.08093806747884726,11.6548887456721,-0.06552549162901186,0.11085139030019489,0.012305713273064225,11.729595060133338,0.05046526505349988,-0.13003091716010012,-0.05774575622795769,12.268990881738057,-0.05000781220663075,0.17415381891501955,-0.13469291325400548,12.178075407744352,-11.328992315977812,-21.536102604866027,22.455198707580568,-9.540849618911743,3.0079874699003994,15.420591888427735,27.624380960464478,-0.658617334725568,-9.938780865669251,-2.729248080998659,-23.79891207635403,3.2320452352822757,19.139707612991334,11.273408845067024,-27.087852716445923,3.905795354396105,20.0
1.6542961597442627,-0.0759013295173645,-0.3261151909828186,1.0011844671689536,0.12356611143598004,0.06055221894630509,14.70321223683569,177.72332476459584,-2.5142986894850146,13.070750889877393,-0.3068070712685585,0.927478846013546,-1.3994698858261108,11229.043283716168,0.19924277745187283,0.7196825662255287,-1.414405228495598,11319.097335057277,-0.23062059611082078,-0.8707535535097122,1.3074132984876632,11904.490321390946,0.011298727634130045,-0.7188041228055954,1.154455876350403,11577.694017192209,0.09832153145480431,0.38782628438682926,0.115685162522797,6.053196631251852,-0.0761940565828371,0.4448756123247477,-0.3120950318491509,5.621449009491624,0.06977508174881983,0.08011825787642188,0.040588448775337384,3.998302265059595,0.430337862798262,-0.2904710469236412,0.35317888439415407,4.706937019309686,-2.1554401911981405,-53.32255916595459,25.891085247434674,-14.715119261741638,12.878205489516258,-11.192782710269093,8.794460962191224,-6.897384400269948,-1.5170249271392822,-8.287382796667517,-11.08113020028919,-1.0445305201841983,7.343556346073747,-1.3791610889136792,-25.290165513902902,1.0970541785191745,20.5
0.21614646911621094,-0.3712139129638672,-0.6155819892883301,0.221659671354561,-0.5426726145431695,0.03163323121289101,14.843038650199535,177.9947831411698,-2.52661161489183,26.96817799937579,-0.15564392729924292,0.9711813595890999,-1.3283479437232018,11230.99438329781,0.0935278894007206,0.809444413781166,-1.318001364469528,11320.463649357567,-0.15447930041700603,-0.887361650466919,1.322343009710312,11906.117484390443,0.2027125708013773,-0.9359264069795609,1.357847473025322,11578.78279359165,-0.7047933986939313,-0.2668151981021359,-0.350616315260544,3.3946572342047068,0.343887688816705,0.09296024279917008,0.47179253895644485,1.996496777737366,0.3557845374053674,-0.1991420529681065,-0.19265173345093647,4.276067036903155,0.14504392458163623,-0.21183757056786828,0.2236918609678112,2.4724348709396873,0.5960973326861858,-20.12664454445243,17.39651937589049,-2.17827960325405,15.416429504454136,-1.828376032114029,21.398959528654814,-1.599524003379047,-12.59580535557121,7.590262423455715,-27.23262162208557,2.7523642595112325,7.791140316687525,-2.879798112809658,-20.761684620007873,0.851352334432304,21.0
0.21614646911621094,-0.3712139129638672,-0.6155819892883301,0.7130663166377164,-0.4514015685076286,0.0044268542798253825,15.197835296157963,178.08894692799174,-2.5422382142180298,19.32652787607139,-0.2215106665971689,0.9007675647735596,-1.3539089769124986,11233.324409322864,0.05443318964797072,0.8052937945723534,-1.2921572589874268,11322.509929168282,-0.01805123928867033,-0.9456586775183677,1.250651457309723,11908.798390696058,0.32146881237626074,-1.0019911217689514,1.4567448961734772,11580.539405662668,0.5544141551003822,-0.05757672733957645,-0.3401901546952781,4.993916426838214,-0.38474709226204246,0.011872300304443997,0.04533889461914525,4.591696311132638,0.12996469452667492,-0.058863196446117705,-0.21241673657606863,5.563532098774822,0.13620565473597718,0.05217609697419272,0.17211674642306318,4.043359581388837,3.027200229614973,-18.20941076800227,22.88996002525091,-4.890590924471617,13.99380034416914,1.8726276904344559,12.248768107444048,-1.288689230377786,-9.538632181435823,8.079873780459165,-15.491269726613027,1.9645612806640564,-2.6635973390936853,16.792584466040136,-25.462205979824066,5.334529079850763,21.5
0.9280052185058594,-0.5669404864311218,-1.1548750400543213,0.9804247952354928,-0.35029209367946534,-0.019451175514063817,15.664843205542807,178.03793708714343,-2.5619583617262,14.538692108105483,-0.3100067408569157,0.80224704682827,-1.4029142701625823,11236.41692629459,0.10693739935988561,0.8077905914187431,-1.3447129994630813,11325.483727041268,0.05037868666486247,-0.8802580040693283,1.188834903240204,11912.492520896267,0.34202535316348076,-1.0114151602983474,1.504612768292427,11583.288758797738,0.40469081929309075,-0.311919456346774,0.9483095356826478,7.717886026568325,-0.5724878489660932,-0.2434732120893468,0.16635938484553922,8.234493963359064,-0.01708725394730396,-0.02819434827115021,0.15316908413714897,8.861584608369553,0.08460319555665753,-0.09432443776535475,0.05373275327708837,6.244505115752796,5.208497112244368,-7.328470749258995,26.614277768023314,-4.035500229112804,-4.450573986619711,1.575261491984129,9.032174318125472,-0.8262798747140914,-11.4872458525002,1.00042210877873,-12.37386787313968,1.3382055841572582,3.3298088158667087,34.35754764985293,-29.130651790983976,12.100066161528229,22.0
0.9280052185058594,-0.5669404864311218,-1.1548750400543213,1.6520824964235612,0.03032786399283124,0.0217009710064899,16.35541421171156,177.88232204811308,-2.5543870401764748,17.75080522891779,-0.1455025161616504,0.5632747668027878,-1.1967417347431182,11242.014770932397,0.0166019869572483,0.6574883916974068,-1.267317437529564,11331.002139579154,0.007938111112162005,-0.9107362833619118,1.182367136478424,11917.971688955005,0.3422778618335724,-1.008968101143837,1.4997669452428817,11587.944566447353,-0.3697835492772484,-0.29662911529409314,-0.12317781903466311,12.52868874382099,0.537302240263178,-0.15558341844039708,-0.35918610365867454,11.9367436219976,-0.1405930604675967,0.0048690001870853325,0.021307168448130707,11.416411634255738,-0.13595471277067342,0.026967961592220514,-0.09627221521627514,12.019801439195016,-23.027420480251312,-1.2571715412288904,18.866709192991255,-4.595895054731518,18.057828042805195,8.351654318012297,23.210824103429914,-0.38426477001048626,-15.689690323472023,4.164997591413558,-5.756087537258863,2.5066542001999914,-4.316937953997403,44.54050230026245,-33.346962995529175,16.734513034820555,22.5
1.741302728652954,0.25895166397094727,0.17413926124572754,1.720025733618901,0.10085264649702774,-0.0009404010902280407,17.253698650764562,177.8145598947099,-2.567799116754543,12.984358551396221,-0.33329520672559737,0.5361037713289261,-1.331973288655281,11248.349812379596,0.18810535736382009,0.6749177718162537,-1.4483155488967896,11337.160016802705,-0.06199535558000207,-0.8813926690816879,1.2786394155025482,11923.815102581299,0.2576040381938219,-1.0051873189210891,1.47861634850502,11594.591689170213,-0.2323449405882548,0.020377851053317807,-0.273194197837491,11.988585489425379,0.09853237436384424,-0.010479979259418942,-0.19986657857577267,11.604353194711678,-0.010178960502295638,0.1806322374626834,0.164152831510315,11.08727416103597,-0.1677804003711073,-0.012264259841554744,0.05583626913632724,12.563009562584375,-21.67503727912903,-9.344493834972381,36.041636810302734,-10.569125621318816,15.294757874011994,0.619641871927306,6.899098223447799,-2.3759293031785638,4.659826133400202,-5.41673782190308,-0.16514670653268695,0.8934476379092666,-12.01780250787735,44.26753927230835,-36.31552041053772,15.847948307991027,23.0
1.741302728652954,0.25895166397094727,0.17413926124572754,1.716622675780589,0.19685713296702706,0.055186709961783015,18.140668523224647,177.8361585343456,-2.597432962479732,14.654259244618578,-0.4160728858411312,0.4963260884582996,-1.4206606274843216,11254.75173413454,0.20257283464074136,0.5866497573256493,-1.453394466638565,11343.403919037786,-0.11668189238756894,-0.8641447311639786,1.3722640180587768,11929.89064876772,0.11146959345554933,-0.9907957047224045,1.3990830385684967,11601.2445285013,-0.164110718315918,-0.11618622924676295,-0.025049042181905633,12.379879712370087,-0.10268787465855517,-0.280007387590885,0.22766864471589468,12.447061483550522,-0.22301386522905856,-0.13301232401445126,0.16900856048494395,12.342052373315262,-0.38285457124092553,0.057915293921441215,-0.4194106970782541,13.160524916191102,-1.275739928074181,-6.352880929708481,37.66428596496582,-10.344803516864777,7.481736863702536,8.493450985848904,9.090110001564026,0.6886585515365005,-8.3888680768013,6.5001810426265,-17.742054958343505,4.767491012215614,5.864151013791561,34.174199109077456,-28.179511671066283,11.71410587310791,23.5
1.741783857345581,0.1662830114364624,-0.07592737674713135,1.791561101841572,-0.0703382739631759,0.08452261091409144,19.021384367187633,177.89929381275405,-2.588882740149645,11.844570859382985,-0.4458445775508881,0.5653817115724087,-1.389254294037819,11260.897343790532,0.1473138117045164,0.4422465543448925,-1.2563884258270264,11349.885410486548,-0.23645140059292316,-0.8819302812218666,1.3937985932826995,11936.661361789116,-0.05874367613098002,-0.917972719669342,1.128061101436615,11608.08056099189,0.1372442946065217,0.33915119937278243,0.046990531902867415,11.375227533778629,0.01671865238282648,-0.15436034791925582,0.27041979727069665,12.177619016502021,-0.11122452413519696,0.07523415234528888,-0.09136381171010824,13.369893467834748,-0.1584617473610319,0.2018177157823968,-0.481639835890875,12.671270456426493,15.11375163793564,-5.471578938215971,30.81025736808777,-7.08184648156166,6.349349776804448,16.465984721183776,17.715708675384523,1.9509170995280147,-18.26668890953064,19.260393023490906,-38.18408758163452,9.65580787420273,26.490566701889037,6.291233280003071,-13.30921007156372,1.685290390215814,24.0
1.741783857345581,0.1662830114364624,-0.07592737674713135,1.3426762461097959,-0.1685395394996084,0.009425711013462398,19.840304295746254,177.80314483483116,-2.576132682108148,6.698096855184303,-0.29790734708309174,0.7555774790048599,-1.4173328536748886,11266.494911456057,0.2393073608726263,0.5069773082435131,-1.2956504213809967,11355.631415613752,-0.22592373810708521,-0.7446573320031166,1.307120885848999,11942.955823467335,0.0031288416543975473,-0.8529314488172531,1.1140359598398208,11613.690853863203,0.1789675104305206,0.43393254220996075,-0.12233250970116488,8.229675307260388,0.07130880634854095,0.4790254291406793,-0.3123083498450711,8.3018944756059,0.13805374834162176,0.4402933411963245,-0.23060205808592849,8.3470559615644,0.34375570719540777,0.16289282211968723,0.37576033727293506,6.762348130908155,14.120521608777345,-23.841028604507446,10.808236522525549,-10.721355385780335,-4.659270869903266,-8.763433069512248,32.814051637649534,-10.923193424195052,-18.013280698284508,-8.861924057006837,-42.22675931930542,0.5084869059920311,18.19037675380707,-5.811206003529951,-8.513851105421782,-1.0695488781295717,24.5
0.6699426174163818,0.15741300582885742,0.4076653718948364,-0.492149201229446,-0.004240965109174389,-0.042521457390551284,20.131265335416405,177.66951322637863,-2.5685198239862315,26.561112955604642,-0.2987458823621273,0.8871049505472183,-1.4215624457597733,11267.943877360245,0.21040093041956426,0.783730701804161,-1.4098310905694962,11356.998124889746,-0.14120689041912557,-0.612003462612629,1.2364127576351165,11943.959856931368,0.16689687497913838,-0.7300994935631752,1.3203321719169616,11613.990115023631,0.024489881498954,-0.05232012225519139,0.1054898891743621,-1.8885091540234689,-0.002650833002947159,0.1776513037396898,-0.012896428643042855,-2.234305535090377,0.1069978001121737,0.04352218568896596,0.04908390986757846,-2.907790588933184,0.1671295454695159,0.2141908755802927,0.3027198834146979,-3.9283411990594623,-7.5863321075961,-27.2956006231159,23.57458550453186,-11.10669221445918,15.197386941909791,-14.40891351044178,27.62288839817047,-9.071769238710404,-10.41685746923089,-20.16478938817978,-25.86279086112976,-3.465315612591803,4.164559984579682,-10.4702410762012,-28.920294561386108,-1.1830015897302655,25.0
0.6699426174163818,0.15741300582885742,0.4076653718948364,-0.4465178317337599,0.2404079469204605,0.00024008178005492097,19.95156092322542,177.6836297189735,-2.571264457273382,8.03758339246976,-0.3326667523384094,0.7972883367538453,-1.4036921709775925,11266.433627698942,0.14531508240848778,0.6925236764550209,-1.3149971556663513,11355.423880630296,-0.14265602260828017,-0.6739826413989067,1.321375522017479,11942.185540411338,0.1523707953467965,-0.6701476895809173,1.3359530127048493,11611.988646375761,-0.21887396441815185,-0.14004207688569612,-0.0973344542651419,-2.8220526759788176,-0.2661405370875834,-0.27902536053462856,0.2752789277522235,-2.8557629833715334,-0.1606456287549112,-0.24212697761614216,0.20982802095339792,-3.0297772456315517,-0.2045449378921331,0.0665602658859208,-0.23502701461518258,-3.0299850940361948,-7.34840343117714,-4.000674897395075,24.932793273925782,-4.9618764245510105,15.228112034797668,7.757566366195679,28.39107187271118,-1.7180396845703945,-7.5659660270810125,0.8711306540295481,-28.639067239761353,4.175387552976608,-0.3265771998092532,8.572717627584934,-27.48982169151306,5.621091378927231,25.5
-0.3326399326324463,0.15420931577682495,0.07847356796264648,-0.24752026659836013,0.11148511691577301,-0.01642492465188651,19.760952726128586,177.78100946254384,-2.585313466775817,13.925684557520402,-0.46201261594891546,0.7897110658884049,-1.480096634030342,11265.120017626694,0.006659274489647942,0.6177368378639221,-1.215661232471466,11354.122035385508,-0.24671301260590553,-0.7384989988803864,1.3671644896268844,11940.863801289543,0.0378205370856449,-0.6078275629878044,1.1809619843959809,11610.711143497949,-0.181232785398632,0.11186816486840359,-0.15219110710522696,-2.45471002855681,-0.20715629693131873,0.03042132757128548,0.08313111334599885,-2.422715390291687,-0.14335896598540646,0.048612304563469294,-0.03138585587612664,-2.3928912913986093,-0.13495264310426286,0.1539650670931409,-0.24716730193010217,-2.1910952783584823,-1.5781697331927718,-11.73117506980896,33.144763231277466,-9.01241131067276,21.58563953399658,9.094196081161499,18.394609870910646,-0.6585064445436001,-3.93836814686656,4.322976020537316,-37.00145802497864,4.758509768247604,7.570162453651428,-0.69853241994977,-17.516395115852355,2.185539183570072,26.0
-0.3326399326324463,0.15420931577682495,0.07847356796264648,-0.29996256303611885,0.004254976547105354,-0.02813103338308804,19.59114968621971,177.83188497416242,-2.5926676519915204,7.812549125102272,-0.4938008938729763,0.8403143391013146,-1.5498959976434707,11263.835842396837,-0.03615317196585238,0.6458403253555298,-1.243811582326889,11352.882749588585,-0.29712765246629713,-0.710346735715866,1.369623413681984,11939.577222288195,-0.011468304309964879,-0.5735895895957946,1.1204109692573547,11609.533030257659,0.02108075590905597,-0.019179508120777972,-0.08526949132962908,-2.0557238492008176,0.00694915882691079,-0.017709826401789492,-0.1319141823131577,-1.9698701867350388,-0.08101596904743275,-0.02463675361868734,0.03665898150933702,-2.108516523061509,-0.09208198924614433,-0.06013699194028709,-0.01517538612717335,-2.006215248942959,3.6090226951241493,-13.657298202514648,31.622309741973876,-8.521566143035889,20.73932456970215,5.919713726043701,18.122564244270325,-1.2027622759196674,-4.627047677487135,7.917177064418793,-38.844632606506345,7.094712700843811,9.463395259380341,-1.3949390408582985,-12.692558636665344,2.123851729370654,26.5
-0.23295044898986816,-0.00890350341796875,-0.053081631660461426,-0.14623413105150826,-0.033531277932280903,-0.017083659160009392,19.476284004780283,177.83741186415912,-2.596028654897744,8.031218052072182,-0.46018538147211074,0.794958481490612,-1.5729391515254973,11263.130714519413,-0.006846348169292468,0.6049198278784752,-1.325214906334877,11352.206351046001,-0.3358646234869957,-0.7320096570253373,1.3818632650375366,11938.79686616723,-0.05784749560058117,-0.6273919281363487,1.1356707203388214,11608.736632204904,0.09047982110902958,-0.11842613388224281,-0.017206408565014004,-0.7058288442145799,0.09436715095414568,-0.11008667417314445,-0.166580837865573,-0.6217589968618558,-0.045134308938381676,-0.043037385346019114,0.020656462206324,-0.9284915678269176,-0.06221537336792078,-0.12037528359615965,0.07509168709413275,-1.0248389068640893,3.5664914375543595,-14.719638333320617,28.726592712402343,-9.610308063030242,15.66396722793579,5.937866539955139,19.736178865432738,-1.7938016779720782,2.5937510323151947,13.432332682609559,-34.39611631393433,8.821161739826202,6.629335806369782,6.323777315020561,-11.926671628952027,3.916039160490036,27.0
-0.23295044898986816,-0.00890350341796875,-0.053081631660461426,-0.039297166786163275,-0.022415866269733055,-0.008816517231110765,19.421803055810877,177.82596498530555,-2.5986997331822677,8.577800068073856,-0.423741006371963,0.7429658384179351,-1.5700291365235295,11262.939866045293,0.03123498609729448,0.5445610266834048,-1.3823418377631873,11352.105168829125,-0.3414070902757309,-0.7479746419580737,1.3865100636554124,11938.514113112575,-0.06953151052321621,-0.6722611973633119,1.1856605880823567,11608.379645655514,0.05120662566287097,-0.05998500982698523,0.012076996736029376,-0.15173093238082147,0.050281817723933815,-0.10083603954331047,-0.06460091267921556,0.06119754374101303,0.0003702542162990846,-0.017692930339579305,0.0048656768698703,-0.24641400690686802,-0.004146432608305244,-0.04247780363005154,0.08420108808290966,-0.43416182506301976,1.8451198707872898,-15.842364541250257,26.428911439138442,-10.755156095303482,13.677747932510758,5.7020325996168895,22.380268509064486,-2.6626865276739227,5.6512347202205175,15.017981663421171,-30.9722769943314,8.796446170040111,3.326707270876247,8.410060326657703,-14.316184336216606,4.421562931645456,27.5
-0.0001824498176574707,-0.0294339656829834,0.007163405418395996,0.9759048211855765,0.0059066083615071895,0.0683602132762787,19.58800911501714,177.78440342166164,-2.5972942192862543,41.79559800307216,-0.40590964487536035,0.6876878747299536,-1.5613239457951256,11264.247473901532,0.03080112830358117,0.4693704698216263,-1.3620503654527427,11353.57508842083,-0.31586315634831863,-0.7544686313885361,1.3777588819389912,11939.679172685846,-0.06885575386348056,-0.7388843647876189,1.2051030468584887,11609.651130834136,-0.0025701883869395127,-0.13933603946835613,0.06920364385589835,7.030706304637083,-0.11079327248099961,-0.22178006480203896,0.2433746767080143,7.66099552198981,0.1749400750442219,-0.010887264748904122,-0.06035397792907771,7.019381983631415,0.048777596393089255,-0.20820875198205224,0.0015027605653323939,7.666586594181263,6.390100890094072,13.244618225601775,25.11285646163409,2.7019892552269815,1.8695254125701848,23.322174176647888,24.783181375532006,6.28785676386819,-3.4202340286391886,41.20287436869607,-29.371868513116787,26.17933068821086,13.400303190620384,24.605974273302067,-13.993935886307142,12.805648305522862,28.0
-0.0001824498176574707,-0.0294339656829834,0.007163405418395996,2.076468936217515,-0.04860570505730986,0.13101973000924205,20.410820239501597,177.67887285616143,-2.572772705355406,15.013038115443075,-0.40216471314430235,0.6884631827473641,-1.5091927820444107,11270.011097416857,-0.0455260344222188,0.38730535373091696,-1.1990753084421157,11359.79571649811,-0.17086245521903037,-0.7387793081998825,1.2786135309934616,11945.9773322905,-0.008895650627964642,-0.8044759944081307,1.2234304851293565,11616.132142460297,0.08222319582808524,0.1423809936882186,0.07324272104681434,13.346051755197157,-0.05166077177665452,0.02406195563907665,0.1363394488835168,14.02484278786831,0.26564526423250556,0.10552925473942903,-0.27862086248416806,14.754218950238322,0.12323135650500326,0.03961133686001447,0.021821493315940348,14.594035754845597,5.126043118368834,-6.637397458031773,27.135785999298097,-6.108873215913772,7.6845144634693865,18.37326045036316,23.920232362747193,1.5244309182139113,-20.458840355873107,17.580144925117494,-24.34808440208435,11.186951068639756,19.71399022579193,12.371928038597106,-25.328686017990112,6.46789890229702,28.5
1.7637758255004883,-0.020824790000915527,0.00849902629852295,2.019422715290993,-0.009216227455582567,0.09582930695189114,21.495173338169476,177.59276563389128,-2.56038880996012,10.341556796074158,-0.30910948157310486,0.7617066910862923,-1.488130982518196,11277.278241118926,0.00954195999482181,0.46821984499692915,-1.2431052279472352,11367.101831191823,-0.10878081254661083,-0.6801043003797531,1.1952888882160186,11953.815274044999,0.010613948926520607,-0.700320011973381,1.158982561826706,11623.599348461037,0.17462448266981412,0.08645219841276257,-0.011637119175817312,14.220277077482699,0.13673616212269948,0.17088586055539842,-0.15618792892110414,13.802243799734578,0.002442977566297705,0.05496251266418493,-0.027963736015624078,14.990127738394186,-0.04401023689795308,0.23591960196731057,-0.18238286896380945,13.941709941433503,3.395290761627257,-17.737842946052552,23.179800090789794,-8.631491487026215,15.893753657341003,19.73266604423523,29.905048427581786,1.0356759333098307,-30.894031238555907,8.040637069940567,-26.677652473449708,7.397100375890732,23.11676377773285,2.4937215235829355,-23.945359649658204,4.224449952840805,29.0
1.7637758255004883,-0.020824790000915527,0.00849902629852295,1.9681752085814508,-0.02692386776224807,0.0910402108530764,22.575754365354623,177.4869427593012,-2.5494855032234924,10.661483315611877,-0.25227249346673486,0.7731573778390884,-1.4812949395179749,11284.674831997503,0.05031073619611561,0.5257442471385002,-1.3090824556350709,11374.34784092861,-0.10563507299870252,-0.6757862678170204,1.2054703265428544,11961.601435472805,-0.014879853732418269,-0.6288838428258896,1.1142810386419297,11630.896998968217,0.1266239253825125,-0.0007016043036449524,0.12619735163515414,13.834609715778729,0.11937097954133316,0.08032611106529779,-0.11340291167164834,13.703948116470093,0.009591125090937918,0.0018004959086930473,0.03676492940752076,14.665283953299802,-0.04269546201771145,0.04518006981453254,0.009285842407145924,13.854930551023442,1.7647132715582847,-18.033571100234987,22.3827236700058,-8.757990489006042,16.584859671592714,17.744570407867432,31.17086275100708,0.1591609018202871,-30.09107745170593,8.232948627918958,-28.216434955596924,8.087411940097809,23.55337471961975,-1.3109409142658115,-22.736082062721252,3.802913687340915,29.5
1.708160638809204,-0.060850560665130615,-0.027597904205322266,1.6369797973814364,-0.06723432164803513,0.04383587886246832,23.557759653791308,177.3111229942839,-2.535922962184275,5.461027183805198,-0.16012147270143032,0.8267979326844216,-1.399718919992447,11291.35822935503,0.14835416164249182,0.6177651193737984,-1.4021249896287917,11380.97866229867,-0.10485226392745972,-0.6285662627220154,1.1975815904140472,11968.752750343485,-0.022799389282990887,-0.6036787414550782,1.1522981172800064,11637.591244425526,0.1274376239370472,0.1846597283420465,0.07474026065018793,11.215159251123788,0.14169228662128494,0.28584054443554435,-0.24181189169477918,11.229981616123908,0.06309124908600677,0.14601503357110357,-0.04902420165371077,11.84205045666076,0.08383437482788342,0.10415814490570778,0.1875291816970013,11.122566029585496,-9.287713653240353,-28.43070032119751,18.44448944091797,-10.955853097438812,15.050910123586654,9.038126476109028,33.88553412437439,-3.2002469065226613,-25.059006247520447,-6.967728693252429,-26.67749312400818,1.6409866179618984,23.515388679504394,-7.198101703084249,-25.703019971847535,1.9473019538912921,30.0
1.708160638809204,-0.060850560665130615,-0.027597904205322266,0.8755540166739881,-0.2698807628018051,0.008365915943157913,24.240048299271,177.11932764472277,-2.5462593995662925,16.056319505951116,-0.013682150348031427,0.9161386534571647,-1.2382614463567734,11295.653412685997,0.1934259954188019,0.7683651259541512,-1.544618505835533,11385.580717645484,-0.054876126926392314,-0.6491172909736633,1.2348989087343216,11973.696504249456,0.050268431948497894,-0.5909719875454903,1.271055679321289,11642.111333218556,0.7845722413811633,-0.02817350900262329,1.1359346471013732,5.361716854190211,-0.27117867721364886,0.15754656554565105,0.1727182125283349,6.295781864246362,0.022655767660141123,-0.5216394720725739,0.2504584324644457,8.17758324017583,0.17285693956956258,-0.2715194629600724,0.16542387607676212,6.492780664274314,-4.758668328821659,-36.56393783569336,28.050928077697755,-5.854647502778098,6.039984807372093,6.20234037347138,21.264149557948112,-2.617776508703828,-16.10714571595192,-11.200620393380524,-19.223006902337076,0.4645915785850957,23.9087482213974,-19.51893080972135,-38.34807172775268,-0.4231249414337799,30.5
0.8929861783981323,-0.5507051944732666,-1.033575415611267,0.745310385403105,-0.45338464826884733,0.07784067748602064,24.486423556854138,176.74656130038113,-2.521036779403278,20.669428478441766,-0.15602957936935127,0.8373096546530724,-1.2936284470558166,11298.325072883099,0.2097678039292805,0.8501065289974212,-1.5198943275213241,11388.081651046463,-0.01501791196827071,-0.8215386554598808,1.2422638154029846,11978.160019091381,0.18664723746478556,-0.8642986086010933,1.3896889585256575,11645.31931752875,-0.7838190579924489,-0.027480074570532125,-0.9465185679027698,5.6404611903464446,-0.44391404520869976,-0.1749545371261737,0.15254641155579587,5.379294019721143,0.11814790407528498,-0.0018727297446764673,-0.11519406995466787,9.111108578566597,0.19833312386688237,-0.51210695742964,0.17323462740966275,6.496948002716523,4.00462460115552,-0.00516984885558486,20.94876701146364,-1.607024412290193,3.1449414014816286,-6.070509013831615,24.936578273866324,-4.022656243025558,-20.652275820150972,1.009325399696827,-28.330437927097083,2.9605451020225884,12.881393836587668,7.336583697795868,-23.042092013955116,4.720960828894749,31.0
0.8929861783981323,-0.5507051944732666,-1.033575415611267,1.1799355546572905,-0.3272538940045371,0.007969184389381007,24.629486401344558,176.18590008960982,-2.4997959505745744,16.62834928610109,-0.09184111009119078,0.7294062060117722,-1.2283132162690162,11302.220121778431,0.025294264789799854,0.7249328571557999,-1.2550376880168914,11392.29593419308,0.027344526571978348,-0.8531090572476387,1.1573982399702072,11983.40428618161,0.23549589700996876,-1.0480538150668144,1.4401103079319,11649.04217525866,-0.6998284494765526,-0.2516380697604646,-0.4744675114572422,9.45891484165417,1.0159098533626711,0.13914561366573036,-0.19686834060217437,9.03633981830412,0.2023759272792358,0.2092029941399166,-0.32928768816826576,10.545566274851911,0.140522270328046,-0.17415949306710402,0.19056415754416345,7.742385514362245,-5.150845148414374,-2.95283042229712,14.090078205317258,-2.111119088656269,15.393783214837313,-0.1831231978535652,23.416257733404635,-2.6652669529104607,-21.886661262512206,10.13387249648571,-25.495836324691773,3.028833882957697,8.496168394759298,31.058962355852128,-12.10494306270033,10.062290341854096,31.5
1.3603763580322266,-0.4422570466995239,-0.8159558773040771,1.5166852550572179,-0.21953992654881282,-0.01771081426368466,24.55982008469265,175.4608198769253,-2.4999721390790044,17.19675647536347,-0.2985574909299612,0.6745286428928375,-1.326107493042946,11307.43450136895,0.0954427292989567,0.6652375110983848,-1.3789568430185317,11397.539366789888,0.06034213199658552,-0.8172872489690781,1.1819129383563995,11989.016383244272,0.3534100092947483,-1.0295643106102943,1.5195634490251542,11653.626859632506,0.514220334822577,-0.2769176476638741,0.4779341048990097,11.055397978345209,-0.730591189331841,-0.2980845099445812,0.39044835869444483,11.576789988756284,-0.20180455000585973,-0.23635145286906625,0.22568222988883732,10.916698361652832,0.2018164675431567,0.11269623119904443,0.01587483006288739,10.359826582029939,-5.004495779573918,-8.048151330947876,26.571002711057663,-6.139821105636656,-0.09826920166611672,3.2056958390958608,10.526559154260903,-1.0479728754376993,-13.401182542145252,-5.455902084745467,-7.690840064510703,0.5113390425592661,1.9723715694248676,46.526630315780636,-32.21042585849762,17.05687131166458,32.0
1.3603763580322266,-0.4422570466995239,-0.8159558773040771,1.384119378019607,0.156639493597559,-0.010594983506040075,24.577195971539346,174.6817124768954,-2.494255788685051,10.78341719410018,-0.19161170247942208,0.6200623759627342,-1.2626905673742295,11312.972909730275,-0.10863831958617083,0.5820727396011353,-1.1518651300668716,11403.383093515284,-0.011149044541743933,-0.8943260455131531,1.1750218880176544,11994.508285644879,0.3150084753334522,-1.0188357955217362,1.519478239417076,11659.230072944665,0.159848136215704,0.061777888172746404,0.10184800968221344,9.407038094139809,0.2926652490112207,0.022852065214733618,-0.26822357497127225,10.259724578463949,-0.2006625133578722,-0.1116747562320128,0.17672551329565875,10.022364960067332,-0.21466002976759824,0.008086592788579905,-0.061353624644894106,10.129058005701973,-7.202483889982104,0.4269412785768509,18.224496376179157,-3.1818208658645744,20.55307416126132,-6.433386489525438,24.505466241762043,-6.123153819143772,-17.225248441696166,5.581451081074774,-18.17196791216731,1.912332551078871,-7.939603170529008,13.28708811327815,-28.143620882034302,5.668782628243789,32.5
1.3594446182250977,-0.03660547733306885,0.021579504013061523,1.6431418012500998,0.028277031829049545,-0.008456438128442975,24.64650946144594,173.9017981632557,-2.47795557732336,14.195080704182242,-0.16108212821185589,0.5257122495770454,-1.214026581645012,11318.51544783865,0.13343296285718678,0.5697609889507294,-1.3379051250219345,11408.980513464012,-0.08010411933064461,-0.9322593513131142,1.2743787807226181,12000.046935141916,0.2587011936306953,-1.0186363714933395,1.482487848997116,11664.883746547343,0.02419778549368962,-0.15704393130097083,0.0328600202612571,11.866541638388162,0.1396718944695105,-0.12485115183188883,-0.07341835289933259,11.603805327880643,0.04110608394344168,0.08714074463057338,-0.015062306441255287,11.445994605550284,-0.12266500378517918,0.015826481843611,0.02751093400135316,11.65890478327487,-12.353448257446288,-3.3143432510271666,21.53659839630127,-5.21795159816742,12.990652492046356,11.606105527877808,22.748831729888916,-0.3725234103947878,-14.875944309234619,10.601991186141968,-10.872946361675858,4.462433047890663,0.5438819964975119,37.35758969306946,-31.16450234413147,12.964372911453246,33.0
1.3594446182250977,-0.03660547733306885,0.021579504013061523,1.643223221750072,-0.09296881493854435,0.009031507377644486,24.65131701327418,173.05054076117608,-2.4847360550806257,10.824846309869393,-0.11126993615180254,0.6123327907919883,-1.2694600963592528,11324.621344314324,0.2874441589415073,0.571813525557518,-1.4394876128435135,11415.070135193733,-0.0953551247343421,-0.8035161757469177,1.2870499467849732,12006.20060459174,0.15858833163976668,-0.9772360289096832,1.4991303431987761,11670.89647448655,-0.31034242259664535,0.3927769330669861,-0.49762348021723923,11.227734182469478,0.4705642006572355,0.11856241317844918,-0.2081398619788309,11.11174744632082,-0.00971091890003092,0.40738915686606225,0.007203541027796232,11.609857876779515,-0.18094076808251175,0.1003557371578463,-0.03216566712441422,11.026153151943205,-9.201097754091025,-4.358268080875278,7.806657609343529,-3.882156886085868,15.646054605618119,1.9862169735133648,41.451871700286866,-7.238247226178646,-9.604921894073486,19.970457713603974,-30.30473431110382,9.290411083698272,1.3521769524365663,2.8071554668433962,-19.098300563097,3.0138993427623064,33.5
1.5529825687408447,-0.24370896816253662,-0.5256737470626831,1.7095060957298727,-0.08722018964297487,0.06328438553131492,24.540382291703366,172.15024719998638,-2.464081243551986,14.211359982527998,-0.26646002046763895,0.5970749542117119,-1.326045413017273,11330.664170012686,0.3479099671542645,0.5033423726260662,-1.3684931832551956,11421.190600526485,0.0035615917044924572,-0.7173245510458947,1.1758447271585464,12012.581129486845,0.17728096593171358,-0.991950985789299,1.4374054706096648,11677.318218318016,0.0665882949446436,-0.3471548690160653,0.39742158901637226,12.145551136147054,-0.24883935825328138,-0.29796015481951804,0.28447798156903825,12.512807380802885,0.24127785691023174,-0.1746496574146871,-0.34356328540429815,13.19196396029684,0.16088272168876444,-0.12525233555854223,-0.11942102747563052,13.674717992714688,7.99501822128892,3.6147873957455157,19.84468992471695,-3.1207267031885566,-22.152491431236268,1.886975596100092,21.457454787064343,-3.465215914170258,-16.050549628213048,2.5945298802107573,-13.390819971561433,3.7101854515611192,8.670190304405986,32.77710325241089,-33.80750418663025,10.848897845745087,34.0
1.5529825687408447,-0.24370896816253662,-0.5256737470626831,1.8111504637785265,0.0029921509471534224,0.017210229712060807,24.477018099373645,171.22015476695765,-2.452893777674369,13.338141335022712,-0.28226877108216286,0.5318354693055153,-1.3497330737113953,11337.124004974607,0.2752442191541195,0.49883019462227823,-1.4259205102920531,11427.543304625824,0.04347062001004815,-0.7855745935440064,1.1110666233301163,12019.244971225851,0.19384172692894935,-0.9904726076126099,1.4363220989704133,11684.064616273987,0.01758227858955877,-0.06746138594323008,-0.19791793478184,12.731084074466382,-0.016076808600416617,0.09277203808886172,-0.29941589918935024,12.113915950227032,0.006233911959965938,-0.019949879722167364,0.01865129677179034,12.375929000777276,-0.06795451780396862,0.06701592485765642,0.10324818561716892,12.39063090833812,1.4270387471839785,-11.218257031440736,29.94752902030945,-9.773445999622345,-5.301535522937774,5.2876077622175215,9.935914237499237,-0.8348874280392192,-18.999366674423218,6.5409416331350805,-4.43859678549692,3.679875331223011,11.95151887178421,41.496100959777834,-33.00680889129639,15.04008714199066,34.5
1.7584843635559082,0.05009669065475464,-0.16423511505126953,1.8143298801435308,0.08633978820115182,0.04122459564448573,24.47534079789,170.28398092888563,-2.4546426394853893,15.035557049938575,-0.29420961424708364,0.4964974634349346,-1.423501012325287,11343.914523099862,0.23714073359966278,0.5344083622097969,-1.5145844793319703,11434.04221883813,0.032049653362482784,-0.7817638504505158,1.1687301671504975,12025.757539144235,0.1286251310259104,-0.9045785468816757,1.4483058446645736,11690.694708600575,-0.15852588458352282,-0.04169070596691468,-0.1862773105952326,13.122244233881824,-0.19362498169086842,0.09411329794327263,-0.06328640450543616,12.576974288513366,-0.0268636383582362,-0.00713047775999119,0.17613376039101886,12.393647693278803,-0.1328844161167605,0.2556211195748426,-0.0628531008450795,13.019432846736084,-8.568339151144027,-11.630867462158204,31.661759634017944,-11.821958963871003,3.1973910946026445,6.913266298770904,15.162902407646179,-1.3666722371149809,-17.967631006240843,0.446092351898551,-9.619379863739013,2.175368258059025,12.595959353446961,35.51836870193481,-34.120701246261596,16.568880891799928,35.0
1.7584843635559082,0.05009669065475464,-0.16423511505126953,1.6162540790316737,-0.017541422450337553,0.06216355400905051,24.49684116313735,169.3285339058196,-2.446100063774213,11.112330661148826,-0.2898801925033331,0.5312874288856984,-1.4513809978961945,11350.400030893074,0.182443171069026,0.5346345025300979,-1.4911542427539826,11440.459148003492,-0.008451275654078928,-0.7631854245066643,1.2617860007286072,12032.160482501928,0.0366282265058544,-0.8234930416941643,1.4072424960136414,11697.332857760524,0.3084502795525994,0.1946010193460687,0.13781428635725557,11.343027659170533,0.07632788595354288,-0.06807964137454178,0.14052577524508764,11.568581473802194,-0.10469833985590997,0.07215817493674606,0.17064667776797246,12.018604334969229,-0.19689569866438345,0.03613206229964255,-0.11497480200369294,11.943302548340885,7.373206340409816,-11.531833382844924,39.548159255981446,-12.583083941936493,-0.6381184822320938,10.68463358603418,14.148142547607423,0.14643639566376807,-16.613673634529114,3.157696701064706,-19.208018016815185,3.979374857991934,19.219753302633762,8.515169940013438,-35.67977940559387,6.86679566222243,35.5
1.460852861404419,-0.1602957844734192,-0.3606739640235901,1.5714210559284456,-0.21114854336879568,0.036484981182235476,24.44162758418553,168.4734955182036,-2.424237127451848,13.444437032328938,-0.08459856348636094,0.5711043000221252,-1.2671002840995789,11356.101132738062,0.20583781644701957,0.4912970285117626,-1.424102863073349,11446.42554057744,-0.021403346890583635,-0.775076650083065,1.2804685658216477,12038.556296112783,0.0037949247424967324,-0.8768100190162659,1.4087678462266922,11703.440897157929,0.46444867409472157,0.03529581288309209,0.5023629707478758,10.458336860817692,-0.05961164738847314,0.0328715473223122,-0.017965685592075578,11.041984309048438,0.004137646178264799,-0.07960309619399206,-0.07312102479852287,12.061116079839273,0.0829825492948832,-0.13938157111670532,0.10870222929235335,11.281620175170907,4.257775167003274,-18.501430766582487,38.09286909103393,-12.544831619262695,-14.413153355121613,9.448010549545288,5.464235044959932,0.8987616688059643,-16.23163893699646,-0.0030290788412094117,-12.344552254676818,2.540284917028621,30.943401794433594,19.295139972008766,-39.40260467529297,8.430964179560542,36.0
1.460852861404419,-0.1602957844734192,-0.3606739640235901,1.4455963940012548,-0.2815589938382543,0.0614433633302138,24.187633693282287,167.71795358927267,-2.407550588568911,18.793289939788398,-0.010577517238561995,0.620337533056736,-1.1922066661715507,11361.320444265946,0.18853139743208885,0.5896715793013573,-1.4965870487689972,11451.946730787131,-0.020154830307292287,-0.8436107209324837,1.2350630903244018,12044.532819000715,0.1447555391304195,-0.9444627684354782,1.5022675752639771,11708.960462201869,-0.5379829400167959,-0.05927128646175619,-0.3973321783501928,10.947285507131175,0.08839343086346885,0.03456615715349933,0.006469416066038122,11.052069849233604,0.09944763404978689,-0.060405952031203955,-0.17805712086242076,11.484195053473838,0.4114696062739815,-0.17694176439453937,0.2118582751479659,11.172523657278818,-8.283261677324772,-7.038766888666433,16.999219753742217,-3.780248708659783,-6.817556012049318,6.80263333953917,26.4548463473469,-2.094274141700007,-17.116909053325653,4.6729738175682725,-10.377502911537885,3.30112347218208,13.48318460982293,31.460822586268186,-35.21505996227265,15.385490034464747,36.5
1.6281704902648926,0.04364651441574097,0.2472388744354248,1.7326352565684326,0.24012340265611126,0.036411449799144985,23.951090431401184,166.8594284074629,-2.3730145922516646,12.990398415035287,-0.2522577542066574,0.5711782419681549,-1.3299695271253587,11367.447551580097,0.06546047504292801,0.48004000723361967,-1.2923522448539735,11458.177551781959,0.049154977658763525,-0.8236924585700035,1.0816343301534652,12050.695822671207,0.24486636489629746,-0.98792643815279,1.5025229573249816,11715.65082680388,0.08895879073200146,0.12718133093388723,0.11511332032527792,11.167447431225057,-0.6689486923235873,-0.24729977409221365,0.5984134301990727,12.302603217093479,0.04367857299824895,-0.04470849205570789,-0.2973427378571889,11.909888092512357,-0.11675357442642613,0.04017327507354903,-0.11271265729308562,13.11617222659645,8.915549531653523,7.687797266542912,4.867453686743975,0.4913681692210957,-5.890782016962767,-3.612641066685319,39.96588347434997,-9.207440023422242,-26.832900772094728,6.75067103696987,-15.396550017595292,2.4301541463285683,-7.061474366784096,22.9053303084895,-30.2639248752594,9.904636307917535,37.0
1.6281704902648926,0.04364651441574097,0.2472388744354248,1.7558483577447277,0.11302870763799808,0.01574871900017846,23.981189456447105,165.97144410132466,-2.36481542417682,15.70330949845723,-0.22284187510609627,0.5932293355464935,-1.333339851498604,11373.576188952065,0.049944618283770975,0.5394611503183842,-1.3198834872245788,11464.466680665477,0.013270492049996392,-0.8848438829183578,1.156411588191986,12056.900115477556,0.15478801384568214,-0.9252367150783539,1.429200832247734,11722.260447419074,-0.13963873879218455,-0.18014718877797115,-0.17472741478753676,12.877453868737987,0.4913371400882103,0.2949540389364853,-0.5261392737044023,12.02908398437987,-0.09977968493137414,-0.07831310034903563,0.39787169294108404,11.83061732234295,-0.1395623903484835,0.11765729969364705,-0.16089234487117055,12.729130338211707,-16.828766026496886,-15.383675338146277,30.64381073951721,-10.496066669374704,13.211080427765847,8.487220074385405,10.543725278750061,0.2215138993645087,-13.26727236866951,11.462826121086255,-1.6451214301493018,4.636428423915058,9.723564742654561,34.4155401134491,-36.17607178688049,13.869673161506652,37.5
1.672182321548462,-0.013802170753479004,-0.08560645580291748,1.6354359747208331,0.07203216228584969,0.030449074604085725,24.021051801818547,165.086280259458,-2.3611582110538563,11.38476483166323,-0.2500024437904358,0.5499401569366456,-1.4179544746875763,11380.186583177061,0.15789923757314683,0.5872412976622582,-1.4395070284605027,11470.7257468774,-0.03331518740742467,-0.8586257570981979,1.3020184791088105,12062.953948467388,0.06104237023741007,-0.8666245079040528,1.3694655805826188,11728.73757042123,-0.013486921372494198,0.127012436195094,-0.1481584033320936,11.459008714796589,0.03431952274279949,0.023214874502343455,0.011677049541858333,11.163108478682195,-0.11711776415328144,0.17880224427081884,0.2071323976415696,10.762773132763359,-0.1950256257603408,0.24252126784946718,-0.2006362587377096,11.299832753559762,-14.313022033460438,-14.669363714102655,33.93522844314575,-13.37865728020668,14.868781051635743,8.180831906795502,18.269689044952393,-1.390064414248336,-14.03153949856758,4.358405979089439,-15.581682523488999,3.8113605397939683,14.909690573215485,15.380107245072722,-34.36482744216919,7.7520630066841845,38.0
1.672182321548462,-0.013802170753479004,-0.08560645580291748,1.5414911652941057,0.07201884074567177,0.061601631676154706,24.105265092779817,164.25873824289934,-2.3430653323961135,14.577267289225205,-0.3357278841733933,0.6081752228736877,-1.415494589805603,11385.645096066522,0.18588144559413194,0.556733894944191,-1.3479192578792571,11476.444048219819,-0.06111523442901671,-0.8502986377477646,1.3070260882377625,12068.710010937779,0.013520003726243885,-0.8332212352752686,1.2437154644727706,11734.901233877616,-0.2312521587701074,0.05509104010231814,0.10054515167998047,10.496303292781509,0.25532155661772693,-0.1466142609084703,0.12156032381288127,11.554873150365047,-0.05078033201544452,-0.15164103360563871,-0.07705057290139891,12.000095214924565,-0.06539584432952715,-0.16596644087135404,-0.2185749733615513,12.90725568396354,-5.52975334212184,1.7308320094645024,32.646752519607546,-4.841600261428393,4.628850522488356,13.551655986011028,18.559553759768605,1.095647478652245,-19.80652171611786,13.062037407048047,-19.141797172166406,6.661844063745812,23.581483087539674,15.385120438337326,-31.025785694122316,6.4705331885814665,38.5
1.5822410583496094,0.023449420928955078,-0.17083799839019775,1.7325427951636616,-0.12747552750710767,0.033801016593836344,24.190646634946553,163.3838846443686,-2.3116167915236243,11.191140414760453,-0.3354144962131977,0.6980342626571655,-1.4015157151222228,11391.410144610216,0.3048241613805294,0.5192521515488625,-1.3581891453266144,11482.66426910781,-0.06722742864862084,-0.8037311750650405,1.252606202363968,12075.088069614216,-0.0174839060427621,-0.8688517758250236,1.2103385585546493,11741.391139321471,0.21263397321524655,0.1352630570187513,0.07415424938301876,11.676885518843449,0.10152945257613999,0.017840857672369762,-0.05774906079678338,11.98457088194011,0.07738024427790839,0.2443006914931092,-0.1435882650688547,12.372551782283072,-0.00329491955263629,-0.0031332639186417003,0.1049670046718684,11.984473422228438,7.531980366315692,-11.919714415073395,25.684766092300414,-7.218083639144897,-5.577742952853441,9.28343219101429,17.40989065647125,-0.6070372372539714,-14.986379108428956,24.05128640174866,-18.224733777046204,10.05400461435318,23.423985495567322,13.126545779705047,-24.674156675338747,4.138521406650543,39.0
1.5822410583496094,0.023449420928955078,-0.17083799839019775,1.794946876209125,-0.09017437040064413,0.025706038079422358,24.17867939561386,162.46682422865598,-2.3049258885724497,12.052829570066331,-0.19241812147200107,0.7073318633437157,-1.3326714903116226,11397.873009848938,0.26620751224458217,0.5313892969489098,-1.3792560946941377,11489.129987985214,-0.05220771918073296,-0.7612307968735695,1.22753903567791,12081.901998578278,-0.02376843370962888,-0.8709691500663758,1.2418538343906402,11747.823675659043,0.2101611632464165,-0.08026703145855121,0.11441141165348055,13.06794730610312,-0.1728787204748135,0.014806211869888453,-0.005008194390964517,12.700923571389415,-0.01096487756297963,-0.05695886056602339,0.04060791099712557,13.51435905265848,-0.03769748568501006,0.022122139533172495,0.011427877222716747,12.645179868032722,-1.116102375984192,-21.182153759002684,31.652753267288208,-10.064100787639617,-4.917404380254448,9.482176883220673,7.992131831627339,0.9354545044340193,-16.723194994926452,8.677200893461704,-12.32545443058014,5.103669530153274,28.09573766708374,29.765988655090332,-27.422207365036012,9.590368936061859,39.5
1.7509851455688477,-0.058713436126708984,-0.11866629123687744,1.7957629331128997,0.050851982280852456,0.03828224569826148,24.146576770783785,161.49044429647182,-2.2963015192189205,10.842462821320975,-0.2091422278434038,0.6672005289793015,-1.3590903580188751,11404.801417230081,0.22301852241158485,0.5690167650580407,-1.4106425362825394,11495.779142013595,-0.05265640877187252,-0.7791136574745178,1.2341708701848983,12088.833620360734,-0.045778661817312244,-0.812984673678875,1.2325442498922348,11754.591219995194,-0.15389281138360641,0.048351749407611735,-0.20713046172696545,12.788344169763533,-0.09690881358887832,0.08463855057862377,-0.08228973443401667,12.497481218961461,0.030703727924108005,0.05401396056779603,-0.04273722219680958,12.643783338315018,-0.01687202557201446,0.1474825437463205,0.006851107809785691,12.809371255355638,-18.643378150463104,-23.304694595336915,28.792676219940187,-12.19280430316925,11.66774779278785,9.718523448705673,16.551211819648742,-0.6096706601209008,-16.078865156173705,5.53888268862851,-11.643075752258301,3.82855721719563,22.70365622520447,24.586063704490662,-30.27502820968628,9.137314636707305,40.0
1.7509851455688477,-0.058713436126708984,-0.11866629123687744,1.5666152093078929,-0.19971481005256556,0.059286946801708325,24.07947293461477,160.57280406907464,-2.285251039585603,11.082389618927603,-0.10888243883804534,0.7420731744170189,-1.3062424451112746,11410.82201005655,0.18578700964542805,0.5848183277249336,-1.4353712683916091,11502.014744704808,-0.03328223080949101,-0.726212411224842,1.2140487515926361,12095.197048920123,-0.014630941361901932,-0.7934372037649154,1.2798449063301087,11760.802751492452,0.5529879940120914,0.1224918674461023,0.5033650601251569,10.503919135882395,-0.415070320071589,0.11167328192462868,0.3175766288687968,11.304311627920494,-0.08428965400572683,-0.19271320983195653,0.10351662486828786,12.099227692698348,0.15729803577085122,-0.08208388120507967,0.037426305299704136,11.232397272343341,-7.991943454314023,-24.069585971832275,33.3092053604126,-9.224788932800292,-1.4337902914732694,9.673345179110765,12.889978443682194,-0.3806715374067426,-12.895542020797729,2.8122996581252666,-12.902274126335978,3.698729337172117,29.334194250106812,8.018809818848968,-36.448924179077146,5.053362739216536,40.5
1.4195318222045898,-0.1150672435760498,-0.5194659233093262,1.6423409166979346,-0.07698198147411923,0.08658047172483713,23.866709002480807,159.75150755745923,-2.26892974623834,16.61202396757505,-0.19079294140217826,0.7354025140404701,-1.3450860702991485,11416.515176532044,0.08307908350650905,0.6040712237358093,-1.2851454091072083,11507.990085154213,-0.008157781850022729,-0.7898557153344155,1.1725591266155242,12101.564315215915,0.13298990622162818,-0.9069537034630776,1.3268109679222106,11766.74331967211,-0.7718039872623834,-0.21185171925419308,-0.400896360794382,11.878186765655068,0.1552223811737536,-0.2264677811046747,0.1068273731796689,12.408047901972411,0.24340433929399655,0.057665086120844,-0.3171626725282537,12.495790300753688,0.30082805095474374,-0.24148820557743908,0.09344605481820017,12.69473033168489,-11.271546833664178,1.3143413710594176,12.442528853565454,-2.3110795651283116,9.071824413053692,3.8376101359724997,33.67795497894287,-3.020529054692015,-25.252959191799164,10.512401330769062,-20.125381207317115,5.947795729935169,12.98424454048276,23.034611847698688,-24.34687644422054,9.058839903585612,41.0
1.4195318222045898,-0.1150672435760498,-0.5194659233093262,1.6345145766186855,0.11454997488387436,0.06900958037139758,23.74319308425442,158.8341778779159,-2.2514692376867815,10.640606894629865,-0.28937541671213696,0.635784601867199,-1.4128397279977798,11422.722039038954,0.16097654692828656,0.5961249640583992,-1.3369407522678376,11514.328454942734,-0.08424658668518532,-0.8514402520656585,1.212500267624855,12107.769282372712,0.22387779109179973,-0.9810355097055435,1.3374096959829331,11773.824817435197,0.732670625652148,0.002131792069803168,0.2888082328155936,11.035952620690386,-0.013926774151362406,0.16180587055722406,-0.22090694193322752,10.933835399798582,-0.24800426972494896,-0.006110590298506486,0.026814606214029556,10.662143114234897,0.046579654267082715,-0.12743316660974366,0.1325481159775537,12.420522109902501,-1.0545601430535316,-1.6736252453178166,12.592484234869481,-4.640494173689513,0.8654838439077139,-11.483612763881684,29.405925079211592,-8.550895783966407,-8.013008185699583,-2.934803930670023,-15.414471427351236,1.18850764072733,-13.943249325454236,22.947761592166497,-25.98944095134735,6.950175356082618,41.5
1.4281139373779297,0.3526604175567627,0.6332252025604248,1.6741604950054998,0.0670814719450442,0.012599325971120193,23.876803719855708,158.0459199574298,-2.2399134868054342,14.105141985731844,-0.046412387745513116,0.6696720361709595,-1.1758998477458953,11428.635740762249,0.09485538242384792,0.5445835682749748,-1.2999513179063797,11520.218065774889,-0.09651112291961908,-0.8972078913450241,1.1877903604507447,12113.717783004455,0.1710391016304493,-0.9928743666410447,1.3779863685369491,11779.76246102767,-0.33089147089856225,0.17000123220225397,-0.32677321674798493,11.980496782765039,0.1816661049738304,-0.09922800336242243,-0.07475618551948075,11.741571679050628,-0.06407972939291826,-0.1424062143364133,0.2430160678343185,12.33861020831157,-0.19173603633022068,0.10558826318642685,-0.010302549665640379,11.169631244624204,-14.197495868206024,-5.146925056278706,6.568383978456259,-2.1867926969006657,26.51108902454376,14.398718359470367,35.273377122879026,-1.528499269876629,-24.07884642124176,30.364689025878906,-16.28737519070506,9.262091081142426,4.369002021308988,19.339691153541207,-23.482490088939667,6.436597867701202,42.0
1.4281139373779297,0.3526604175567627,0.6332252025604248,1.7956941871524716,-0.03553992374904253,0.04866202343507205,23.95845801225458,157.136424945255,-2.2383928185123128,13.002626116304096,-0.29227380096912386,0.6526503601670265,-1.4191027992963792,11435.01880484308,0.18494751408696175,0.5107956020534039,-1.365558363199234,11526.589628902178,-0.11598584845662117,-0.8688680732250214,1.2890764844417573,12120.181218370208,0.08290890755131841,-0.9186755937337875,1.330123764872551,11785.900527969787,-0.35400749954704613,-0.3056236230214619,-0.012040219791825542,12.91774014703786,0.06417714132958689,-0.0878344728804958,-0.016272077594862648,12.831108054736116,0.01737800540026146,0.03917212040613577,0.1202188612129282,12.652038711588487,-0.1335544330281382,0.14356267674932988,-0.21061289929957705,12.935543496104126,-4.599859493281692,-6.605991078093648,17.262710390537976,-6.006042489180109,8.341369234919547,14.935502772331239,32.495265643596646,-0.9455580511968583,-18.513711510896684,13.920420024301857,-23.592579238414764,6.263706482294947,10.638369348049164,20.348698979467155,-23.848497648239135,8.003766935169697,42.5
1.7973051071166992,0.27702462673187256,0.06297087669372559,1.8566644532779848,0.1753848536611143,0.0693877330249571,24.113559338039686,156.1551271094331,-2.223338509496341,12.503813133512676,-0.39857076331973074,0.5815806674957276,-1.4233806920051575,11441.85769941937,0.2535670307278633,0.5544548553228378,-1.4036415964365005,11533.33555413291,-0.15563853405416012,-0.8835336488485336,1.326742537021637,12126.935579221938,-0.021481963485639424,-0.872981299161911,1.1800598168373109,11793.129516817175,-0.16448511344853242,0.11712485261409093,-0.1389301729971332,12.611416839038588,0.08759345667684534,0.007550887350610412,0.012090892874905633,12.768709427399905,-0.22172639466926777,0.046668006853379726,0.09114758343177438,12.84394419824259,-0.26539148290266795,0.052864611343606496,-0.33073763560232394,13.682885637467107,-0.6390601335279643,-12.401848883628846,31.160225858688353,-10.282487127780914,9.057107720375061,9.452681794166566,14.19143099308014,0.14248228847121935,-15.280227882862091,12.864992300271988,-19.616284086704255,6.348573386264033,16.62828013420105,22.66374431207776,-22.738495817184447,7.445730829751119,43.0
