junja94/rosbag_plot/data/0421_mission3/motion.csv
command_linear_x,command_linear_y,command_angular_z,linear_x,linear_y,linear_z,base_x,base_y,base_z,cot,joint_position0,joint_position1,joint_position2,joint_position3,joint_position4,joint_position5,joint_position6,joint_position7,joint_position8,joint_position9,joint_position10,joint_position11,joint_position12,joint_position13,joint_position14,joint_position15,joint_velocity0,joint_velocity1,joint_velocity2,joint_velocity3,joint_velocity4,joint_velocity5,joint_velocity6,joint_velocity7,joint_velocity8,joint_velocity9,joint_velocity10,joint_velocity11,joint_velocity12,joint_velocity13,joint_velocity14,joint_velocity15,joint_torque0,joint_torque1,joint_torque2,joint_torque3,joint_torque4,joint_torque5,joint_torque6,joint_torque7,joint_torque8,joint_torque9,joint_torque10,joint_torque11,joint_torque12,joint_torque13,joint_torque14,joint_torque15,time
0.0,-0.0,0.0,-0.06660045620099819,-0.08818195730832827,0.015895157030241074,15.211299822722482,170.3343355487224,-2.396052915029697,26.80864889020512,-0.15331958677619695,0.6950126791000366,-1.3469989913702012,5456.240748608261,0.2642906357347965,0.7395697915554047,-1.5985127675533295,5396.381008022965,-0.0356560661457479,-0.7082876062393189,1.1977585977315903,5621.86155514635,0.29486526906490323,-0.6733549073338508,1.5160700422525406,5429.476821786945,0.20664423376911636,-0.08977401803708711,0.14215441946402418,-0.11014744723782847,0.28414656475766065,-0.04264542955352895,-0.08320324122575176,-0.35943198447796904,0.056864383446855044,0.08580734621216381,-0.10538127663948633,-0.2609773846556171,0.048881242164458966,0.002916412371862448,-0.0849815838916238,-0.7037611457954717,-3.24173714697361,-10.580286143124104,15.433963251113891,-7.169905487187207,-0.8081301212310791,-2.8962286472320558,34.33194641113281,-6.771968505382538,-1.6848493180796504,5.496324657201767,-11.745608639270067,3.976705709155649,-10.710807769484818,8.646726408600808,-36.572100982666015,8.430404370650649,0.0
0.0,-0.0,0.0,0.2630588655635272,0.11682902514147803,0.04389486644854915,15.177990256113814,170.36101797120492,-2.3850098683234147,32.42109439715501,-0.12403013985604047,0.646939996778965,-1.3235039174556733,5456.661843516915,0.31812341675162314,0.7264228534698486,-1.5827275043725968,5396.522200045099,-0.1573339424561709,-0.7606922277808189,1.2940073835849761,5622.505681032626,0.3314314185082912,-0.7445117247104645,1.4718428617715835,5429.904153312457,-0.2931903168179453,0.1129942102245221,-0.24212388265885132,1.5661941565593163,-0.28122982652372186,0.05658862871673889,0.15002894636144093,1.2639480366222826,-0.42289536601591754,-0.14088390525926495,0.2959193796243617,2.241916123280286,-0.0514013027198277,-0.04756384128774807,-0.09186341933908748,2.202551263097802,-4.396127832680941,9.879758948720992,13.542242505848408,0.6302214768598787,-14.798518151044846,-7.032365934699774,37.1710723400116,-6.44678245242685,-2.5154278719425203,-4.486282991170883,-10.171774014346301,1.664393960046582,-17.111971510350703,23.39393691062927,-38.20431113243103,16.60852684020996,0.5
0.18967735767364502,0.30498242378234863,0.12205672264099121,0.08993592583205817,0.10113784500974368,-0.02624049268797264,15.069670506145878,170.31032426982335,-2.390886576953974,10.067368301463883,-0.3154058732092381,0.7962534952163697,-1.4874211579561234,5457.167226447298,0.1348695123568177,0.7155164900422096,-1.5088413977622985,5397.230346113979,-0.3050787065923214,-0.7384076786041259,1.3840531408786774,5623.024738261365,0.21701322734355927,-0.6349113112688065,1.4273368060588836,5430.459648792358,-0.24581403232481583,0.20622427040749208,-0.2097010110513904,0.4750849362900699,-0.2542589359279119,-0.16738987648572087,0.09878519567433709,1.2665174841216724,-0.17845025886391844,0.0687399276251926,0.16786932132058374,0.1778965734101445,-0.16757973420373312,0.19677665194628025,-0.003821428004024748,0.22287588236743094,-2.356944752037525,-16.318826813697815,19.743278865814208,-8.325732147693634,10.320037848949433,-1.6810115645080805,30.58012462615967,-4.804589124917984,7.242317304611206,7.405580832958221,-25.83418830871582,6.478437767028809,-10.443146123886109,4.288230923675001,-21.049973583221437,6.092783448696136,1.0
0.18967735767364502,0.30498242378234863,0.12205672264099121,-0.017216488951294358,0.003866056063253388,-0.0025168703258936914,15.038239958645953,170.28334620689336,-2.3906244682894875,29.97138479600425,-0.38294621095061304,0.8082589346170426,-1.5394992077350615,5457.318065991447,0.06838067088276148,0.5871305659413337,-1.4721600860357285,5397.7355403377605,-0.3397278587520123,-0.7299230867624282,1.4028851503133775,5623.044160186489,0.18222266130149364,-0.5965571179986,1.4229668742418289,5430.474695273222,-0.08991918585805056,-0.07939850205658683,-0.03932135329431502,0.12663854978315942,-0.08955436906550202,-0.2622405216875635,0.07576805803511824,0.656309951005555,-0.011982970918517265,-0.04337504350382718,-0.038697828984988566,0.020847047732618047,-0.0233013007495664,0.0025651040275264485,-0.02002125349617726,-0.07979494873594238,-0.5932702521234751,-16.526194200515747,20.354851207733155,-8.714688663482667,8.482757720947266,7.039967982769013,31.7084232711792,-3.4987154984474182,7.995927860736847,5.474229748249054,-24.124331045150758,6.182933490276337,-13.082338404655456,6.633580892086029,-25.590902099609377,7.336552348136902,1.5
-0.021872282028198242,0.09174466133117676,0.11197817325592041,0.013538223722891408,-0.011116533704523163,0.006905342030296244,15.051000876110624,170.28365029184155,-2.390773519622246,57.657665005530305,-0.42366561010479925,0.7565948188304901,-1.545867150425911,5457.3684981152965,0.027079075961373746,0.48575192749500273,-1.4360324376821518,5397.938536043247,-0.34266351342201234,-0.759912291765213,1.373161758184433,5623.081499544631,0.1709405916929245,-0.6026098692417144,1.4078195345401765,5430.435515920855,-0.012694718897205047,-0.12045458680138411,0.014262150117131205,0.36483986772509136,-0.014294667057841366,-0.09846609076591013,-0.0046224882873628186,0.31630810410852117,0.011054400896336273,-0.04935719967764931,-0.06273552854554222,0.310765192668735,-0.01407712679946403,-0.06731506239197732,0.005086833247540928,0.20487848522007987,3.144291251003742,-14.06257931182161,21.518524837493896,-8.225667697042226,8.98182250738144,12.861652631759643,29.769305515289307,-1.4104739665985107,10.470959005355835,12.201189274787902,-23.76413055419922,8.257320930957794,-14.319436540603638,7.305668606758117,-24.81731966972351,7.912574200630188,2.0
-0.021872282028198242,0.09174466133117676,0.11197817325592041,0.7838444444940411,-0.3846462595814088,0.09129445173869737,14.90990809444771,170.43219739303294,-2.3951552121838247,36.13893931585671,-0.061776763558737,0.6994815990328789,-1.329706836938858,5458.664365040739,0.03025261817034334,0.5777070079743862,-1.5593267476558685,5399.518284732102,-0.29658980064094065,-0.8629756715893745,1.389070097208023,5624.925620607534,0.15776609346270562,-0.8583872702717781,1.4641613322496414,5431.994080758224,1.1178101096328978,0.011762912504909599,0.664572747564237,5.5412246919972095,-0.15068785802956253,0.3736953456340948,-0.0988507565314119,6.78972735591665,0.2114774542608205,-0.3324042492246139,-0.014763523306275526,8.110382638782008,0.058561570306513405,-0.8029209995214737,0.20094369598158665,6.315645186537782,-0.9600790506601333,1.4921033205464482,35.704073444902896,-1.8233033940778114,3.4212371292710304,9.424437543526292,10.932388441115618,1.081269920412451,5.111950718909502,17.703810613676907,-17.581285461634398,11.130072310715914,3.770695744715631,21.757538069561125,-27.87768350198865,13.522057698313146,2.5
1.0185763835906982,-0.5051100254058838,-1.1394524574279785,1.1474200770740068,-0.3635137863755521,0.12492402724753075,14.661538898951356,171.0085510562825,-2.3984340477712407,19.80976104517468,-0.05096831066548475,0.846258037686348,-1.4043708366155625,5462.149283091429,0.06903249295195564,0.7195089155435562,-1.555055211186409,5403.299966683544,-0.12826069155707956,-0.90962906062603,1.3402571487426758,5629.592023677044,0.21621579691767692,-0.9747423562407493,1.465404697060585,5435.720527083764,-0.3967679991321342,0.4920663018900292,-0.5711445486150165,6.151401889544693,0.17519193815350045,0.2577183069470232,0.15309542744070906,5.929881359063813,0.3508963593199869,0.09357875099890782,-0.2398993257208896,7.8350958297673445,0.024326453638697187,0.18125242757080304,-0.12129147745948683,6.682156766411995,-2.1489859618246556,-20.833971224501727,24.01552855402231,-6.570296778311022,12.488282905817032,4.749250930696726,25.703735631108284,-2.632226494906936,-10.479484359174966,5.066123382970691,-23.185436766296625,4.065441631844005,8.63063167527318,-6.050976896993816,-28.459449601620435,0.898729133438319,3.0
1.0185763835906982,-0.5051100254058838,-1.1394524574279785,1.3951877539383009,-0.2762937676818494,0.062130241612987185,14.558501506750058,171.53506876551316,-2.3838497270933416,21.691331886099118,-0.04044376416044543,0.7876218587160111,-1.3257035058736801,5466.28838117141,0.055656779228593224,0.7285863664746285,-1.3537722390890121,5407.25179631029,-0.0008638229207645054,-0.8775655049085617,1.2303507834672929,5634.481953386101,0.2253043933957815,-0.9498427295684815,1.4122031265497208,5439.622345543798,-0.2201410943874678,-0.35411098514702355,-0.037300343395147935,10.406364519136002,0.14171783081039221,-0.19506944291295236,0.17540026310663642,10.282977629968945,0.08355415824748663,0.12403359086348616,-0.053269247522792294,11.468383071128446,0.015217256710161643,-0.03348765408838238,-0.07480789819359734,9.152363591699835,-9.000746463537217,-7.926275902166963,22.433618339300157,-3.9155307124741374,10.55188107252121,4.9341253677010535,16.963385154213757,-0.3392322411417263,-20.150075724124907,8.228146060742437,-17.915444269850852,4.662825046642683,15.041887845396996,31.88376905068755,-21.906993706971406,12.801992851868272,3.5
1.4272167682647705,-0.13389277458190918,-0.8793651461601257,1.7229285473890186,0.046646184666105324,0.0623847255919918,14.632915632399593,172.37596946906865,-2.375988594862475,11.235308205954189,-0.2905626949388534,0.625132063627243,-1.399967588186264,5472.150533342991,0.1122752930864226,0.574271728694439,-1.248485666513443,5413.181242065624,0.019803692447267165,-0.8262194514274597,1.173831246495247,5640.613154093897,0.20494846798479557,-0.977317641377449,1.3876431381702423,5445.300478369027,0.23650189552173984,-0.377612919703728,0.29466662882508904,10.991685294729718,-0.35173945448089006,-0.27271824093580055,0.36338665458179165,11.603441442870363,0.05824617741135813,0.06029343498894328,-0.21026496774205397,11.114028915173982,-0.09812706459540839,0.018270648416814632,-0.09188971412525092,11.759559169727316,12.455247590094805,8.764910865724087,4.368560607321561,-0.6990730422677006,-13.654201066493988,-8.311227332390844,40.06757403373718,-8.86231569468975,-22.118112521171568,0.40696050733327865,-28.220072960853578,1.361088526211679,-1.0331291990168392,18.113320734798908,-20.692115780375897,6.933700151368976,4.0
1.4272167682647705,-0.13389277458190918,-0.8793651461601257,1.7337246898965029,0.1796834330683017,0.0724083709662806,14.492335277446662,173.19101949427943,-2.4007336609573606,16.711359230260978,-0.043042183718062,0.6476591691374779,-1.1859312498569488,5477.796402530051,0.10361237546097982,0.5044436043500901,-1.2664676380157471,5419.166460774564,-0.08138223677000496,-0.8811244612932205,1.21848279774189,5646.630282574937,0.1256289555132389,-0.9937828886508941,1.3319754445552825,5451.558364954964,-0.1527010257135207,0.01681074891295943,0.22481773753219797,12.07351175114883,0.7410853283092069,-0.2099452792424459,-0.3794725116933323,12.161650644016364,-0.3351482105486951,-0.15656610544923258,0.3779446466715375,12.735809877789181,-0.1503338192420753,-0.08808710784675806,-0.19285452686638582,12.852018294135394,-17.825774834007024,-2.272421866841614,23.505435299277305,-2.207324830791913,6.4358217009902,3.796157681569457,15.130902519412338,-1.6401371693378315,-11.623349681124092,12.633795017972588,-4.902824017517268,6.023043742384761,8.219294577166439,38.27335289716721,-31.425187482833863,10.862973584383726,4.5
1.7928190231323242,0.12241995334625244,0.06301629543304443,2.0300334867131373,0.11315363638143698,0.08174521397609442,14.27576063791861,174.08114001952632,-2.4151383359631597,9.79240419832209,-0.13817260388284922,0.6067528182268143,-1.3021584594249724,5484.607004965403,0.31430368438363077,0.4732287709414959,-1.3961574470996856,5425.638514530118,-0.15920444019138813,-0.8768276342749596,1.3099290305376052,5653.409125145857,0.037794411404511265,-0.9839546296000481,1.2456621807813644,5458.414233858206,-0.14970456610312588,-0.0025370447153529926,-0.2711559277471546,13.475184099497282,-0.08598285530354571,0.116104247664922,-0.21959136410309024,12.716842433047248,-0.07413671803532015,0.030361438372507585,0.08027526965544991,12.981732592396902,-0.21335352637734506,0.12163793291462527,-0.13886690420060627,13.248280281903735,-14.307036550045014,-14.235685977935791,26.55646110534668,-9.134157829284668,1.9506873933598399,9.271450088024139,15.160663332939148,-0.42772919014969374,-8.728205404281617,9.500730111598969,-11.875379269123078,4.950850481987,13.767463083267211,37.63284370422363,-25.502304430007936,9.216527745723724,5.0
1.7928190231323242,0.12241995334625244,0.06301629543304443,2.0026142511146126,0.06589822904012406,0.12019228529111967,14.052515410568665,175.03926032402654,-2.4534084895571358,10.895920901143949,-0.22562904618680477,0.6090974101424217,-1.4220167696475983,5491.689693580323,0.24101691082119941,0.5112929496169091,-1.4602204376459123,5432.363771613022,-0.21104867801070212,-0.8482287186384201,1.3427055275440216,5660.2696043953965,-0.07882012956775725,-0.9178623455762863,1.1508576083183288,5465.502650578723,-0.11731104402923075,-0.012350040785250602,-0.10061997913951888,13.549829082690191,-0.1334340884305711,-0.00778536334516447,0.002103591154108534,13.113276102826838,-0.10367420072000039,0.06359223985483181,0.06699560334534002,13.315006996085545,-0.21346025679984226,0.12668398340691314,-0.22068888648484186,13.70601994927173,-12.980351119041442,-16.569774956703185,33.10310641288757,-11.594573316574097,7.645743248462677,10.685654468536377,13.741846795082092,0.5135811414878116,-10.562961642742158,8.151826961040497,-16.91766909599304,5.598651940822601,19.393048615455626,31.88342064857483,-22.04680848121643,8.239699485301971,5.5
1.7833328247070312,0.046842217445373535,-0.11464214324951172,1.944269037854297,-0.18818862809208084,0.12910000372132266,13.91766728952791,175.97465732427474,-2.470296237078448,8.838225032625958,-0.15835535757651087,0.6754513067007065,-1.3582478648424148,5498.456948375728,0.23827575851231814,0.506314340531826,-1.4517726415395737,5439.066749930078,-0.262744070738554,-0.7782095664739609,1.3542508870363235,5667.3614753683805,-0.15404595032334328,-0.8716002389788627,1.0529717797040938,5472.4252329749215,0.5429751103136105,0.49194741393949926,0.46817918692275096,11.124905130576233,-0.16985762091082726,0.1603210115882289,-0.19583415702001783,11.564776654168629,-0.04594579221533073,0.15782430457675287,0.04507750702937513,13.299644014710466,-0.02333859577621207,0.010603729432990427,0.030199113037047618,11.766717447131823,10.697123157568276,-22.211047039031982,34.00412205696106,-10.76725665807724,-4.038654033690691,10.114306691884995,15.030611359141767,-1.4391268820594996,-11.647844913899899,4.601400248706341,-29.368689765930174,6.048402636907995,29.200109796524046,0.025492507368326187,-19.74075578689575,-0.1208968208823353,6.0
1.7833328247070312,0.046842217445373535,-0.11464214324951172,1.5712229770981907,-0.4133947894790413,0.12594304831765152,14.155274744222993,176.79597481874117,-2.49749703248721,15.097656270872324,-0.10382869081222453,0.8178348085284233,-1.305552033185959,5503.541166556164,0.11743114638738916,0.7424925020337105,-1.4036980444192886,5444.110430922989,-0.18056008949875832,-0.7428580197691917,1.3219650262594222,5674.060887015324,0.07996689957915805,-0.9776040658354759,1.3080990403890609,5477.658592568533,-0.5950889043132058,-0.2438254968660959,-0.3162111603629357,9.948249463899185,0.10093327658355049,0.1535843246010935,0.26575293747449574,9.825381745336623,0.20331819612711344,0.0164851413453735,-0.17299320723044997,12.710815762084676,0.6421014130760309,-0.2176846841454699,0.4981251078455746,9.989254599951037,-3.0136693745851515,-13.302027964964509,20.626295272111893,-3.787137505360879,5.176260434240103,-1.4174153969436885,25.12288639985025,-2.3040012087277137,-9.238396237231791,-3.8818190944194795,-32.32396268427372,3.62238934263587,14.383785087540746,7.406291399933398,-16.43828521192074,3.4742605162528344,6.5
1.5738444328308105,-0.1150660514831543,-0.5490726232528687,1.589130867526269,-0.0657683506292136,0.028314822777560398,14.45975910610154,177.63019655597031,-2.513299650307745,9.322548065509029,-0.20134612976951757,0.6515552428364754,-1.3004896515607833,5509.280556145919,0.20575943902134897,0.6095178157091141,-1.376906344294548,5449.783743472008,-0.12990348897874354,-0.7961165156960487,1.310175547003746,5680.417852489693,0.1938420869410038,-1.039273927807808,1.4109357905387878,5483.375916586182,0.5543923831069838,-0.05054708599145334,0.37259148370269857,10.426792259658987,0.31545907749945207,-0.03610150179613787,-0.21474029504724368,10.461387868709966,0.04949634841452232,-0.135446954318431,0.1890252118100547,11.033215931054185,-0.039627204625275365,-0.1519299655585285,0.1314566213722469,10.341608193289371,-2.009314393699169,-16.832299916744233,31.16724811077118,-10.190119568109512,6.081086303293705,4.699253771081567,14.460024757385254,-2.9798639909084885,-2.7981873425096273,-5.936992562413216,-17.69621262300294,0.6935056157410144,0.9831480701640248,19.091134473793208,-29.74302490234375,5.20917016390711,7.0
1.5738444328308105,-0.1150660514831543,-0.5490726232528687,0.9401877754920257,-0.4434725262951407,0.04370992185154428,14.87472208101599,177.98247326579033,-2.551974726236396,19.20388576177507,-0.06075055483262986,0.7548026996850967,-1.2074111706018449,5513.2134630317005,0.20933996646577724,0.7581685864925385,-1.5076737773418427,5453.534822793228,-0.03718537322201883,-0.8719695907831192,1.2369462937116622,5684.900982292649,0.20555990293622017,-1.0764595401287078,1.4464535588026046,5487.2888413405035,-0.5689753437597576,0.17655675902820991,-0.4518199050386571,6.3471521152855015,-0.17491154471020906,0.31236884649327334,-0.3151822536942829,5.436238389739316,0.2923435254482227,0.047228862920383446,-0.3079570174886623,7.2565204810222586,0.1509249849218893,0.018119670022571845,0.04954223342134462,5.524240725360117,-1.3112413683533668,-17.060494938492774,20.24813889056444,-5.28977953995578,6.6730714654922485,-0.15199879094958305,21.230750238485633,-2.933122892480096,-12.74265365600586,0.08842808455228805,-20.76706815749407,1.05409598421189,8.423421255126595,11.456703822016715,-26.45577958881855,3.2757261351495983,7.5
1.2179861068725586,-0.5434697866439819,-1.1338107585906982,1.145896098445943,-0.2799569428378961,0.034654025949532125,15.446167941768783,178.03106258034867,-2.542543524886057,18.976063694063292,-0.05924713386455551,0.7689885464310646,-1.2447601300477982,5517.0219894578095,-0.00908368333854014,0.7270746746659279,-1.3469430261850357,5457.278795764941,0.0034077144488401244,-0.8617656242847442,1.227187895178795,5689.5864113790485,0.28396729588508607,-1.0887977808713913,1.4414790290594102,5490.636016869033,-0.0005765554503932791,-0.2508692714504225,0.0726193060964663,8.773073074018063,-0.12208057844214217,-0.17774198924729942,0.6173253945647756,8.621470697507728,0.008896425276827902,-0.1535893231120216,-0.03003579403886446,10.318535224737296,0.11021437788459279,-0.058838613529751865,-0.05054801627861494,7.530779531897207,-3.9606972020864486,-12.333988121449947,22.68152145758271,-4.436639388997573,9.157650774233042,6.407560668550432,14.621983292400836,-0.35165440579876306,-17.769814178943633,0.002264459952712059,-21.452472667694092,1.42471705166623,11.331469086483121,33.85605089664459,-19.25521212588996,9.39155488723889,8.0
1.2179861068725586,-0.5434697866439819,-1.1338107585906982,1.628947603726777,0.00587292101522258,0.006188771651642645,16.15338168402233,177.87372993589162,-2.5566606385664548,11.601992690750006,-0.15530669040977954,0.6074525746703148,-1.2950570821762084,5522.49404626474,0.15258315585553647,0.6454803210496902,-1.376341651082039,5462.418280505557,0.007190535108966287,-0.8608366057276726,1.2742948949337005,5695.08083922475,0.2835159693658352,-1.058156876564026,1.4687740635871886,5495.213963657334,0.14674868112838174,-0.23326750694321607,0.04763416512911009,11.597640175204559,-0.14982088447023376,-0.17902686759232547,-0.018263086136832488,11.036272915079957,-0.08587217800158234,-0.0016812793711581072,0.18320535145146827,10.631397385503119,-0.1413788148827554,0.10933609980062535,0.10569984393917307,10.313515008955992,-13.900226599723101,-6.919987835660577,27.41695629119873,-7.016598208919167,1.6823525050468744,6.162081845551729,15.142284439057113,-1.3288373989169486,-11.094744614213704,-6.486926234737038,-10.500171745419502,0.40440801402553916,3.980214276686311,46.99418483734131,-31.060444626808167,14.815634806156158,8.5
1.5847184658050537,0.33080732822418213,0.013783574104309082,1.862096996256782,0.14888359952972308,0.05595665483110881,17.028139792220557,177.8001727835626,-2.5715909924563176,14.02285437070788,-0.3622217696160078,0.4943188510835171,-1.3940132254362105,5528.745450594657,0.21128201104700564,0.6154972273111343,-1.4676423913240433,5468.509585050787,-0.03351053026504815,-0.9149969151616096,1.30477736890316,5700.8945485976365,0.19835151188075542,-1.0537388920783997,1.4631293714046478,5501.559863368436,-0.4760493605670505,-0.13174276182630731,-0.20698098528291914,12.138114980519672,0.18447021407331157,-0.06621756540392347,-0.19299139272215626,12.235198251708411,-0.02226386016634098,-0.1044657081950942,0.014627504434844563,11.621665853683934,-0.1363968565431345,-0.07069396486129255,-0.08913896945679518,13.404962485727435,-14.061846476793288,-2.6423131212219597,37.920615100860594,-9.15063863992691,9.390727251768112,3.9269638236239555,5.5423222161829475,-0.6345821970072575,-10.093832634650171,3.469345927760005,-4.945561053156853,3.025248235668987,4.900806720852852,46.61817111968994,-33.95431822776794,14.634111294746399,9.0
1.5847184658050537,0.33080732822418213,0.013783574104309082,1.8811605626892032,0.06358480753298351,0.09432535684678824,17.926245413954117,177.83018676870836,-2.587946242635468,11.121873630479353,-0.4417747350037098,0.5065759600698948,-1.476609587073326,5535.159407580501,0.18670008771121502,0.5527257713675499,-1.4703592193126678,5474.95219010156,-0.07457016387954354,-0.8772838777303695,1.3625287538766861,5707.036830084561,0.08122308649122716,-1.0395397442579268,1.3895470720529557,5508.423205235475,0.12021486385974037,0.14650019203830877,-0.07388178256238292,12.085476529651906,-0.04907567286978492,-0.16547794958856943,0.13764868681022688,12.287285120635422,-0.1789256587278538,0.17031037217695777,0.14165934801521782,12.015568479131973,-0.2948380235038701,0.1553484480182997,-0.2707749484532891,12.566216549158534,11.965215022861958,-6.783571372441948,36.75357192993164,-10.181817201375962,1.728366732597351,7.30855895280838,9.459461286067963,0.11973384633718524,-13.89266271352768,10.569956377893686,-22.813479125499725,6.100412841439248,12.262421930283308,28.203370370864867,-22.9205171585083,8.115642158389091,9.5
1.572704792022705,-0.04364049434661865,-0.4543393850326538,1.9676282817041726,-0.02104632369143511,0.11074939213086993,18.84901557247698,177.8383805267825,-2.573700998231791,11.878074137537528,-0.40292211636900904,0.5412640580534935,-1.4147621142864226,5541.507747558801,0.17771048076450824,0.47082545548677446,-1.3309926265478134,5481.45650598228,-0.1371164347603917,-0.8328096988797188,1.3601933830976487,5713.737225754339,-0.03518424725622026,-0.9471298581361771,1.2032867991924285,5515.20085799757,-0.017069980173427722,0.04864996875871133,0.17675180503102836,12.305481164788633,0.06066721405798367,-0.06236101568664498,0.17479289445655902,12.827493508641387,-0.09497101977655176,0.02489114513555703,-0.11372529014015788,13.45851578835601,-0.17485843307532853,0.16319321843052506,-0.3760151936710355,13.411627847966848,6.671836060285568,-5.651846726760268,32.73436188697815,-8.451388323307038,3.087159500159323,12.435269867889582,14.658554542064667,1.0044853283057456,-18.322182903289796,9.756306924074888,-27.66013648509979,6.848050653934479,20.91621458530426,25.155664587020873,-18.859853286743164,6.528668819367885,10.0
1.572704792022705,-0.04364049434661865,-0.4543393850326538,1.9778219036808944,-0.07455555797634178,0.07423231295342013,19.789049489125883,177.80175935292135,-2.558298940647796,11.948654855143209,-0.39521086543798445,0.6234001025557518,-1.394503383040428,5547.872863615005,0.19130958072841167,0.46665075048804283,-1.300425061583519,5488.054953253311,-0.17422858469188213,-0.8196341183781624,1.296135546565056,5720.831328656259,-0.10832421354949474,-0.8676430478692054,1.0370901665091514,5522.088993265397,-0.011640739500393592,0.128847214042213,-0.020696298306068877,12.416315778787204,-0.09355144027770279,-0.007402751004380902,0.07238416304954753,12.735577471710336,0.00029252640600374103,-0.022813301384262616,-0.15820516503095555,13.841217178232894,-0.08498852205398608,0.13928705792819437,-0.20251739333101137,13.168680456876366,6.66855872631073,-9.100902750492097,25.63064435005188,-6.979080810546875,4.018570746574551,16.848026585578918,21.51912230014801,1.802782023958862,-23.4998494720459,12.395531513690948,-30.94108337402344,7.2552844166755674,26.20029396057129,25.019750232696534,-12.197439723014831,5.929852808713913,10.5
1.7276172637939453,0.21780431270599365,0.04348158836364746,2.0473230764212498,-0.06538550044409103,0.06351183885591227,20.791345092608612,177.69258904060732,-2.5443338656155485,10.144823456172656,-0.33570978701114657,0.6662675571441651,-1.4313667404651642,5554.4985443068545,0.12853776682168244,0.48742528483271597,-1.2949458718299867,5494.831495542142,-0.12759880241006613,-0.8105054983496666,1.2231513720750808,5728.081400650189,-0.10083838729187847,-0.8171674054861069,1.0343945536017418,5528.999366507773,0.44996976117112303,0.02654713710410567,-0.07790522086242538,12.491293915443,-0.10193183043990926,0.13343281791742823,-0.1836288882303896,13.19926776613911,0.1778103111706064,0.16439248631606143,-0.09495423046847824,13.203803667434075,0.1408417177613082,0.048601829794993154,0.2763830070244826,12.703275886985475,14.358357071895153,-9.168619707338513,8.516804473027587,-5.596059683964122,3.297330108694732,4.8428392075840385,33.70155820846558,-4.714386236552382,-31.351007890701293,17.75546744376421,-32.66699897766113,8.429394213203341,21.463967895507814,13.117828615792096,-7.433745327219367,4.010486224107444,11.0
1.7276172637939453,0.21780431270599365,0.04348158836364746,1.9313127796698029,0.08481685152785796,0.08276109054819694,21.808879023331976,177.5937993967086,-2.556185193472801,14.42967182759125,-0.2131634143739939,0.634110763669014,-1.4643384629487992,5561.076633881407,0.1479090688377619,0.5843571755290031,-1.4725221276283265,5501.593060210716,-0.06788092907518148,-0.7982203459739685,1.242675349712372,5734.828576425426,-0.07119624404236674,-0.8067574307322503,1.1585599994659423,5535.652711097521,-0.19591998120757206,-0.12370927055750465,-0.1394310487011806,13.219993919854367,0.10286528418621796,0.13057162399545685,-0.2737690586318782,13.043989710005421,0.016415614372069322,-0.1889761293336639,0.15578766552596712,13.105051501048186,-0.06576708399319502,-0.015912728878492835,0.0614261756149408,13.45373182958449,-23.440984514430166,-14.587040498256684,35.94145115852356,-10.626223714351655,16.496823182106017,12.299484930224716,14.427185192108155,1.1855488607753069,-16.907421436309814,4.73769671857357,-12.909098482131958,4.565708821350708,23.895685625076293,33.78970130860805,-25.929117937088012,12.711886403560639,11.5
1.8191957473754883,0.1639886498451233,0.15033936500549316,1.9953798086478967,0.09606111360892854,0.08996219662050638,22.80162605324839,177.61566101395053,-2.5491025818529365,11.690160811399924,-0.30586583122611044,0.5760758358240128,-1.5076983457803725,5568.021002422536,0.154637011885643,0.5849693286418914,-1.4995441567897796,5508.440790362793,-0.08077871132642031,-0.845950400531292,1.3250959080457687,5741.63739487782,-0.11463522624224425,-0.8195860663056374,1.1607698845863341,5542.864828075587,-0.07618815984161048,-0.028363193735449127,0.022730606575181417,13.039154842246507,-0.02651071406075308,-0.08093848671195952,0.1254331878707994,13.037187192306718,-0.07885549900684835,0.03749393173127562,0.142383128529448,12.884102716715471,-0.12092603889066939,0.022380496660833405,-0.08799845258758682,13.635427767288856,-13.235506237745286,-11.079121284484863,37.951696166992186,-11.533388330936432,15.163408994674683,11.545633401870727,14.680105514526367,0.7141825192980469,-20.102896604537964,9.202541659809649,-19.930407104492186,5.931040427684784,25.158191947937013,26.756497812271117,-23.014630765914916,9.408109383583069,12.0
1.8191957473754883,0.1639886498451233,0.15033936500549316,2.035468881467461,-0.01319451679231539,0.10448264728460062,23.781346614043485,177.66998263386608,-2.5318800795522614,12.928466933915335,-0.30746117115020755,0.603306750357151,-1.4476573801040649,5574.753873819432,0.12501668088138104,0.5139156956970692,-1.3679494535923005,5515.265297440786,-0.1319471587240696,-0.7898896312713624,1.3162636524438858,5748.67529568415,-0.1778955165296793,-0.7777336725592613,1.0492884284257888,5550.019932878758,0.1071501584237661,0.15085050876762035,0.1419123632767876,12.841768002815723,0.012221027865927506,-0.12006677946026896,0.20937179867810685,13.345976018890507,-0.03298716492679035,0.1926389479650745,-0.20047509639501296,14.112671900506273,-0.007729451315693577,0.05667861535046812,-0.1796226330120799,13.728401583841695,3.499255877826363,-7.3690640431456265,26.449340715408326,-7.398783642053604,11.262981879711152,14.140767242908478,24.932566595077514,0.0909739574790001,-28.053838262557985,15.877754545211792,-33.192685480117795,9.827160415649415,29.89623239517212,12.628280308619141,-13.580879815816878,4.4683202572911975,12.5
1.7465312480926514,0.12894469499588013,-0.1633908748626709,1.8290236659626087,-0.05670288915439122,0.06999522817376361,24.756112137006014,177.58191679424976,-2.52405183827841,12.770224899045221,-0.14759388323873282,0.709545471072197,-1.3877088057994842,5581.119364519365,0.256797858774662,0.5695077607035637,-1.4187402844429016,5521.700902131281,-0.1406341637670994,-0.6858750683069229,1.253077899813652,5755.738638945651,-0.13787491627037526,-0.7739284420013428,1.0407126384973526,5556.619270285587,0.1670655008141414,-0.054704226322497336,0.0997285626533813,11.677990040937111,0.11030566878013164,0.03754683274740187,-0.001819114514876381,11.76051456012624,-0.0028460479735961464,-0.08261128197651683,0.013947627168880808,13.161969954056488,0.05814527052809001,-0.024982233987601923,0.0465825537863203,12.087715790064953,4.98817345649004,-10.336657519340514,12.789218698740006,-5.870238992893137,-6.698088298141957,7.792103602215648,35.06365207672119,-3.498590206876397,-28.691104831695558,2.096827646493912,-32.9683120727539,7.140268283858895,29.634036226272585,12.820906871147454,-13.270362745523453,4.882431531269103,13.0
1.7465312480926514,0.12894469499588013,-0.1633908748626709,1.9500571993958737,0.06456063308227032,0.08343182687146199,25.700306263985727,177.49818352561905,-2.5402207657018914,10.997876476527953,-0.2623376868665218,0.6410030138492584,-1.390973914861679,5587.339329886821,0.16536900602281093,0.5137491157650947,-1.3331310868263244,5528.325063891896,-0.0886914162710309,-0.8073391452431679,1.2451366716623307,5762.7502598129595,-0.09638696603477001,-0.7959959551692009,1.1095508605241775,5563.486003141502,-0.2777526811416235,0.04017666657853693,-0.08460511505341986,12.504357423664374,0.051213491956778684,0.022903345046012994,-0.1228129785516193,13.596178220317103,0.08665035944575339,-0.06848886882995558,-0.127425828085276,13.563062722963048,0.06946624610203825,-0.049290030488560156,0.12922715029593837,14.060236626192818,-2.0100980032235385,-9.48400681078434,21.735535082295538,-6.783278940394521,4.644335914254189,8.060031428821384,25.38168434121646,-2.5470622604340316,-26.297398056983948,11.693036251366138,-20.228344418406486,7.0430883994395845,23.69642430305481,16.31529449775815,-22.238502860069275,5.70219798527658,13.5
1.7419977188110352,0.018039822578430176,0.10626602172851562,2.0762292558611315,0.1071580309740712,0.14604399538854534,26.735897045562687,177.52795821704984,-2.5571751414779205,9.388932330236019,-0.34341348707675934,0.6686141860485076,-1.437156559228897,5594.237619124385,0.21193191550672055,0.5587193220853806,-1.3981958454847336,5535.390538472898,-0.08928811002522707,-0.8101472878456115,1.2184463649988175,5769.936006492818,-0.10217259116470814,-0.7787747436761856,1.077876319885254,5570.949857594577,-0.07016114675669692,0.06702090525546424,-0.06710487729108036,13.5943577326644,-0.0713236280347235,0.07404660206369294,0.043217642209450506,13.574861104498051,-0.019654948926426382,0.009816133300522516,0.10290635119230548,13.797887585913124,-0.05061364237586238,0.11716061788802568,-0.18619172345660753,14.334053790732316,-7.584216708540916,-16.531912927627562,27.513196096420288,-10.037469816207885,12.717339712381364,15.409185762405395,22.932154631614686,0.8804121037572622,-26.58806053161621,6.529152045957744,-22.166159410476684,4.46433027818799,27.190881366729737,20.13041365146637,-21.60842502593994,6.588037113547325,14.0
1.7419977188110352,0.018039822578430176,0.10626602172851562,2.1176519017337334,-0.01938449075094103,0.16794494787418135,27.76683936620881,177.60384311907114,-2.5828841246148992,8.576246408954493,-0.32760233849287035,0.713405590057373,-1.4475400507450105,5601.342494035629,0.19579299859702587,0.5633234214782715,-1.3522732543945313,5542.506420690607,-0.09482506230473518,-0.7679197922348976,1.2379563266038895,5777.260039913475,-0.1088413330167532,-0.7414129611849785,1.013984336555004,5578.384425268474,0.12351865774408534,0.08229165624097061,0.013706603178117484,13.685669017643535,0.014730883612164155,-0.02244106350642851,0.08213795441625732,13.894537739224308,0.027376702705608526,0.14692007349940933,-0.05719603060053587,14.272138419275946,0.03542335432784995,0.05486982496483304,-0.009398192531916708,14.00252262438264,4.798957093767822,-15.611065950393677,19.116536498069763,-8.32484795331955,10.825527212619782,12.62102591753006,30.16477918624878,-1.0737951709190383,-33.399696292877195,11.393156170845032,-29.530674352645875,7.323529175519943,29.166836643218993,11.012429910199717,-15.311250710487366,4.032124606966972,14.5
1.8368453979492188,0.08661210536956787,-0.06658458709716797,2.1578613703621388,-0.01410413272109218,0.166334120712917,28.83369848947265,177.62676061776915,-2.6231393133992302,9.589391178634724,-0.2750988480448723,0.7308080050349236,-1.4699098038673402,5608.65494334345,0.1963454718887806,0.5754850107431412,-1.383663414120674,5549.8191601833305,-0.0815814146026969,-0.6922292259335517,1.2141708713769912,5784.782186604591,-0.10044242784380913,-0.7035164469480515,1.0255533099174499,5585.692970421048,0.029923424541157186,-0.00878277898873336,-0.06342943575508658,14.216760498431807,-0.057980363224570314,0.044929021296127344,-0.12342268787647521,14.20883696834597,-0.009130027492113068,0.10564257574051134,-0.00881618823589022,14.439551401943168,-0.02084394561576053,0.06415518192663058,0.05324904993719227,14.07895636499544,9.787688024044037,-16.777615942955016,12.975177590847016,-8.426916415691375,4.484382597822696,8.52705605506897,33.602386693954465,-3.0980451714992525,-34.42837896347046,7.509640164971351,-30.557889223098755,7.437540261745453,25.38728798866272,15.107320132255554,-12.18325858592987,5.889757564067841,15.0
1.8368453979492188,0.08661210536956787,-0.06658458709716797,2.137736126452682,-0.038936458904618484,0.19839797607625467,29.94104170934031,177.6201427109318,-2.6586422103558043,9.408353779590062,-0.24151605300605297,0.7588104620575905,-1.486784549355507,5615.992367431423,0.18363775908946992,0.6019942378997802,-1.4332199829816819,5557.128154491544,-0.0948836650326848,-0.6362021309137345,1.1990652334690095,5792.379155229099,-0.1153526021912694,-0.6704637134075164,1.0423091769218444,5593.040118376164,0.11041520028430327,0.06353012700854241,-0.03987906601557417,14.009441716631743,0.006849019993570259,0.046135589203834225,-0.03823655516628252,13.92171253645053,0.015723680794448948,0.07025666047889156,-0.0563993135356722,14.747019546968668,0.014193055818727273,0.07489442170609849,-0.004350608026656771,14.005780527933672,7.1158154010772705,-18.951972308158876,16.367318402528763,-8.957372512817383,5.58890339627862,8.828899545669556,33.40264400482178,-2.6081961354240777,-32.97891986846924,4.1955140837095675,-31.041631546020508,7.382064355611801,27.34640625,11.57217960357666,-13.915204529762269,5.393236291408539,15.5
1.7956764698028564,0.06471192836761475,-0.0620121955871582,2.1812659249885162,-0.0069498003500261165,0.20390233315469278,31.02695178580109,177.59603035733966,-2.6817196545228175,9.843517850045798,-0.24027652598917484,0.7231046611070633,-1.4849959123134613,5623.414815872509,0.13397584818303584,0.5899388265609741,-1.4116904389858247,5564.560180742026,-0.06004444405436516,-0.6343528455495835,1.170912617444992,5800.144750758872,-0.08815967563539744,-0.6372857457399368,1.075140082836151,5600.505455620533,-0.07938627911953626,-0.11677735055517437,0.07270995854115178,14.344733756462256,-0.1441420853247388,-0.0546203329013329,0.061073682138542244,14.606176150180456,0.03372819592938605,-0.013713882566925633,-0.04930025225205954,14.889354684146735,0.018637901191303968,0.0641664224244653,0.06117287240891225,14.559700431175338,5.587885602954775,-15.85696708202362,15.747016901969909,-8.396015927791595,7.142643915489316,9.385327282547951,36.02971232414246,-2.8098366798087953,-35.461277408599855,3.824300025124103,-27.786210412979127,7.0819238185882565,23.864497203826904,10.674462631940841,-18.16504608631134,6.34962938785553,16.0
1.7956764698028564,0.06471192836761475,-0.0620121955871582,2.0804530643878754,-0.019777751453822816,0.19991953962208442,32.12621191801205,177.60715772714525,-2.717385244886068,7.293137013126286,-0.26120062299072744,0.7220076245069503,-1.4714247298240661,5630.736236194715,0.07810910545289516,0.5947590011358261,-1.396917250752449,5571.978978720788,-0.0545253486558795,-0.6163907697796822,1.1343512624502181,5807.784715003571,-0.08039629463106394,-0.5880692872405052,1.0846450054645538,5607.982734236845,0.061431279478158185,0.09632245598658201,0.0165972408703268,13.451577737063108,0.0033511978441291917,0.08209088458403656,-0.06457263675142916,13.668236448511612,0.002386215138890008,0.054876911611075496,-0.03468950877149795,14.148794379705024,0.017792943539654767,0.06350360131453604,0.03174660360226793,13.750134883828506,1.6321009768359362,-20.359468264579775,22.11652811050415,-10.451508374214173,13.872082457542419,9.78106282711029,31.722230863571166,-2.309124552642461,-33.31345377922058,-2.563706392608583,-27.707451162338256,4.2777005045861,24.57010781288147,2.357447468396276,-21.17281120300293,4.503437916710973,16.5
1.7533223628997803,-0.015151739120483398,-0.28063446283340454,2.097853201181122,-0.0043357814584932845,0.21606348156910138,33.188951564326814,177.60468644618294,-2.7466663319079636,10.41032114493786,-0.2095040313154459,0.7397839468717575,-1.4362513929605485,5637.768489358285,0.11509134624153376,0.6052634182572365,-1.4139018893241881,5579.018016676515,-0.06546227227896452,-0.6430332604050636,1.1483508729934693,5815.299507811012,-0.08961947463452816,-0.5776379784941673,1.0760804790258407,5615.185971301233,0.040652805771279776,-0.029763052864522653,0.023781473347893916,13.91705899001442,0.014545516562333908,-0.0701676722634667,0.06392772601018248,13.924064492519856,-0.029329117690714234,-0.1377226982582056,0.061423944068243204,14.841631151665519,-0.0383101592787416,0.04257628069749107,-0.11816590915995853,14.206257292029726,-0.4986585026793182,-16.757825150489808,18.904414958953858,-7.958305759429932,13.183520307540894,15.222420251369476,35.76652995109558,-0.16787527041509748,-35.23630235671997,2.859239838775247,-26.15220887184143,6.278181809447705,25.545115175247194,6.3622942544519905,-22.360673904418945,6.467892918586731,17.0
1.7533223628997803,-0.015151739120483398,-0.28063446283340454,2.191531558453848,-0.013330431893894427,0.21896731356511887,34.21819552978899,177.5843083809801,-2.77343314772813,9.0806172256106,-0.2015001269429922,0.7349099630117416,-1.471314714550972,5645.180477975362,0.10424634099006652,0.5808801892399788,-1.4186120480298996,5586.40854441551,-0.07566204639151693,-0.6784994953870773,1.1785734128952026,5823.094046498521,-0.10082975827157498,-0.5912586483359337,1.0567819225788115,5622.759653161114,0.05331974921234086,0.04433070906205173,-0.07547708360477005,14.207483390090323,0.005333416251299444,0.005409907758818727,-0.10471996013885104,14.25173865992073,-0.026444550218104435,0.07217866849130675,0.008095441929326878,14.71798526542193,-0.008829825915664793,-0.11062663307499244,0.11789297721085878,14.40654140172097,6.377863573133945,-18.27464672088623,13.57443664431572,-8.903898255825043,12.033369579315185,8.705922303944826,37.183013935089114,-3.5372552655637266,-35.04934656143188,11.2736331686005,-28.91503875732422,8.739072152972222,24.45593865394592,-0.2694766217470169,-16.58176131725311,3.2466003313753755,17.5
1.8511691093444824,0.012021183967590332,-0.19330239295959473,2.1505712466354825,-0.011251770890496438,0.2213043084827486,35.305052271771935,177.51362152327897,-2.8127497057651225,11.741722079259933,-0.17814047500491142,0.734474336206913,-1.482910413146019,5652.522471676382,0.10322300836443901,0.571313661634922,-1.4519240057468414,5593.763867952678,-0.08226283762603998,-0.6532595157623291,1.1926976609230042,5830.737030582515,-0.09605056900531053,-0.6285313874483108,1.1166010677814484,5630.168068123517,-0.04365186192216637,-0.0848044780367893,0.049288023675459744,14.164475210687804,-0.08844937049704578,-0.08626255790803423,0.05494917019323265,14.336604285460899,-0.017784256086465562,-0.01642117532379675,0.027220500577616272,14.821637821319024,-0.017262957771003066,-0.000678759491464905,0.0538218024254895,14.259171823486625,3.631298003401607,-15.38714343070984,13.268210200071335,-7.8739746570587155,8.394432178735734,10.920569818615913,39.77211169242859,-2.751361776441336,-34.18426090240479,11.395534195899963,-28.110490245819094,10.047442502975464,24.442204570770265,4.3984821357950565,-18.787189655303955,5.0425735732726755,18.0
1.8511691093444824,0.012021183967590332,-0.19330239295959473,2.1410266794637143,-0.018128631855497998,0.20661911998474536,36.41437702307695,177.44293401842253,-2.8343907672441064,9.630197028124698,-0.22032986089587211,0.7267574524879455,-1.486363427042961,5659.825514685918,0.030844878956631874,0.5300697121024132,-1.4018942928314209,5601.246490323642,-0.06674302680417896,-0.6351221132278443,1.1582889151573181,5838.430249016943,-0.08062183780595661,-0.6121381625533104,1.150700380206108,5637.624192281527,-0.11870331564688637,0.006704034471034609,-0.1097001822268283,13.780644966745966,-0.18650341779355828,-0.08320726240134128,0.09808865100380049,14.417719323979952,0.09663012559792877,0.008289315444266466,-0.1138302520526924,14.557020674596938,0.10374503173555466,0.005876578339373,0.15559103105451397,14.127242121409138,5.972582212910056,-13.647184591293335,11.522546488046647,-7.290841557979584,9.29349044367671,10.786043944358825,42.73317293167114,-3.8326258078217506,-36.443021869659425,10.211551712229848,-27.737474775314332,9.455527263879777,22.729433393478395,-4.243968164324761,-21.982449765205384,3.1054982996731995,18.5
1.7933740615844727,0.18109822273254395,0.1556934118270874,2.1846390086662084,-0.0020778682969282347,0.2150277694166557,37.49017946196205,177.4216104336028,-2.8574892160756575,8.403813433539451,-0.26242828644812105,0.7231135281920433,-1.5012213480472565,5667.164519575556,-0.030283777727745473,0.47891037315130236,-1.3518204843997956,5608.815277635077,-0.062124905344098806,-0.6551392462849617,1.150430616736412,5846.203188618295,-0.0775556737370789,-0.5999020335078239,1.1868895089626312,5645.1248548189515,0.0552392261070581,0.05188627960769043,0.008274436634790045,14.145102978775974,0.036883550615907396,-0.01861276319164162,0.010219336349566992,14.34881600291289,-0.03277041690731012,0.017740440783957548,0.07022272454597904,14.854429980290384,-0.02584658394684333,0.04521171383801212,-0.07714280223523513,14.408932745942812,2.8029581737332045,-16.004531149864196,18.99753274321556,-8.550653722286224,17.353003544807436,16.555085661411287,37.03579590797424,-1.5052065787022002,-35.8275,11.11758795697242,-26.06614217758179,9.275062251985073,23.95910587310791,-7.883764112889767,-25.25498522758484,2.2833470795769246,19.0
1.7933740615844727,0.18109822273254395,0.1556934118270874,2.2116197508956397,0.0104627060798462,0.217830284392063,38.55760251694065,177.385479922436,-2.87020301907793,10.408808733848568,-0.24456975489854813,0.6986658316850662,-1.463446238040924,5674.61949279669,-0.011299087078805314,0.4896133637428284,-1.3668731480836869,5616.182800308007,-0.09041247054934502,-0.6766623130440712,1.1817277824878694,5854.02063736318,-0.10587020371109247,-0.5792668762803078,1.1484359574317933,5652.651442236518,0.004464474367711696,-0.07994699110178762,0.14694806340715286,14.454179027283326,0.022002373030969344,0.01439296929061155,0.017055483811942728,14.299689313437609,-0.07762667176335662,-0.05813963854973932,0.01413703260772617,15.248203955084046,-0.09027486341319692,0.05700045501820311,-0.10295047083834002,14.657780909718472,-3.235456723347306,-17.071531019210816,25.040691604614256,-9.570879802703857,17.362521629333497,20.658634548187255,32.70928228378296,1.1432871339097619,-32.52980529785156,6.811519206762314,-25.005945367813112,6.7844696044921875,25.441364612579346,-0.3627549228258431,-27.29595242500305,5.821908475775271,19.5
1.8129069805145264,0.10447919368743896,-0.12531018257141113,2.171598110098586,-0.0015922567604332596,0.18571829849440338,39.62509648888577,177.31655936316776,-2.880981056539335,9.051294316664965,-0.2242348014563322,0.7078232172131539,-1.4582751619815826,5682.028337629495,0.007288566113566049,0.502025308161974,-1.3691197162866593,5623.547769341106,-0.09033697012811899,-0.6708125734329223,1.1704582929611207,5861.824955005938,-0.11094540353864431,-0.5652308291196824,1.1166482836008071,5660.235221083022,-0.027428357896797418,-0.021312066932278988,-0.08558672378825141,14.126076835300443,-0.03754085646774591,-0.0026607020472667474,-0.029431695250125105,14.222093462535724,0.033501961686134146,-0.03985198260160508,0.01684277575923473,14.654692023686012,0.015422018080292709,-0.01813544972193205,0.06145372907546069,14.348274951111089,0.9228828811645508,-16.642204380035402,16.93576111316681,-8.451957094669343,15.14572280406952,17.036125168800353,37.95828783035278,-1.166321920095943,-34.07701985359192,8.048851508051158,-27.09566040992737,7.833369489908218,23.68132499694824,-0.9334685197519138,-22.9515895652771,4.843914898186922,20.0
1.8129069805145264,0.10447919368743896,-0.12531018257141113,2.209548145157081,0.01509081871327779,0.18230364823958795,40.691304196442566,177.27244079789463,-2.896163940184969,9.749779519602571,-0.28720759123563766,0.6745178544521332,-1.4880500864982604,5689.450413432343,-0.06940999573096633,0.475244996547699,-1.3209605103731155,5631.043359274459,-0.07052357021719217,-0.6894681778550148,1.1653364735841751,5869.504820939059,-0.1024295325949788,-0.5735109716653823,1.1629722285270692,5667.849457196714,-0.1023633743131961,-0.04004371514373794,-0.009338200387105935,14.253719248828688,-0.12541646664955428,-0.04888736356452937,0.11770461588102857,14.613403468704638,0.049587489446416846,0.0023366058844730433,-0.04455939997924542,14.810773618104868,0.03202795766291389,-0.024519118856814955,0.08998053842158528,14.805947331050977,0.9682983703166247,-12.897769963741302,20.968488540649414,-8.078381412029266,15.422556231021881,17.248538656234743,35.0866024017334,-0.5990654591389466,-33.66167154312134,11.999420591592788,-24.323819828033447,8.658090322017669,22.739442863464355,-1.7388296674843877,-26.05895311355591,5.382740714848041,20.5
1.7941381931304932,0.02872622013092041,0.09312629699707031,2.2361802103685964,-0.0048354560493237345,0.18159868308008245,41.79912425491161,177.24414032513246,-2.897526115004814,9.115597299021518,-0.2733716829121113,0.6772039997577667,-1.4513199961185455,5696.94242952377,-0.05098065454280004,0.5006864297389985,-1.327038425207138,5638.592137160357,-0.05800508825108409,-0.6718803688883781,1.1436975187063216,5877.365091366203,-0.09343141697347164,-0.5659317883849144,1.1652642101049424,5675.642430240745,0.10761862996863306,0.049032884865412754,0.10877018584260512,14.261070492227878,0.14515861603535365,0.14573416003613443,-0.06603486366185309,14.233887014428102,0.03453645830691458,0.06426698888844883,-0.05424927067557029,15.0149254725999,0.03267201130718665,0.0631238388783672,-0.08677110894003365,14.824950077324756,-6.34037654183805,-16.82766654968262,28.102994289398193,-10.031761677265168,20.437767133712768,20.01902859687805,29.88806896209717,1.1756708503467963,-32.0603647518158,4.102444451898337,-23.313428821563722,5.275390939116478,26.92696261405945,-3.37458490611054,-29.83515277862549,5.38925103187561,21.0
1.7941381931304932,0.02872622013092041,0.09312629699707031,2.174442553115762,-0.0033987882551247323,0.1461902253353729,42.89055396316929,177.20622759313076,-2.897168917629543,9.678339347373562,-0.21958108648657798,0.7001978930830955,-1.3970424807071686,5704.317514081576,0.04524764070243691,0.5941935861110688,-1.36797570168972,5645.846324627001,-0.033844530666247014,-0.67325723528862,1.1438251489400864,5885.113389243996,-0.07004120497033,-0.5449947467446328,1.1267324090003967,5683.3878140044435,0.027071782385466644,0.052302756080148116,0.0361985281934253,14.087666867172883,0.17654670410247142,0.19580614101332813,-0.08835917854648233,13.86326566732944,0.01751178320142479,-0.08857561745624883,0.08953738354354114,14.557644277734632,0.03153959667785383,0.04949382485352773,-0.0730999890954518,14.863596382356931,-20.0914661693573,-21.803132367134094,33.75111627578735,-11.492719943523406,23.29514419555664,17.45107087135315,21.98223419189453,1.8621736843977124,-24.415265855789183,-6.1968693571910265,-16.698874230384828,1.5823874770582187,26.571154203414917,7.03191954150796,-32.77300765037537,9.165310442447662,21.5
1.7927746772766113,0.2110447883605957,0.163466215133667,2.091967082454798,0.019747587308448694,0.14198835225627532,43.950415990032496,177.1890016748512,-2.9151543699244424,9.324435217273184,-0.23827492125332356,0.724836741387844,-1.4233785337209701,5711.597140149715,0.07656829334795474,0.6174028354883194,-1.3658340030908585,5653.094563461457,-0.043539528995752336,-0.7023078346252442,1.1681856060028075,5892.602403989284,-0.06675213485956193,-0.547291764318943,1.1056961381435395,5691.04154477734,-0.03913104886110105,0.002642680455757024,-0.04252656039162174,13.871348148184943,-0.031695967578803795,-0.11544248031646323,0.10397580921694964,14.071455402674506,-0.03868272725422657,-0.028653622393974208,-0.017855971397719002,14.408435029098259,-0.024046158449372725,-0.06696452760144772,-0.029841970494463462,14.50161168664711,-9.243631802946329,-16.848757600784303,25.107866916656494,-8.772392728328704,19.766186876297,15.580901229381562,30.90758683204651,0.6499891846242827,-33.00317025184631,6.649564892435446,-22.36269895553589,5.975146840400994,27.089357776641847,-0.7001302663236857,-27.660421295166017,5.646343844532967,22.0
1.7927746772766113,0.2110447883605957,0.163466215133667,2.154281137760001,-0.015088588769191315,0.14984845330750937,45.0214775650475,177.17012531471755,-2.916679731742219,8.862684309654437,-0.24777265794575215,0.730338699221611,-1.4260737895965576,5718.852198268428,0.07152748845517636,0.5795775046944618,-1.3414523380994796,5660.436981551973,-0.0588331981189549,-0.7059475663304329,1.1659340065717698,5900.1827530180335,-0.0799153683334589,-0.5725380927324295,1.090054925084114,5698.602505384354,0.011219794681445587,0.01819639162845278,0.01300207114749238,13.992037266486193,0.017436320561508657,-0.02229884728793882,-0.04361784224292351,14.246796041995685,-0.013007213660030098,0.02810426852274614,-0.00755963534812733,14.567128932877763,-0.013721082036762904,-0.04102625435688566,0.018759443782482652,14.398754024414291,-4.734214697089047,-17.713357610702516,21.971595535278322,-8.706188597679137,18.52339144706726,16.232462735176085,32.09111558914184,0.20680300544248895,-34.23655914306641,9.565055186748504,-24.715225410461425,6.907707141637802,27.982241334915162,-0.9823288517561741,-23.81152750968933,4.41173763513565,22.5
1.8346538543701172,0.12127578258514404,-0.0617060661315918,2.1927903516514458,0.0020194473075743975,0.14220186716522762,46.08267873714399,177.12098883139407,-2.9253699249649245,9.450249527107133,-0.24395759999752045,0.7279417371749878,-1.4212657141685485,5726.231307293747,0.07892595041543245,0.5695987215638161,-1.354819900393486,5667.868467637858,-0.06117958933115006,-0.7021896725893021,1.1636414295434951,5907.865889006079,-0.08730124589055777,-0.5800830006599427,1.0932212787866593,5706.185021486787,0.0018482877933902124,-0.010023666900314738,-0.0075855250681228625,14.271786858043583,0.009827645891489106,-0.02993986633206569,0.025105632864681416,14.332506491475824,-0.006033150972824994,0.002093221838923966,-0.007671487025499627,14.815876405195766,-0.016746746528847074,-0.008639944701908186,-0.003386981003334769,14.602397803699699,-4.8516687661409374,-17.30258274078369,21.77710636138916,-8.560421426296234,16.998510003089905,17.63650777339935,32.26622862815857,0.6624574099428355,-33.9352252292633,9.30994456768036,-23.86182518005371,6.892373020648956,27.387015075683593,3.5954298835154623,-24.351786613464355,5.832713360786438,23.0
1.8346538543701172,0.12127578258514404,-0.0617060661315918,2.1989531125613455,0.0037667016809406016,0.13645188707493838,47.17278645876884,177.06430286731043,-2.939870351242923,8.254663992192004,-0.24053850032389165,0.7376355344057083,-1.4238432818651199,5733.687276126838,0.08131860088557005,0.5624793726205826,-1.3537713974714278,5675.349554565585,-0.06765286866575479,-0.6892190232872963,1.1630273514986038,5915.620256161622,-0.09550732400268316,-0.5718536722660065,1.0837533843517304,5713.829577273787,-0.0077944322993494805,0.03236794999084094,-0.05647283124331315,14.310490679365836,-0.028418592368784565,-0.02266211598339336,-0.0057043175592048365,14.494890685646205,-0.0022531957549596863,0.031958527442378856,0.003651086450466725,14.804165700250175,-0.002285022878294745,0.04137019361019325,-0.058731881500970654,14.631292624821226,-1.1542124501615763,-18.363713030815124,18.166254715919493,-8.650355899333954,15.089945526123048,14.945370502471924,33.79345303535462,-0.6553579670377075,-34.770336685180666,9.16250775134191,-25.228435697555543,7.071858407258987,27.063506965637206,0.7249653079360724,-22.617676267623903,4.55360971570015,23.5
1.7531781196594238,0.21000874042510986,0.0026546716690063477,2.2102760592764614,-0.006543762489156037,0.15523989875082292,48.26951670219033,177.00314637317376,-2.9507599782722185,8.787203509984284,-0.2551774719357491,0.7343771448731422,-1.4635536122322081,5741.253057279716,0.05546167643740773,0.538744013607502,-1.3638587605953216,5682.967523682941,-0.06930285640060901,-0.6791689318418502,1.1694564086198806,5923.403833320532,-0.09852639071643353,-0.5725329357385636,1.087039937376976,5721.532281160433,-0.0047543130848176456,-0.015140022678798978,-0.016096470551971997,14.532426828009532,-0.02855864198319789,-0.009328144937819915,-0.05283237350650836,14.62996988597101,-0.01324011461450112,0.052314125737069485,-0.005363544710354527,14.911515609241354,-0.01835389576738761,0.006951546068505177,0.02524415184604255,14.727425275332553,0.740867297500372,-17.950100750923156,19.44962610721588,-8.960261151790618,13.723802652359009,14.86348563194275,33.785243120193485,-0.9777792640356346,-34.161313648223874,10.812125618457793,-25.431312313079832,8.140454926490783,26.4257506275177,0.7004787582904101,-22.148451042175292,4.600156291816384,24.0
1.7531781196594238,0.21000874042510986,0.0026546716690063477,2.2394626679939917,0.01869644487482334,0.1677935738000583,49.3711980691598,176.93781564873538,-2.959326913162377,10.070067129034532,-0.26336737126111986,0.7193136903643608,-1.4767073780298232,5748.840964405199,0.027227800297550855,0.5207561726868153,-1.3709824234247208,5690.609278340877,-0.06756035033613443,-0.660750617980957,1.1493009835481645,5931.2678820217525,-0.10114530362188816,-0.5654528960585594,1.105163679122925,5729.233501926215,-0.05098103233074007,-0.05405413608550381,-0.033681887752540766,14.67562241655684,-0.08913273848639314,-0.08859827699156089,0.04016305700702651,14.932987489340814,-0.004735429479542536,-0.003401923807553018,-0.021136422762965762,15.23927112156617,-0.015565690418803244,-0.0010334753349940723,0.07260801884376945,14.853523153965495,3.3981064718961718,-15.827756857872009,17.0464386844635,-8.277511560916901,12.255374402999879,15.415195360183716,36.72447353363037,-1.200941397510469,-35.89342092514038,12.293102889060973,-25.287784032821655,8.879132368564605,24.685057611465453,-0.08449758225120604,-22.765663938522337,5.215709450244904,24.5
1.8580162525177002,0.10793942213058472,-0.08675861358642578,2.2428271849369272,-0.0015028078324794503,0.16483538462092784,50.476695865402355,176.8844196425339,-2.9578072281222667,9.526220145356925,-0.2893441379070282,0.701217631995678,-1.4779526603221893,5756.499192580564,-0.017913181003095816,0.4939593243598938,-1.3442707824707032,5698.334574272254,-0.07579459186643361,-0.6544314557313919,1.1456296116113662,5939.220308546839,-0.1132705820351839,-0.5546268299221992,1.1268970727920533,5737.029627555434,-0.038507968435010774,-0.019737217500549364,0.02212404462555582,14.59151548832698,-0.07430138702384644,-0.004946387296831914,0.03976002987924509,14.760274403314357,-0.0022784283471489093,0.02935807383530721,-0.03850176226765327,15.187259162034302,-0.005370318378135449,0.024599948359703444,0.05318400120933549,14.877875426541996,1.2592477911245077,-17.23560489654541,21.411735892295837,-9.425667865276337,14.553628902435303,16.79365482330322,33.77787275314331,-0.6663474182598292,-34.56320415496826,9.378395273685456,-24.589658861160277,7.728314909934998,24.948464584350585,-1.7384799431124702,-24.447998180389405,5.071231418251991,25.0
1.8580162525177002,0.10793942213058472,-0.08675861358642578,2.2530873287576525,-0.009879584126954118,0.15871072041158116,51.59338620872905,176.84306080592822,-2.9659233925721304,10.101584679565118,-0.29898568719625473,0.6930739885568619,-1.4659717911481858,5764.134806650863,-0.0411455602850765,0.4930641056597233,-1.333051632642746,5706.0301320124,-0.07165212433785201,-0.6511391481757164,1.1331015467643737,5947.214386166933,-0.1116762013733387,-0.5456635892391205,1.1428443610668182,5744.876379945416,-0.012761188255909255,-0.015623761737668685,0.010287873674394989,14.695150407439753,-0.03068807934639999,-0.01846243149874409,0.03440347891014321,14.954928384066179,0.030716935998726855,-0.017693073502577338,-0.01917382346786749,15.389133142943638,0.025974864559487654,-0.0028307193586863955,0.04289897745832929,15.152224431009083,0.31074602354317904,-15.423544754981995,21.79931303501129,-8.678431634902955,15.1924471950531,18.092976999282836,33.86099781990051,-0.10740733132697641,-34.528269062042234,10.396707129478454,-23.322714281082153,8.218261952400207,26.011291551589967,-2.337336509265006,-26.868665866851806,5.397156289815903,25.5
1.839418649673462,0.02819913625717163,0.019556760787963867,2.2255505538698346,0.021925805567488594,0.14869028296303355,52.703681501827795,176.8331151158532,-2.9665347644677977,9.430256870125394,-0.303949072510004,0.6956805598735809,-1.484448105096817,5771.731596066276,-0.060076681300997734,0.4848909810185432,-1.3102518862485886,5713.729383227004,-0.048277732245624067,-0.6546993026137352,1.1281442713737488,5955.140591247249,-0.08354179423302412,-0.5505406856536865,1.1773765456676484,5752.719750581874,0.013920119050455355,0.01056888843557444,-0.03980529269688977,14.580006437939117,-0.0040094962074964805,0.0073114126471469365,-0.002734013290962881,14.714487473640961,0.009848053979663113,-0.03074793857486288,0.059358437831960584,15.149651833375033,0.01971032214512606,0.005951028624495757,-0.027025957329027163,15.049170323361604,0.9803258425742388,-14.979860820770263,22.44136615753174,-8.884611120224,16.458294134140015,16.841909332275392,33.74904493331909,-0.610301229134202,-35.182789936065674,10.340688370987772,-22.326372051239012,7.916942000165582,24.29566831588745,-5.023389059156179,-28.249328031539918,4.364366951864213,26.0
1.839418649673462,0.02819913625717163,0.019556760787963867,2.23867837313778,-0.02345776848961015,0.15711887191260238,53.81461363615521,176.8008726265516,-2.965663589300933,10.355706812138136,-0.22473442301154137,0.7184543031454086,-1.435431911945343,5779.284781326898,0.02438394351007446,0.5239089822769165,-1.3564825916290284,5721.234304435521,-0.05431370722129941,-0.6487298431992531,1.1578118133544921,5963.125579177304,-0.08742432422935963,-0.5462296029925346,1.1435273391008378,5760.51559720335,0.17581850020392856,0.049466356056465904,0.137776142936749,14.333923178659811,0.19259259447994975,0.08441789617522691,-0.08163209842534017,14.299418210296544,-0.0034284796825346563,0.050261768095267154,-0.017501377807571737,15.270040898642582,0.006916082814556395,0.04005674659708738,-0.06402859302123746,14.706731586882572,-2.9847856560349464,-17.044388666152955,24.151251792907715,-8.997192730903626,16.238284873962403,19.10126145362854,32.48127146720886,0.5986988662276417,-33.879374198913574,6.81515908151865,-24.02969941139221,6.950578265190124,28.418817434310913,-3.611920440290123,-27.944343452453612,5.054679550767178,26.5
1.8165717124938965,0.15125024318695068,-0.020058751106262207,2.254936217899512,0.033029277049930014,0.13611506683131383,54.919861848354564,176.73249721934485,-2.9716987905027774,9.497734753662188,-0.23224182218313216,0.7135014632344245,-1.4376048904657364,5786.919970680013,0.01665423809981803,0.5196217438578605,-1.3496622502803803,5728.893007403401,-0.05479559287428856,-0.6537768760323525,1.1315328085422516,5971.158318292681,-0.08459077399224042,-0.5140034198760987,1.1162291938066482,5768.321292123792,-0.10886987294561683,-0.026954504141728428,-0.11354332116790172,14.805914254590252,-0.12624941952065355,-0.07077421185519335,0.03647651420801098,15.065148722648766,-0.0011459374940391708,-0.04143645743626758,-0.019449811038341355,15.348680144101623,-0.0012307232121427432,0.01156210618547277,0.0280136992723219,15.082151932955,0.18145524516701697,-16.206304130554198,17.126501307487487,-8.241455497741699,13.346589088439941,16.115662217140198,37.076098918914795,-1.046270833229646,-36.80003643035889,9.304887821674347,-23.43347128868103,7.69232705116272,25.07963858604431,-2.2904191341996194,-25.744878492355348,5.681134971380234,27.0
1.8165717124938965,0.15125024318695068,-0.020058751106262207,2.258186129370241,0.009915404751945382,0.15377882623070693,56.04014935803326,176.6736455613069,-2.9741176738186823,9.476731909815266,-0.2606310120224953,0.7020820528268814,-1.479446616768837,5794.659417552324,-0.022390966801904142,0.478928589373827,-1.3530742812156678,5736.758031575595,-0.05979876717552543,-0.6664198762178422,1.143582592010498,5979.178213137132,-0.09114758294075727,-0.5332862776517868,1.15342871427536,5776.233567911411,0.01718788423242977,-0.0038342453221308272,-0.019964554941967267,14.844431896983844,-0.0056762525604859455,-0.04617183652390537,-0.061472502328908725,15.122511430874315,-0.03548309790050861,-0.007163379085541564,0.06013715308583373,15.41207231561412,-0.04087763971519788,-0.039754959928175536,0.04737671518011291,15.139636329000234,3.363577993288636,-15.158020663261414,18.778380966186525,-8.374415926933288,13.638126544952392,16.50365165233612,36.59535438537598,-1.3351751694540144,-36.274362602233886,12.987272372245789,-22.702305879592895,9.310488426685334,24.272598371505737,-5.8045073476433755,-26.756028280258178,4.56311340726912,27.5
1.8530988693237305,0.06760895252227783,-0.14496278762817383,2.279681117326257,0.017341742859843516,0.15709707513145543,57.16224630594885,176.61521089085437,-2.981541081407791,9.870664462141693,-0.2478706895560026,0.7003119841217995,-1.479274999499321,5802.4091883175715,-0.01960259722545743,0.4557036405801773,-1.36543851852417,5744.579167716682,-0.07472164414823056,-0.6591938683390617,1.1666071653366088,5987.260758376633,-0.11156654577702284,-0.5386625227332115,1.1647297132015229,5784.1467183190025,0.0011119088439540713,-0.024031593188103502,0.012192065736597644,14.86800184734801,-0.02544784937326976,-0.05606224090245168,0.03610422843161791,15.08599771067454,-0.008595916270034898,0.01927707225206803,0.012364725039423008,15.501804391340597,-0.01757862691830534,0.026016591554971186,-0.0018911393390909808,15.193489209288261,2.871281148195267,-15.166955032348632,18.072346606254577,-8.456578464508057,12.404827919006348,17.877683534622193,37.67038236618042,-1.3140682105533779,-35.2496417427063,12.317608966827393,-24.34356689453125,9.223768808841704,24.475344486236573,-5.1321388361044225,-26.686564407348634,4.852419526576996,28.0
1.8530988693237305,0.06760895252227783,-0.14496278762817383,2.2828250413297724,0.010177503953444678,0.15810029094121147,58.29352599314257,176.54814747306708,-2.9872987981595283,10.319236252269539,-0.26282748088240626,0.6911529195308685,-1.478147879242897,5810.203506191997,-0.053673270465806125,0.43959180906414985,-1.3491071385145188,5752.4538171295835,-0.07910619303584099,-0.6473318818211555,1.1625953274965286,5995.389217453137,-0.11977034728974104,-0.5215641471743584,1.1731896197795868,5792.130084727245,-0.04667681937777484,-0.011821620717229926,-0.013581433500267501,14.992411324460425,-0.07887726783252552,-0.014483253381546334,0.024191971434946953,15.223549408397503,0.001998448958194029,0.021708827352154503,-0.018240029171297325,15.574176742048834,-0.004640484381917164,0.02869890160544466,0.05307381000505997,15.33213689633674,1.3169468164164573,-15.507834987640381,19.6571258020401,-8.718033034801483,12.13040578365326,18.349127349853514,37.323794765472414,-1.2206173262611264,-34.83855049133301,10.920300936698913,-23.56401180267334,8.640064733028412,24.73646143913269,-5.728162494897842,-28.394611806869506,5.316875419616699,28.5
1.8595187664031982,0.10800790786743164,-0.01396167278289795,2.3093571598787053,0.012522760350549868,0.16087232389129105,59.431009981848284,176.50826297896808,-2.990556804120726,9.919490467708663,-0.2783194900304079,0.6836072924733162,-1.4748549789190293,5818.0343535175325,-0.08199223391711712,0.43101314023137094,-1.3239644742012024,5760.360402024497,-0.0751649409905076,-0.6451450005173683,1.155476095676422,6003.5874185598195,-0.11590447578579187,-0.5111849704384803,1.1835572874546052,5800.20282170258,0.04938939199166272,0.02004061187053125,0.03247864715959758,14.94902612134236,0.04041768941969046,0.0032812529768161567,-0.0060335234971116225,15.16264954021218,-0.0019235903680027916,0.015167179793605635,0.0057901804608136535,15.756129865214403,0.0017573024209775634,-0.022037602349870924,-0.004100743820897287,15.478835306044733,2.373647540542297,-14.87741916179657,21.135748400688172,-8.799720346927643,15.077773077487945,18.406490235328675,35.5860057926178,-1.1767624173732474,-35.01633419036865,11.946795501708984,-23.050294370651244,9.329354271888732,24.168259468078613,-8.374616988897323,-28.952498025894165,4.377288296334445,29.0
1.8595187664031982,0.10800790786743164,-0.01396167278289795,2.2101770352861134,-0.10092070641528215,0.161333775008308,60.54590708410355,176.39897030913232,-2.9852440135331113,9.3281351020771,-0.1555741787329316,0.7408379611372947,-1.3844090676307679,5825.591546181258,0.06179198353886022,0.4996869467198849,-1.421197887659073,5767.911044622088,-0.08564035195857286,-0.6144539973139763,1.1718268901109696,6011.755812474226,-0.12273128896951675,-0.5293612051010131,1.163280581831932,5808.069486254881,0.35403745606385345,0.16012683389507248,0.3347802887954219,13.855933926258913,0.44211173706342266,0.22953954377073857,-0.24880024452078403,13.800528082170747,-0.022708771961941196,0.03502949868804826,0.014121755158193356,15.602115621497084,-0.009015343507811462,-0.011692056245241039,-0.0837123693964675,14.442297379353668,-3.3343595249578355,-20.701569957733156,23.56246135234833,-9.349085929393768,13.228833963871002,20.08842071056366,33.47839883804321,0.28729724665172396,-31.59640027999878,5.291477119997143,-24.504353094100953,7.201400980949402,30.194974241256713,-8.183309259712695,-29.301583070755004,3.7946352470852434,29.5
1.759131908416748,-0.09538674354553223,-0.34075796604156494,2.2230196836769864,0.029434710806025572,0.13539630313601855,61.614232147031345,176.17540432633973,-2.983845906070686,10.940743058980665,-0.09814661031588912,0.78066501557827,-1.365195125937462,5833.0013786246745,0.1339697367325425,0.5449788075685501,-1.453865329027176,5775.26413704862,-0.08038131427019835,-0.6416583094000816,1.1473785942792893,6019.920213179361,-0.11086690686643123,-0.5098285952210426,1.1150104016065598,5815.71349166073,-0.2356473439665272,-0.040416498645823286,-0.33304447894122347,14.746518302767269,-0.3097336315844789,-0.08269072290865145,0.12010765342358784,14.866644378214005,0.05030533793417155,-0.08867026938949513,-0.055969493665503654,15.276790541941013,0.05527504243327565,0.056803109540524165,-0.01220865885211801,15.062174453743317,0.05225992139428854,-18.281135578155517,3.369983610138297,-7.168417596817017,2.4051618521288036,12.28514821767807,44.643929195404056,-3.463879783600569,-35.188902702331546,12.878955147266389,-21.541884117126465,9.02849920988083,25.486820096969605,-1.658733506798744,-25.000293579101562,5.794331798553467,30.0
1.759131908416748,-0.09538674354553223,-0.34075796604156494,2.2548134674764357,0.08023153518756677,0.15235131681797473,62.73978366932875,176.07803835596545,-2.993410791166509,12.14859257127132,-0.3011690931767225,0.7301197484135628,-1.5164324522018433,5840.697527074757,-0.1355544106587513,0.4540673136711121,-1.3058698511123656,5783.2227940711155,-0.052962006367743016,-0.7084195512533188,1.1404845482110977,6027.838979389119,-0.0781871224194765,-0.5287113013863564,1.2125634318590164,5823.7544015363965,-0.36278028249296573,-0.05813641519090966,-0.1509433342563003,14.640591951915685,-0.5024756073568695,-0.2122092979172217,0.46063704607943173,15.540416541331778,0.06621417003494225,-0.10410979371305025,-0.04079130798991595,15.288698171670262,0.08425776728627879,-0.09155635267881435,0.2545274658311879,15.687450101873473,13.303497815132141,-10.057528023719788,11.046218929290772,-6.16342588186264,2.352852772474289,11.287332267761231,42.042423458099364,-4.279144404530525,-36.862674179077146,21.102713813781737,-18.606802930831908,11.178849005699158,19.889971799850464,-7.776996854543686,-29.371861381530763,5.042779069542885,30.5
1.870521068572998,0.18516075611114502,0.22828054428100586,2.267244989652527,0.014765212529621213,0.156503702242264,63.878616633888406,176.1192270972667,-2.996074177702007,7.54129866819499,-0.3608621582388878,0.7575165253877639,-1.5725936424732208,5848.416172055302,-0.22815651908516885,0.43222150951623917,-1.1616810476779937,5791.124866145097,-0.011620504000602523,-0.7050305354595184,1.1545851862430572,6035.793557614378,-0.029916101428680123,-0.5409240680932998,1.2522070080041885,5831.999553570553,0.16911297498328592,0.12912817329512985,-0.09279645843991878,14.76913501190348,0.17320675199232657,0.19936692213397167,-0.12916260005973323,14.518653566052382,0.06776686202831234,0.1339579800550611,0.16862468837980796,14.65821470270737,0.07183431859514183,0.03947978149305874,-0.07617579865227922,15.266881725131057,5.708062212988734,-18.380212507247926,26.94337643623352,-10.372837965488435,18.159898574352265,12.642459592819215,26.740046358108522,-1.4609867042582483,-33.25808895111084,13.735618611834944,-18.213673963546753,7.696259257793426,22.933438177108766,-12.427444367408752,-32.28542415618897,2.614133129301481,31.0
1.870521068572998,0.18516075611114502,0.22828054428100586,2.177977945235961,0.04477546289185616,0.18555837386953797,64.95516216948282,176.1759944792744,-2.996812007743898,14.403532399264174,-0.2940612494945526,0.7535622096061707,-1.5451206523180008,5855.9204191979825,-0.13615014648064971,0.502984764277935,-1.1944734841585158,5798.434158135841,0.017041927826358005,-0.6613742771744728,1.1973590475320817,6043.318072210444,0.00407200006156927,-0.5327711969614028,1.207759912610054,5839.791630791895,-0.18311600290956773,-0.11604903340324349,0.17841081022314711,13.987893620856617,0.3512817748193008,0.21812837476215752,-0.26412963638000386,14.251298007960447,-0.0727433751157148,-0.2601713485965609,0.1018778915043742,14.61771759392822,0.1202537689061203,-0.03264194404528639,-0.09282864212369085,15.66258126925614,-11.427884542644025,-12.989532366991043,32.18193661689758,-8.809773142337798,13.642094931602479,14.047236545979978,25.05198301512748,0.52458938495256,-27.375685873031617,4.7423569268733266,-16.167714168652893,6.040419257239846,26.56799903869629,-0.818033694922924,-35.883085079193116,9.356901783943176,31.5
1.8416671752929688,0.3899245262145996,0.5006158351898193,2.034328373653167,0.12878345651362627,0.1070040346721784,65.96529548542355,176.39130457402763,-2.9908570538918515,12.530084707237775,-0.24317155443131924,0.6685717651247978,-1.4265693366527556,5862.775093024957,0.0076426997862290595,0.5916910406947136,-1.327177209854126,5805.682035357547,-0.07491902457550167,-0.8055020835995674,1.2106472712755203,6050.666028535237,0.0635918946005404,-0.6378951415419578,1.2607561892271042,5847.998751472549,0.5598821212793951,-0.19980732924760997,0.38549690491585303,12.393640594622923,-0.05903097846796374,-0.03171051708615202,0.04165185458707482,13.556549120958362,-0.07105999016071357,-0.16979057901304404,0.0016109403456821764,13.369667681042797,0.0011917902080573293,-0.3439219495744854,0.23473686803944738,14.80666859763218,-6.221624730825424,-4.8563217632472515,14.570258935689926,-4.628536901068873,10.809466187506914,-3.656920779850334,34.43270416587591,-6.61399588022381,-18.925017379522323,9.863876158446073,-17.37198553673923,5.3843113331892525,4.643673645853997,-2.2718465657532216,-31.00268518447876,5.11681570854038,32.0
1.8416671752929688,0.3899245262145996,0.5006158351898193,2.0192085704317244,0.09333142312501459,0.11880587420985261,66.88238351773515,176.8160084622941,-3.003081233107791,12.243180770158617,-0.16085299003869294,0.6139469453692437,-1.3993971413373947,5869.542202339361,0.06646798856556416,0.6474572369456291,-1.4272642999887466,5812.563214232225,-0.08001160092651843,-0.8924627381563187,1.31503790974617,6057.411996206974,0.0205708027727087,-0.7180958542227746,1.285768471956253,5855.4029840565545,-0.21003053151229537,-0.05378381556086798,-0.3326239731925112,13.412127945677403,0.1860536639563591,0.049541984337110205,-0.13214892805542008,12.801672057975802,-0.0604521497541265,-0.0523609902141154,0.22145287768606178,12.414020180532871,-0.13730304451493316,0.023697530020094493,-0.11052859124090891,13.65633485084223,-33.31199236869812,-22.176365814208985,37.589222240447995,-14.214927792549133,25.276877403259277,7.957581285238266,11.85730607509613,-0.22473860297817738,-6.913657143712044,0.15308303686790167,-5.7539954113401475,2.471423306223005,11.953235411643982,23.933619532585144,-37.29875206947327,14.509369962215423,32.5
1.6098535060882568,0.11407738924026489,-0.015229463577270508,1.9783482647972466,-0.03447293944108326,0.15059488993296363,67.71944429917193,177.22879909110773,-3.0202178479670705,10.673658597834045,-0.1470699328556657,0.6283507865667343,-1.4017379021644591,5876.276665741291,0.14004945386201142,0.5501507198810578,-1.378054911494255,5819.232211916222,-0.15928161855787037,-0.8507998168468476,1.379678539633751,6064.097746344976,-0.08558762164786458,-0.729961676299572,1.134226505756378,5862.444506469444,0.29074134141479624,0.14678129165068735,0.32382565603458546,12.427958161666613,0.2606381064384719,-0.19211273490927444,0.07988016356246477,12.705299407381778,-0.20349241088746134,0.19610390658930535,-0.026508040885176016,13.486872825374395,-0.21161858310510243,-0.07014426347186324,-0.35714343088712025,13.175843276302121,-2.130002326630056,-11.406420533657075,32.4049494934082,-8.954360980987548,13.206042843163013,14.954786486625672,22.066012206077577,0.8475134717582842,-20.044735388755797,17.93916559934616,-30.35516110420227,10.04968463897705,29.415041275024414,-2.1375390467047692,-21.339179668426514,2.081594132827595,33.0
1.6098535060882568,0.11407738924026489,-0.015229463577270508,1.9850837966864057,-0.12448331945891708,0.11950185290547534,68.63050974859057,177.41797026341632,-3.017800778803076,10.36932674528391,0.017157935234426987,0.692533384859562,-1.1752650499343873,5882.716717732707,0.318663904517889,0.5292753979563714,-1.403276082277298,5825.738628457424,-0.2182988942414522,-0.8107402670383453,1.3375567412376403,6071.433575272698,-0.15862200669944287,-0.7917238187789917,1.0316278767585754,5869.2377939636945,0.1839223455321289,0.04207598733383007,0.4145245696178101,12.523359023447282,0.25123680063743137,-0.04135462273761914,-0.053653009052777534,12.869909695296778,-0.03522265479442308,-0.019790190076227867,-0.1337369150579557,14.415371774110653,-0.09696643415184036,-0.14764645883497893,-0.08656194423949191,13.196125110884259,-6.96815412003547,-15.646998176574707,21.91810933113098,-6.151910457611084,-4.7884117690473795,12.90668574810028,23.489027032852174,0.08270001920755021,-16.389913854598998,13.238875830173493,-26.76722890853882,8.324422039985656,34.703373250961306,13.805720804482698,-18.063801794052125,4.192180227339268,33.5
1.8138995170593262,0.01831895112991333,-0.18729639053344727,2.1360667521136882,0.015206884380243268,0.12601958868043983,69.64984715925179,177.4986456062627,-3.02198447469113,10.319753897312692,0.03614142723847181,0.740694269835949,-1.0756799679994584,5889.457976240718,0.3580614475905895,0.5045883756875992,-1.4286850315332413,5832.72163471077,-0.23159527279436587,-0.8164125192165375,1.261289489865303,6079.072906458198,-0.20037576660513878,-0.81700813382864,0.9895446681976319,5876.314491198323,-0.06425144905407427,0.16866157184102828,-0.07826655080460507,13.402930572378953,-0.05062372921918181,-0.006640383640278207,-0.06551649580805223,13.871800600612014,-0.0021370818942903756,0.011223880929216107,-0.13228780842813936,14.746568772333081,-0.051637966577370256,0.051762723581146905,-0.07434119778414343,13.80097326816279,-12.086607661247253,-23.09776216506958,10.233145090341567,-6.218613069057465,-5.215538702011108,11.646769976615905,25.94583369255066,-0.9327314058691263,-20.72124716281891,17.19199170589447,-19.799657850265504,8.578015251159668,34.63492307662964,23.866748447418214,-16.287626810073853,6.070428767204285,34.0
1.8138995170593262,0.01831895112991333,-0.18729639053344727,2.2050904372218194,0.07723876283674815,0.1469338763217685,70.73588559838173,177.54335486923156,-3.032567895474404,11.222854342159048,-0.0176682234017062,0.8230483070015907,-1.2435572755336761,5896.762264207111,0.2811217600852251,0.5232608771324158,-1.4821345555782317,5840.056941491424,-0.19066339135169982,-0.7765720430016517,1.2087827670574187,6086.712106862111,-0.19109626099467278,-0.7713464412093163,0.9859425714612007,5883.659415532943,-0.11197503306389278,0.06033666047262768,-0.41710977290876095,14.438812854109667,-0.2011687001294401,0.07623711355981501,-0.17131634453380884,14.250466554420727,0.1370831039776184,0.13223714949745066,-0.05309577737677496,14.35506880022045,0.07062958791309798,0.03133983870952886,0.14449963833427976,14.162600422512048,-2.025266757737845,-24.36938904762268,-0.928241449277848,-7.524491033554077,-0.17739115335047245,7.211370859146118,35.57061214447022,-4.493293186724186,-26.173580980300905,25.040077447891235,-20.233946990966796,12.025093414783477,26.236486253738402,15.766006650924682,-13.120750069618225,4.953256829977035,34.5
1.889768123626709,0.08483338356018066,-0.04615068435668945,2.190795794752069,0.05000233528531457,0.18149202814206425,71.81711246653853,177.57999897263267,-3.03253425737626,12.693268242588159,-0.05429393319413066,0.8279242095351219,-1.352151370048523,5904.30563848091,0.22409889981150627,0.5596248504519462,-1.5718192183971404,5847.423689047166,-0.16822161100804806,-0.7115855419635773,1.2066632384061813,6094.288559476665,-0.19308192752301692,-0.7603537917137146,1.070616392493248,5890.975469661906,-0.02498160578973209,0.010822693516862434,-0.05400081158360804,14.5301025035681,-0.046552891354570504,0.021407588208251203,-0.0252233654627357,14.148067376674847,-0.020715344222699158,0.08371018957491679,0.029559639283964843,14.922058267711813,-0.04929982206929491,0.11199325714545239,0.010443908921470256,14.061676826426087,-2.0036169750243427,-25.992064037322997,8.00458769261837,-8.533317058086395,4.828261828422546,10.25133770942688,34.080239124298096,-2.919620658643544,-27.268875694274904,18.794399032592775,-21.156304149627687,11.741444997787475,26.78272337913513,16.551670951843263,-15.80166489124298,6.649625147581101,35.0
1.889768123626709,0.08483338356018066,-0.04615068435668945,2.2141026323751527,0.06130964656026566,0.174706018760472,72.94090350749802,177.5940353268041,-3.0348629336134434,13.274333423513,-0.08221633933484554,0.8052925986051559,-1.403372550010681,5912.027291483175,0.16204278379678727,0.5522325009107589,-1.5311952191591263,5854.914364253627,-0.15134997859597207,-0.6811519634723663,1.214618604183197,6102.21231976948,-0.19326109118759632,-0.7048558023571968,1.0716485965251923,5898.51820315417,-0.09259434034585645,-0.10338809812357791,-0.08215488295829043,14.881866429098947,-0.1659737350082051,-0.03493321690563989,0.07550849945843312,14.616857961481013,0.04814110712287126,0.022196584475718394,0.009367985546223067,15.29801194375047,0.004204929049011168,0.0612429964229789,0.07913923679595188,14.621261277301098,3.3588515268079937,-22.300851354599,5.2246508634090425,-8.377001504898072,4.8554438054561615,7.972318511009217,39.106458320617676,-4.5067646753787995,-29.06720099449158,18.2893696641922,-25.804879007339476,13.048229460716248,23.500565004348754,10.833910927772521,-14.122636427879334,5.470314887762069,35.5
1.8964831829071045,0.06012678146362305,-0.07667326927185059,2.2119319224136564,0.07071814300777744,0.1668058524944609,74.05997333015603,177.60770081736047,-3.0311577495897355,12.6749475620344,-0.1309029734507203,0.7393354967236518,-1.4141631478071213,5919.743957074227,0.08319988436996936,0.5210678836703301,-1.4778808754682542,5862.514292687704,-0.13292914554476737,-0.6829777583479881,1.2113773488998414,6110.2500928323225,-0.19740847408771514,-0.676841236948967,1.113047262430191,5906.15148700429,-0.0969872618686783,-0.12987286046818353,0.014194684709129492,14.73399359730816,-0.13736282213768064,-0.0969502264024673,0.15295097380446593,14.674185667780359,0.012976663379884503,-0.02223628041962143,-0.030927858640623418,15.465223136038745,-0.025614829072568294,0.07577583462674736,0.03840731749262836,14.585017673541227,3.28673452058807,-19.25731999397278,9.11565009355545,-8.31004162311554,7.166615177392959,10.56765254020691,38.947205295562746,-3.741672649234533,-30.358603134155274,17.130822229385377,-25.74107946395874,11.474492461681367,22.425513486862183,9.598582041859627,-16.73066967010498,5.947965350747109,36.0
1.8964831829071045,0.06012678146362305,-0.07667326927185059,2.2338298086841375,0.05286780551044177,0.15110877296354883,75.17535246181592,177.61659041353488,-3.030995491594197,11.759783976455026,-0.1662790882587433,0.7059165269136429,-1.4005181467533112,5927.381053624979,0.03938975147961173,0.48542415916919707,-1.4168882364034652,5870.12058586498,-0.13140475273132324,-0.6826876217126846,1.1896839892864228,6118.34741500687,-0.21035706877708435,-0.6210436457395554,1.0870134550333024,5913.811448051763,-0.06946935097108659,-0.006098633162592471,-0.06941810844519358,14.61297933899576,-0.09084873844669078,-0.022894657790561598,0.0665881422754881,14.68129761017664,0.040780228605321815,0.008540327660786195,-0.0450293856808973,15.444965785228087,0.020124451862673916,0.09590719140633407,-0.07045787336508448,14.83786964701552,2.989677447807044,-18.627697553634643,11.540305643081664,-8.378237686157227,9.196303124427795,12.796879687309264,37.47241233825684,-3.104892501994036,-30.773164339065552,15.826024994850158,-25.703878784179686,10.749526994228363,23.45221257209778,6.067294804872945,-18.289295167922972,5.166423596814274,36.5
1.8828363418579102,0.15248394012451172,0.058278799057006836,2.2653677078283745,0.06065581292437172,0.1578204665254223,76.32906765222565,177.63810997594845,-3.0361114165257583,10.71816702595845,-0.223337182700634,0.6868853390216827,-1.4717051661014557,5935.148241148546,-0.035166510524322805,0.4643987946212292,-1.3849881505966186,5877.895721764677,-0.10718571204692125,-0.6935419756174087,1.1924982422590256,6126.432166924177,-0.1994286534935236,-0.5921342179179192,1.0982274478673935,5921.687236853616,-0.07624352890044164,-0.045148559124766736,-0.06741904762821797,15.031652877954166,-0.09507193781729803,-0.02944708881774423,0.025073966690618142,15.07393128996531,0.010841222864562237,0.0068844019236286936,0.043883867853542737,15.489073477318298,-0.011762170243317162,0.03702151297108086,0.04636600821861015,15.141639572088,5.458453666567802,-17.024888920783997,15.118539729118346,-8.88112276315689,11.348117260932922,14.029467387199402,36.81758092880249,-2.5107744293659926,-32.53131422996521,16.399299492835997,-25.726508836746216,10.971311383247375,22.863256731033324,4.207932097292505,-19.961180095672606,5.343963625431061,37.0
1.8828363418579102,0.15248394012451172,0.058278799057006836,2.2634875867292807,-0.031190872213597922,0.16928807069877164,77.37025325680953,177.66518368678015,-3.0376878029329664,10.524643348211951,-0.21283588521182537,0.6769819304347038,-1.4660593962669373,5942.941392847407,-0.02778962080774363,0.462903044372797,-1.3928180354833604,5885.659631452928,-0.10227062210440635,-0.667746647298336,1.1978306204080582,6134.564676940214,-0.1985714217275381,-0.5821716102957726,1.1058350348472594,5929.595964172159,0.14278393892916053,0.018142919586969536,0.14020886187157353,14.574391469044206,0.16289344509725578,0.050599202804735316,-0.12274418212400613,14.64602768474291,-0.005124900953137474,0.07649414663116559,0.004448102906879405,15.516118085914595,0.0006784321512317748,-0.03164336308203061,0.030251243949202773,14.93294868442058,4.7345761834643785,-17.13757143497467,18.775448603630068,-9.338708522319793,15.908557200431824,14.570185265541078,35.202846965789796,-2.4635395629610866,-32.91297228813171,14.450777869224549,-28.07850721359253,10.985506064891815,25.10254680633545,-1.3690115501731634,-19.81605179786682,3.7686325726285577,37.5
1.8070905208587646,-0.04693746566772461,-0.2530808448791504,2.2201558972653093,-0.003355138962072084,0.15702056965063993,78.52579588615566,177.60905520887437,-3.027913325112574,12.193070524544911,-0.13539370216429233,0.6936320945620537,-1.373929230570793,5950.41080793777,0.0656373619940132,0.4986089637875557,-1.4420702123641969,5893.07796995651,-0.11477160733193159,-0.6590733048319817,1.1847621792554854,6142.723406138999,-0.20831148080527784,-0.5891222229599953,1.0968934834003448,5937.263305575338,-0.015388856873197267,-0.003968200736882936,-0.012667391606989964,14.415951970385752,-0.02207212120004714,-0.016872459385254047,0.07473326024839114,14.448079624059815,0.016849634665522403,-0.08730355215407261,-0.046105325816796966,15.664881896890195,0.010141039579316032,0.03798464258311608,-0.047575331205313376,14.77974169010339,-1.4035404499806463,-17.942258009910585,12.731971077919006,-8.186243574619294,8.66446984052658,16.711538829803466,38.564512939453124,-1.4465962685085834,-32.0061434841156,10.82132678747177,-25.785547542572022,9.006934473514557,27.435621948242186,6.417617156282067,-21.248053731918336,6.537617934942245,38.0
1.8070905208587646,-0.04693746566772461,-0.2530808448791504,2.280843337304421,0.0411023761284658,0.15617845010681022,79.64205311751807,177.55880537319987,-3.025877485952546,10.950716561049761,-0.20886539198458196,0.6696654433012008,-1.4420647037029266,5958.105444145328,-0.018059268582292134,0.4671460562944412,-1.3957973235845567,5900.80102874581,-0.09871346361935139,-0.7023706325888633,1.1784233701229097,6150.8356781023185,-0.19916763730347156,-0.5695352038741112,1.0967115652561188,5945.152237656409,-0.11287687083173768,-0.0473352598195022,-0.07462983125346881,14.93902039609508,-0.11951064836749667,-0.035274721354213806,0.05992899485976427,15.00005030111011,0.0029170711239954504,-0.01969960670248772,0.008630212078417727,15.487440339053528,-0.005160090487128529,0.055015335385788997,-0.026223213853047826,15.200116014281404,1.9066190296015701,-16.737144985198974,16.111521425247194,-8.749921972751617,12.107153940200806,16.03804846763611,36.36183940887451,-1.6242953784042038,-33.21766309738159,15.436761922836304,-23.920228357315064,9.8532177901268,23.72460076332092,4.847824732661247,-21.919212436676027,6.095394614934921,38.5
1.8616948127746582,0.07103204727172852,-0.08327078819274902,2.2942680957263586,0.009231530102507896,0.15345775937424802,80.77252414278509,177.5282836586891,-3.0211859784732655,11.711833774445761,-0.23442354917526245,0.6548446708917618,-1.4609458476305008,5965.902598208291,-0.04892799638211727,0.4547955945134163,-1.3724851316213609,5908.59319299697,-0.09316117230802774,-0.6899029660224915,1.1780439430475236,6158.942070488811,-0.19625594951212405,-0.5522768405079842,1.0978667241334916,5953.114626274422,-0.053378163224033194,-0.03542040867307541,-0.0304968045886386,14.97509965618408,-0.06885255528720774,-0.017781919432517404,0.030877662742646597,15.08749875082292,0.017724062850154716,0.025179788500060318,-0.01049419669490839,15.55583244104932,0.011864636598926448,0.01468103774254266,0.05289000069551401,15.273280977656448,2.829393050018698,-15.45680124282837,16.258933548927306,-8.629936859607696,12.46956874847412,15.962713150978088,37.017323684692386,-1.8276128847710789,-33.84465984344482,15.024359130859375,-25.528642187118532,10.005505390167237,24.657060976028443,2.634224843727425,-21.245464096069338,5.783562141656875,39.0
1.8616948127746582,0.07103204727172852,-0.08327078819274902,2.258303707799803,-0.004912918311521015,0.13855683550570608,81.89726103727878,177.50467713394912,-3.022667221729348,10.22486348754243,-0.25941533282399176,0.6422498524188995,-1.4744434386491776,5973.696521723072,-0.08383013512939215,0.4561845675110817,-1.3567250329256058,5916.412529025076,-0.08143820332363248,-0.6745011985301972,1.1694657599925995,6167.055962030243,-0.18263072408735753,-0.5378508305549622,1.1357927215099335,5961.068725435903,0.0036682995785864043,0.034475955387365115,-0.06706976958565593,14.629481305100578,-0.018255414409975242,0.03766620755219221,-0.022492969540766974,14.779171300919026,0.055784007428567796,0.0671422188377895,-0.016335962576873257,15.196246651607249,0.0776409824678586,-0.021787787745202264,0.11876813803461805,15.008910717951634,4.12713659375906,-14.952888762950897,17.273175168037415,-8.910113258361816,15.225306596755981,13.99940235376358,37.061265268325805,-2.7477795374579728,-35.10033535003662,13.561934190392494,-26.534343852996827,9.815618413984776,23.78261109352112,-2.1861309898644685,-22.150096826553344,4.393875608816743,39.5
1.6304898262023926,0.1596125364303589,0.09749245643615723,2.291442283343427,-0.007778349794039796,0.1562426424810919,83.10409206232697,177.48223858262946,-3.0093276896274825,12.35929433718078,-0.24802696339786054,0.6242029267549515,-1.454011652469635,5981.359614568708,-0.06967221073806286,0.4595323605835438,-1.3670821619033813,5924.087075877938,-0.07672109190374612,-0.6779397132992745,1.1717744022607803,6175.129328997555,-0.171032270565629,-0.5477400934696197,1.1611073625087738,5968.917327514226,0.028706912639204937,-0.07031523270777999,0.11669487391905146,14.885287757530277,0.04256901066581174,-0.03707539159976869,0.0476241610018608,14.932297237933696,-0.030613282871039944,-0.03117723761839978,-0.0265605392511437,15.817394637069137,-0.0292433201507004,0.040339869284241846,-0.04892640234090635,15.152378859731225,-0.846177335549146,-12.439469995498657,22.228760223388672,-8.438947470188142,16.379295568466187,19.78166206359863,34.54857538223266,0.28679880015552045,-34.752454948425296,14.272814998626709,-23.925985975265505,9.670363986492157,26.014474849700928,1.177884750869125,-26.323250188827515,7.089000520706176,40.0
1.6304898262023926,0.1596125364303589,0.09749245643615723,2.2971161239950773,0.013864538329259405,0.12561883138288985,84.46718106044942,177.44879143593616,-2.9910842669638553,11.197265746986393,-0.24823692709207534,0.6234294632077217,-1.4457389438152313,5989.094734501039,-0.06950395232066513,0.4497800776362419,-1.3429244756698608,5931.86332637234,-0.07649542924016714,-0.6782013255357743,1.1567759037017822,6183.318495393699,-0.16972670957446098,-0.5153965848684311,1.1289606368541718,5976.874241434954,-0.049386455384526025,-0.0030445628431925303,-0.035458887936333096,14.85925706229785,-0.04768517758230345,-0.00958253696202311,0.03142834552646351,15.02517631519391,0.0008548291717138257,-0.030296976416337905,0.0006053261297068392,15.622961709340425,-0.0008394699115351761,0.04990920561009693,-0.03308692020050459,15.276733177451135,0.4837176927784458,-13.5099711227417,19.892331190109253,-8.502463126182557,14.871591258049012,18.048419141769408,35.47694496154785,-0.8294892587186768,-35.1306192779541,11.946567945480346,-23.89031852722168,8.730359354019164,24.94601180076599,0.2643343397602439,-25.345808391571044,6.46345690369606,40.5
1.855527639389038,0.1369624137878418,0.011126875877380371,2.2951175211321684,0.011776083288138004,0.12155946090170454,85.45274810914628,177.4258259160146,-2.9814255290466827,10.968463026146319,-0.2699558189511299,0.6119666710495949,-1.4521618872880935,5996.872091633759,-0.09128719937056302,0.4534460517764092,-1.3387321543693542,5939.674144288653,-0.07231317419558764,-0.6891316601634025,1.159411477446556,6191.467575755955,-0.16517366282641888,-0.5032671134173871,1.1354452967643738,5984.8935296791315,-0.0029433470290066432,-0.008677991340813887,0.015371230404401186,14.911775371310927,0.003921862813183391,0.03931215490107739,-0.0582875564167122,15.047919130334076,0.005663765529051915,-0.003532220353555729,0.009161257866598754,15.624004344896687,0.006058843124941499,0.013635608243689675,-0.0024916470387270425,15.444062454302154,0.5695685680676251,-13.455195288658143,21.716187591552735,-8.949324407577514,16.814378275871277,18.016215777397157,34.24219762802124,-0.6818469953443855,-35.3074974822998,12.617710933685302,-23.592239513397217,8.755557634830474,25.1760325050354,-1.0131140175461768,-25.764671535491942,6.570376663208008,41.0
1.855527639389038,0.1369624137878418,0.011126875877380371,2.2938460933998415,0.0019388282722481935,0.12286028077870645,86.51429355394859,177.39604534334532,-2.9639179952123267,10.748289765047591,-0.2508445741981268,0.6174005579948425,-1.4450995796918868,6004.640703351377,-0.07017734598368407,0.4660415925085545,-1.368480834364891,5947.474634454604,-0.07271716322749854,-0.6861562153697014,1.1633645921945572,6199.655332048868,-0.1675356327742338,-0.5073320403695106,1.1431396555900575,5992.925808927976,0.03304174320238892,0.002991240249307696,0.01718080600095303,14.826533688782703,0.03352474970472563,3.0421332054397358e-05,-0.018439879246407487,14.971757056120902,0.0017177128797390355,-0.0001167276488722501,0.011370931483871494,15.61097454430523,-0.0018161723200023066,-0.010702555183308144,0.048959850180771654,15.249389226885135,0.9482301293313503,-13.685318179130554,20.218126754760743,-8.788769731521606,16.61638934612274,18.109538531303407,35.776232433319095,-0.8178079559770413,-35.48924734115601,13.098796191215515,-24.065705327987672,8.99555234670639,25.131625289916993,-1.6988113085273653,-25.777902555465698,6.283753756284714,41.5
1.8488245010375977,0.09685635566711426,-0.0798330307006836,2.289339517337657,0.012196257545689492,0.11208040258137743,87.70131500268249,177.36404822167904,-2.9428196225871495,11.386913042811384,-0.2541364023089409,0.6082973405718803,-1.436247552037239,6012.387760294509,-0.07216972295194864,0.45788920477032663,-1.3604071891307832,5955.266870989368,-0.07314296197146178,-0.69516919195652,1.1609020698070527,6207.840293229174,-0.17051706947386264,-0.5044379740953445,1.1452833890914917,6000.934237644287,-0.018923159114188137,-0.02514227740846042,0.01775927902327445,14.82096616143946,-0.021114577640243947,-0.020813492459081453,0.031216740570980117,14.99564074550359,4.546224982994763e-05,-0.012446455141897468,-0.022380407782952253,15.646617394849567,-0.0015925113698888433,-0.00039513095722848473,0.002954931169711648,15.328794368178903,0.3262500908132642,-13.524562554359436,20.065967531204222,-8.68458716392517,15.489634885787964,17.761129174232483,35.45595359802246,-0.8802926483377814,-35.43526891708374,14.256842942237855,-23.244615936279295,9.012686886787414,24.549654302597045,-0.6778581422939897,-25.903794603347777,6.675514591932297,42.0
1.8488245010375977,0.09685635566711426,-0.0798330307006836,2.247867556501962,-0.009877408775803821,0.1076928926072463,88.84893512986284,177.31635483806986,-2.920515893509508,12.39407205198784,-0.23873571433126928,0.6126181346178055,-1.424895014166832,6020.018862253571,-0.050136964828707276,0.4574637627601624,-1.376907787322998,5962.935541424358,-0.07829186484217644,-0.6938355875015259,1.162302428483963,6215.9246181036115,-0.179428538903594,-0.5220407605171203,1.1536257249116897,6008.852927535132,0.0906920805166573,0.008784120411085177,0.08928275703033811,14.572762469331794,0.12113008234072474,0.019394009138318718,-0.07079907622748854,14.604757249909582,-0.029269719055181675,-0.005756683078557012,0.02116421631101766,15.557729711630982,-0.04552798420812542,-0.04842628025773972,-0.025350267165127668,15.092859678118284,0.5792879676818847,-13.711052174568175,20.838916296958924,-8.68503148317337,16.916999592781067,18.97368739128113,34.49707715988159,-0.4237859056983143,-34.80002178192139,15.948040871620178,-23.218238554000855,9.875456120967865,25.68052195549011,-1.3146628909930587,-25.74768627166748,6.250884304046631,42.5
1.8675875663757324,0.01387864351272583,-0.15778493881225586,2.2618581190803995,0.01406440049441875,0.0891828255400791,89.94654379522368,177.23710270044066,-2.8935171429651287,10.807180919124828,-0.23185832627117633,0.6200200727581978,-1.4223589187860488,6027.649535578111,-0.03881115321535617,0.46706684306263924,-1.3753569066524505,5970.584972987643,-0.07073473256081343,-0.693328415453434,1.1473366469144821,6224.046626558703,-0.17133451230823993,-0.5187113022804261,1.1448033022880555,6016.782800966091,-0.13107573898570202,-0.004644322776620777,-0.10426162817038012,14.596705320838112,-0.1449919415817147,-0.008544237005858485,0.07410926343493346,14.926469868626059,0.05986190984820046,-0.027067261353200783,-0.029042515881055615,15.273497732337564,0.07399799329114816,0.04231279373567201,0.05969546075172756,15.191308903272256,-0.6217470996881457,-12.668827044963837,15.791510877609253,-7.73412303686142,12.321050391197204,16.4013707113266,38.57421556472778,-1.9369829730864148,-35.729962005615235,13.482145640850067,-22.45304956436157,8.587269016504287,25.023036460876465,0.9985097149270586,-25.857467231750487,6.9738814687728885,43.0
