junja94/rosbag_plot/data/0421_mission2/motion.csv
command_linear_x,command_linear_y,command_angular_z,linear_x,linear_y,linear_z,base_x,base_y,base_z,cot,joint_position0,joint_position1,joint_position2,joint_position3,joint_position4,joint_position5,joint_position6,joint_position7,joint_position8,joint_position9,joint_position10,joint_position11,joint_position12,joint_position13,joint_position14,joint_position15,joint_velocity0,joint_velocity1,joint_velocity2,joint_velocity3,joint_velocity4,joint_velocity5,joint_velocity6,joint_velocity7,joint_velocity8,joint_velocity9,joint_velocity10,joint_velocity11,joint_velocity12,joint_velocity13,joint_velocity14,joint_velocity15,joint_torque0,joint_torque1,joint_torque2,joint_torque3,joint_torque4,joint_torque5,joint_torque6,joint_torque7,joint_torque8,joint_torque9,joint_torque10,joint_torque11,joint_torque12,joint_torque13,joint_torque14,joint_torque15,time
0.2384631633758545,0.08988296985626221,0.013207077980041504,0.010878881764695874,-0.041195310831236426,-0.00998207583603519,-46.17981997580188,112.79671493764052,-0.9196885640065103,18.27286512975188,-0.3118670499324799,0.9541052776575089,-1.5777654349803925,4.791327989383497,0.08401253413408995,0.8212796753644943,-1.4110520392656327,-0.3497099648287664,-0.06836077699437737,-0.6610275715589523,1.4238139224052428,6.524127753796867,-0.01186270518868696,-0.6178856810927391,1.3298746180534362,3.217727501891023,0.03665567088556956,-0.21444691432243887,0.006034694315541892,0.8213734394878397,0.049813369368045105,-0.2700420852424652,-0.040793896571523686,1.212419017853791,0.06572701512782309,0.03101645762292097,-0.005122273647722513,0.03740499068672985,0.03667487125477436,-0.004324614924313052,0.09382667508807455,-0.0004034315188125179,-4.317634882926941,-21.823359985351562,21.781359577178954,-9.41977178812027,16.597030396461488,-6.739916192889214,24.53102876663208,-4.283066160678864,-12.766639943122863,5.390201675891876,-27.394567403793335,6.8267419409751895,9.50093537569046,3.7676708140224218,-22.01978509902954,5.174822438955307,0.0
0.2384631633758545,0.08988296985626221,0.013207077980041504,-0.011600473865853868,0.01401789011224945,-0.004032623367571567,-46.18972767817423,112.81003185794256,-0.9240857287642217,20.09924432334243,-0.32285874381661417,0.8436785510182381,-1.5933084976673126,5.0376691570474055,0.08016619797796011,0.6559168994426727,-1.3954465472698212,0.09488384421708076,-0.051025954745709895,-0.6866971844434738,1.4195598822832107,6.466460038059317,-0.0029843117861310022,-0.6154402980208397,1.3353730994462967,3.096845465906502,-0.07166769729736265,-0.15918725359121377,-0.07851477913660106,0.3248536235812703,-0.053185246374618744,-0.27472305253702006,0.04221522236592042,0.6318060307961182,0.0010178811826693206,-0.06520704638179961,-0.006007717844221672,-0.12588374320155934,-0.0075722027310378606,0.023741187998197875,-0.044093244515919255,-0.23619052156970036,-5.173005313873291,-16.867424883842467,24.406665363311767,-9.429273438453674,13.99553819179535,3.9266172295063733,25.052542810440062,-2.7546040642261507,-9.301148643493653,8.251111779212952,-26.379750957489012,7.24451325416565,5.982905397415161,9.868412322998047,-24.682154607772826,7.219153201580047,0.5
-0.04189586639404297,0.04153025150299072,0.06600916385650635,0.03691470973685163,-0.0025548964992107015,-0.0008863067722435407,-46.18499860204273,112.82757321577752,-0.9299818897460309,18.49325914322944,-0.370363253057003,0.7882861441373825,-1.626399703025818,5.227357667205647,0.040046247327700256,0.5588872200250625,-1.3849955695867537,0.42334313801410056,-0.05753362845629453,-0.6902772322297096,1.3972699439525604,6.456629629289164,-0.011910162705462427,-0.5914355370402337,1.3206115281581878,3.0538499449663585,-0.10465379897041666,-0.08411059789939739,-0.019133939157184875,0.3781677109066316,-0.09954905589172414,-0.12693340173767348,0.013943210904438046,0.6373981627517826,-0.02057890920727505,0.030699157088746768,-0.08845947931796636,0.11025420981099814,-0.024099772999891106,0.06614795391491601,-0.007286622436020848,-0.0004551162164495891,-3.3013745486736297,-16.291623301506043,25.981846427917482,-10.605014204978943,14.701674737930297,7.375473892688751,26.078591289520265,-2.70966226041317,-9.543367934226989,8.135887551307679,-27.77387851715088,8.0474800491333,3.773095202445984,7.848034524917603,-24.63681565284729,7.208927960395813,1.0
-0.04189586639404297,0.04153025150299072,0.06600916385650635,0.03114845771664016,-0.0132586983292527,0.0034263021398160537,-46.17127927921342,112.81118176092188,-0.9253171405920096,23.921601053659394,-0.42117600843310354,0.7541521954536438,-1.6192816698551178,5.402448335319341,-0.013156162604227575,0.5166424670815468,-1.381462282538414,0.723345337375485,-0.06649291589856147,-0.6828961476683617,1.344481227993965,6.5994703736755165,-0.021968642817810177,-0.5518474468588829,1.3295825606584548,3.054316268010245,-0.07769944035734051,-0.04537872859887778,0.026443633555586515,0.2531486505768018,-0.088691869628508,-0.05378682013505669,0.001046418623688283,0.4781472997347828,-0.01351104420747854,-0.018145007026394055,-0.08352537608329115,0.37063647880546113,-0.013908344163835488,0.06716703847965765,0.027687082916902552,-0.0002233917114395496,-2.4114753222465515,-16.484019875526428,25.402615842819213,-10.58982594013214,16.035202674865722,9.576400132179261,28.93460347175598,-2.381458746790886,-10.648177933692931,7.897951376438141,-26.909751968383787,7.686732506752014,1.7895128273963927,5.1646659111976625,-25.80699058532715,7.725515558719635,1.5
0.027736902236938477,0.04163944721221924,0.08756184577941895,-0.45568929271946423,0.27456770678419123,0.018532685331952334,-46.23818111779088,112.89735129330705,-0.9186065858174609,62.31037911959504,-0.35544540936674823,0.7690016067028046,-1.5861192804574966,4.878042606930468,-0.2262102805636823,0.4646873752772808,-1.075014603435993,0.11553441829443722,-0.03984167691320181,-0.7362990576028824,1.2538324338197708,6.100277385336182,0.0005219129704346414,-0.6236179742217064,1.3189589041471481,2.453860118312063,0.6817940833097351,0.12941022811133465,0.4722915268076233,-2.8162140443085635,-0.666488829577367,0.1820023421880543,1.0516383959075974,-3.994682894315647,0.12497503757029951,-0.2591285432230741,-0.1641017473921172,-3.1985172236710535,0.127930169812859,-0.5944272025765014,-0.1497396710002352,-2.5796344133779803,-8.037808328270913,-12.151661486951634,12.382470133453607,-9.93873805295676,22.67217701509595,-1.664840205386281,36.8510735821724,-9.785148267794867,-13.295296258507296,3.59273125089705,-32.85246625006199,3.4516342438058927,0.715835333429277,-9.781421596594155,-21.734507456421852,-0.6383657200261951,2.0
0.027736902236938477,0.04163944721221924,0.08756184577941895,-0.3845125414396364,0.475597619965983,0.03433796457988291,-46.44722176067775,113.15382331519777,-0.8764538430474822,34.90506889955279,-0.20951601559529082,0.847388148009777,-1.4692116075754165,3.00521848086519,0.10376373632985633,0.805287204682827,-1.3643292626738548,-2.216517377074676,-0.120956665565609,-0.7251080650091172,1.1682269459962844,4.1700787675562285,0.027198798290919514,-0.7284535816311837,1.1288566160202027,1.3244343028345815,0.27577805110082443,-0.13136580313115404,0.5129439453444874,-2.99517086485338,0.590984250919814,0.388822765546719,-0.5327317205645311,-2.996163831196539,-0.3913511720741123,-0.024657780063193576,-0.030979808286500373,-2.339171079402224,0.17326401702718408,-0.21955493715033275,-0.27843492600200925,-1.2538418731465162,-4.981280412375927,-0.7641322460770607,16.657903461754323,-3.0258289248235086,0.9971943706274032,-7.543081852942705,24.68029942430556,-3.112695694703143,-8.343273039907217,7.324491457939148,-24.351415122896434,5.617173163373373,13.28020785242319,5.143091809302568,-18.78736611073837,2.8406077880878002,2.5
-0.42403995990753174,0.4837179183959961,1.1836543083190918,0.2461141568131924,0.5629479335657026,0.029440825237321805,-46.57051533842419,113.48063256690725,-0.8775609347344705,29.59931296355025,-0.21200861439108848,0.8575964307785034,-1.389270115494728,2.618709438583599,0.2503032465768047,0.8255434238910675,-1.4166960108280182,-2.5536758530748664,-0.22699728526175023,-0.8233293345570565,1.2298593086004257,3.971797639297183,-0.003280082397732258,-0.7487794253230095,0.9844143387675285,1.6824865221981347,0.14862538557466562,0.16537684175468326,-0.5252007962691263,2.652740130590859,0.29475805947684897,-0.03112525286687762,-0.2553387841175535,2.1448820068568026,-0.2592226844757573,-0.10282955519557728,0.11326313229517342,2.1156708354976934,-0.3781833990996737,0.4235178425974576,-0.1510940897354749,3.953859906716593,-5.047276892662048,-3.1571083772182464,19.355021566450596,-2.009243059461005,-4.620154632180929,5.405044744461775,20.161040170527993,0.07850749924546108,-8.480257980525494,24.14149739049375,-18.645825592167675,10.116625256012194,22.368880369663238,12.61747892677784,-16.485358013771474,4.781034363135696,3.0
-0.42403995990753174,0.4837179183959961,1.1836543083190918,1.5327505906197456,0.2324216208379195,0.08624244493612823,-46.606768185760785,114.10641637590751,-0.8813621727243924,25.421370696079258,-0.10567150467541069,0.7806936594843864,-1.226013204753399,6.463587329467811,0.09535967842166429,0.6308668747544288,-1.2173035526275635,1.24533492618119,-0.358367882668972,-1.0127880737185477,1.2568843322992325,7.5722214584922165,-0.04560608905740082,-0.7775252693891526,0.9946214264631271,6.248118944541743,-0.5443297732479135,-0.19249381067575996,0.11783870620413524,10.708665838366136,0.08848705928729307,-0.4204015055536592,0.17007979283416272,11.650772911433792,0.0694682116904729,-0.28225905906444737,-0.11757640770574826,10.682003056163468,0.10966798972166031,-0.09542167235601012,-0.06138426735708036,12.564610099762643,-8.575978143513202,-1.6810266849398614,14.574346177354455,-0.22561881887027993,5.403715071380138,10.993157074749469,17.619056066423653,1.3899444004148245,-6.50012292176485,51.443288536071776,-9.556180985346437,15.262428984642028,21.41385474205017,19.419801312983036,-13.78156964763999,6.019657117687165,3.5
1.1379528045654297,0.6177911758422852,1.078902006149292,2.065257284252095,-0.10699668666923456,0.07988668984922356,-46.66056666057491,115.00140964978469,-0.8781378804026536,9.407433956661116,-0.036342282972182144,0.7285993111133575,-1.2852658545970916,12.49832868692103,0.07811653565615416,0.6050562089681626,-1.2384628969430924,7.809275428595302,-0.25396922245621684,-1.0134871125221252,1.2613017213344575,13.72863058452814,0.028256525987235364,-0.8022116932272911,1.0909801095724105,12.928326254939886,0.1898523539558527,-0.06343537206855221,-0.15431912174938803,12.123696080429943,-0.06523139030977233,0.13579731320570976,-0.3303977438178308,13.228457730756874,0.2142528941216787,0.1619612048675826,0.12488717023453891,12.513236955344626,0.15818125917258255,-0.06437234639256226,0.3499345956852766,12.40371300808707,-4.141229746863246,-4.40991647541523,4.255600256621838,-2.558123896564357,28.743928761482238,-0.23693181186914444,33.599214706420895,-4.216287952214479,-21.279252433776854,49.09114362716675,-24.775974488258363,13.600543265342713,12.03293449640274,-3.4676696007885037,-8.639772606343032,0.9948893343890086,4.0
1.1379528045654297,0.6177911758422852,1.078902006149292,1.9857889158515116,-0.0393541900394452,0.11836740984517975,-46.691421234932065,115.97735890717883,-0.929402946678659,10.075452743526727,-0.04235009478870779,0.7029066878557205,-1.3432253992557526,19.13569221726422,0.11682666163891554,0.6338137945532799,-1.405101872086525,14.752533857861886,-0.23392596490681172,-0.9108220905065536,1.344907624721527,20.450760346495866,0.02493725529871881,-0.8181529891490936,1.2078034156560897,19.47028597925298,0.07178997531135756,0.015382406039214112,0.2031577956407456,13.07129224309016,0.14741439645105686,-0.07615072214052661,-0.16297494173650467,13.292271119811621,-0.11379798466757485,0.08922617447934494,0.16325377405870822,13.380671420582262,-0.20211786438414317,0.024121645182208606,-0.0003527713893843748,12.744060341525174,-10.886177916973828,-17.73394531354308,19.834847428053617,-8.412047505378723,21.205286316871643,9.792300656139851,30.4595885181427,-1.2012085235631094,-16.363235545158386,18.021577327251435,-26.788705797195433,8.388397730588913,16.55884780168533,4.948005711734295,-18.823467715382577,3.641737788580358,4.5
1.7735018730163574,-0.013861417770385742,-0.15557360649108887,2.0013009322138813,0.00046979726842683603,0.1104379771657206,-46.63374565659179,116.93990751509943,-0.9424021602976146,10.30408306253924,0.0015272696617466862,0.7088877749443054,-1.253471468091011,25.94565201540425,0.19542460292577743,0.5748546421527863,-1.405760407447815,21.573039895633407,-0.2501499693095684,-0.8905027174949646,1.3608678609132767,27.687488426558925,-0.05150256743654609,-0.7944265016913414,1.1577906066179275,26.221441739920348,0.028302945303239138,0.00653067995723185,0.148313408810652,13.10382226711542,0.1012686965044543,-0.06922278173058329,-0.01246892315803956,13.267512382273729,0.00400727537594234,0.05316131135346138,-0.08416839480640577,14.165995869012322,-0.10428198623242467,0.04856961084075393,-0.0979463652843892,13.167483484477055,-8.854752713926137,-17.58785542488098,15.290936836488545,-7.026340074539185,14.422470240592956,14.362191615104676,31.96694122314453,-0.5365313717885875,-19.48138979911804,18.10038297176361,-28.98526421546936,8.83242880821228,23.25091739654541,8.490548621807248,-17.346527800559997,4.559892000854015,5.0
1.7735018730163574,-0.013861417770385742,-0.15557360649108887,1.9515771904494414,-0.020942878824324503,0.10110050978880959,-46.44438963232303,117.95005273791264,-0.9417255926969659,8.19047258106939,0.03651281841564923,0.7546001651883125,-1.170210337638855,32.67887949545542,0.28437140353024004,0.5817015910148621,-1.4453662359714508,28.35764206069971,-0.24898186661303043,-0.8498582175374031,1.310000575184822,35.10437060713001,-0.07077895402093418,-0.8121313977241517,1.147903143763542,33.03290284311003,0.033338066616656226,0.24962951862854496,-0.19537094982584552,12.15045549643145,0.37283759053405857,0.25151393523662063,-0.16417174454144048,11.927581781925992,0.04467070847464719,0.14288686050156008,-0.024195749467700013,13.676448163253754,0.3116352238007267,-0.4386834107342013,0.4720440430270525,11.902191527667258,-6.589898571260274,-21.03185482263565,8.086521614035592,-6.615869923830032,15.468199143409729,5.530760741531849,36.50103417396545,-5.262020242244471,-20.674887018203734,19.713039979934692,-30.035847072601317,9.04741103887558,21.837185001671315,-2.9289616450108586,-13.965787730813027,1.0180370037071407,5.5
1.7909388542175293,0.024442434310913086,-0.24964869022369385,1.3282670282482159,-0.20489173794228388,0.03174956663451414,-46.072898504477706,118.68304605788498,-0.9687592046652524,14.360860128593966,-0.07488139443623368,0.9122627139091491,-1.366089387536049,37.6372887696273,0.232187650888809,0.7206717464327812,-1.513234337568283,33.207596898918084,-0.19499197274446486,-0.7979628074169159,1.3901788783073425,40.891710455170106,0.12307643514126539,-0.9940101101994514,1.424541488289833,37.81235804589951,0.01504678574648178,0.3959369951061894,0.06284456739815295,6.865573236342548,-0.5439461771856664,0.1203576541127769,0.09784339226554971,6.307957512801628,0.23485757281543068,-0.13003128755047685,0.012866290192866725,8.358054795561136,0.09522126559717096,0.13724516758825625,0.13296531606976075,6.563575613350479,4.150993910431862,-27.62180735857226,27.4120711427927,-7.569845733251423,-1.1973211927711964,1.3405764423310758,21.01468103768304,-3.7082794468203613,3.6653325727581976,-6.7199409524351355,-26.534343055188657,1.611221194267273,8.16871147904545,-16.08885787501931,-29.278062382228672,-3.349286184804514,6.0
1.7909388542175293,0.024442434310913086,-0.24964869022369385,0.4173478369612754,-0.2537156707657423,0.02355976881321326,-45.76953109686304,118.94798549203122,-0.9646251142938541,26.16143876843804,-0.2834429859180818,0.9234559813141823,-1.5057717621326447,40.08826138632021,0.18737491922875052,0.8082996794581413,-1.4694128209352493,34.98312521319142,-0.1141176275536418,-0.8147507894039154,1.365010927915573,43.968212740495545,0.26963188469409943,-0.8830976623296738,1.461741236448288,40.03867534874477,-0.42320855100982463,-0.19824868305330912,-0.18263552038595002,1.7763861822306615,-0.1514312223511408,-0.011601925353282163,0.33135099450304717,0.3490047167694735,0.0070634451990388555,0.004660062975425209,0.005698106033909722,1.7454505079892115,0.3882245767270947,0.3698896682780108,-0.017483229325717456,1.1524293122384983,8.891614135503769,-26.171012083739043,25.060697380900383,-11.14567066332791,4.880252558887005,-6.1061720497906204,23.375954661518335,-5.7555267815664415,-5.193505003787577,-8.247767624258994,-28.246618458032607,-0.992706100679934,4.142718656361103,-23.609313355237244,-29.36218026932329,-5.705486069489271,6.5
0.8622634410858154,-0.5078530311584473,-1.146164059638977,-0.6106813727018864,-0.138565509347096,-0.032423368900939956,-45.76762553061146,118.88276179485302,-0.9559636949626357,15.5268261355907,-0.28206192411482334,0.8984380739927292,-1.4022682005167006,39.28039938693133,0.18976349534466863,0.8326923707127571,-1.3604288733005523,33.68412469007208,-0.03798663829482393,-0.7009042444825172,1.2511286681890488,42.79747816500802,0.3190061739087105,-0.6696950441598892,1.4183436024188996,38.75067178259294,-0.10231264472149144,-0.16336783244852476,-0.011059272327174715,-3.7616673436037105,0.42404473183276764,0.21218331009430508,-0.24757907894402767,-4.001123522502355,0.21308253120597115,0.5285813545623849,-0.23785712374611911,-4.398214204442626,0.0363677988651044,0.22894750516027038,0.0035715661837969663,-4.677198072937878,-10.165816753506661,-7.948441077917814,10.538657203018666,-5.404537273622118,21.472608103752137,-16.958156526088715,37.70574085235596,-9.286475796699523,-16.231589322090148,-8.906668350100517,-29.817679395675658,0.3582211421430111,-6.054884141124785,-2.048192778341472,-21.66762081027031,2.3727391677349807,7.0
0.8622634410858154,-0.5078530311584473,-1.146164059638977,-0.5878792659944345,-0.07901622149168558,-0.033693492986021104,-46.01278844026137,118.70824739209118,-0.9592052353012359,7.263788386963823,-0.24423156015574932,0.8132059028744698,-1.4108868944644928,37.41542998215141,0.3170142765343189,0.8272290030121803,-1.4425057184696197,31.5992104178569,0.055860031759366394,-0.6025922533869743,1.208038191795349,40.46436562529463,0.3806626157462597,-0.6569556930661201,1.5142020630836486,36.343127004645865,-0.02043153470245537,-0.16513499196812023,-0.08451243946812698,-2.987619985146031,0.13529239337630175,-0.09243441533236839,-0.11001577708641914,-3.7441372111465063,0.15854307371100848,-0.04681513004155204,0.011428216083795503,-3.845817733873547,0.10624135288873343,-0.12384508479376038,0.2273108224360444,-4.0108503778321465,-9.093494818210601,6.076022884957492,8.103275877833367,-0.276808346263133,14.923744072914124,-9.799676810503007,44.74422045707703,-8.342271964550019,-11.126749322414398,-2.878005925938487,-28.40734768867493,3.2989166650176047,-17.185341045856475,12.738226881027222,-23.223051843643187,8.004103078842164,7.5
-0.5065312385559082,-0.05625748634338379,-0.11154007911682129,0.06198148821149048,-0.025267498796478726,-0.016937680813366215,-46.18504939721135,118.61877842675867,-0.9805589364980126,48.82444338236644,-0.2050668717548251,0.7056321391463279,-1.367087908387184,36.961128548337136,0.29419559214264157,0.7764629861712455,-1.491211649775505,30.73647023518353,0.06919188330255566,-0.6889651995897293,1.2404541957378388,39.605594675958464,0.3909085285663605,-0.7090414109826088,1.5632079613208771,34.999562000842054,0.35180066727540293,-0.4437171320406243,0.4112669556991942,3.690321499932028,-0.4985505269197392,-0.33800871178517333,0.05118279258675027,3.765122424106458,-0.18624028738047269,-0.48326029119033315,0.3249679334871787,3.429412073657258,-0.0849873075612338,0.1480626971520537,0.038808406488509244,-0.7920869408013,-0.17530188262462615,21.830686969757082,23.854666666984556,5.683825740814209,-1.4503112667798996,1.098597807213664,26.02802585117519,-2.0716094342339786,-14.4517729139328,10.839667095467448,-12.40619752973318,8.816562020778656,-8.376685571968556,31.44756757736206,-36.18701981544495,21.610002863407136,8.0
-0.5065312385559082,-0.05625748634338379,-0.11154007911682129,1.6484236850431595,-0.14203907757232237,0.025015889081589013,-45.74921003673996,118.64546504038975,-0.9481664747343197,27.170789844246684,-0.13660314999520778,0.482037298977375,-1.1966526955366135,41.466542489446034,0.15937197975814343,0.5822221836447716,-1.3763790428638458,35.09773550168791,-0.01496961559081683,-0.8954208043217659,1.2900413244962692,44.2484620160581,0.3075458973646164,-0.6808373770117759,1.5602296394109727,37.68039179842749,-0.12912777335990339,-0.20299893114814083,0.050730991864320535,11.16303037748849,0.23994140673742806,-0.16712366705042375,0.055198393956132144,10.358595219898561,0.03452131895782371,-0.003699256457794225,-0.4426092550603393,11.632160431444074,-0.11213134957647453,-0.2393332075653503,-0.18842363947084143,11.55772054527749,-6.290390973538161,7.516320759803056,20.10562627017498,-1.406698794849217,3.609008099399507,12.8835795160383,27.94167423248291,0.3725392443872988,-21.26064434528351,19.534089455604555,-11.46971935512498,7.735280748009682,8.005786166545004,26.070236120224,-40.04720514297485,24.23908986091614,8.5
1.1561248302459717,-0.09276920557022095,-0.8084758520126343,1.9536467666962463,-0.007717492854757388,0.020499477978139877,-44.83965157966701,118.70636026567479,-0.9376648689988082,11.575325200410747,-0.16225610304623841,0.5187015961110591,-1.285248476266861,47.68000811327891,0.2871308910101652,0.5843479466438294,-1.46989206969738,41.149724696065014,0.028411122658289968,-0.8230340459942818,1.11715234041214,50.815365324092,0.2542129810899496,-0.8031905645132065,1.4737755566835404,44.64547290016294,-0.1512596715850959,0.26124827633285136,-0.34422196026109275,12.400485061103543,0.2613764891865438,0.07881873142434428,-0.15604536727339918,12.204763553560337,0.04336902667512974,0.1877540897082178,-0.008940766541297631,12.715630899814665,-0.20504050811603147,-0.21637675003303852,-0.010029797755430406,13.562957393610366,-6.167774127274751,3.8793829599767924,14.53126954935491,-2.362150484076701,5.458965699151158,0.7959943321160972,36.54143052101135,-6.4162789714336395,-17.115422716140746,14.41108835697174,-15.007925899028779,5.345279477238655,0.4431023686565459,10.631086222082377,-32.54049661636353,9.362258078195154,9.0
1.1561248302459717,-0.09276920557022095,-0.8084758520126343,1.883010531577093,-0.127626541290151,0.03525056564973325,-43.89175864050313,118.65214483594418,-0.9404580949849237,12.057914653534995,-0.10772332416847348,0.5749790385365486,-1.3089891052246094,54.1062818225976,0.28756040647625924,0.5248450677096844,-1.4884598296880722,47.62789015914504,0.020368509120307864,-0.8044497483968734,1.1693396866321564,57.50879510696345,0.17482192285358905,-0.878459769487381,1.4555241882801055,51.51209763776666,0.3988350840112023,0.004284647700294905,0.17489996009990721,12.248714108493584,-0.16632666514029318,-0.14823607288304505,-0.06404449076851663,12.531498637097645,-0.013778979945098437,-0.08735256662305904,0.06722834809874467,13.037469312945223,-0.030361241557360873,-0.06264396653702653,-0.004588582418392066,12.753512751113844,-0.6682134319096804,-12.046014329344034,35.17268367767334,-9.609782876968383,-9.219755417630076,6.269524682164192,8.195419640410691,-0.5093561824643984,-16.19714647769928,1.6793696346879006,-6.616969813406468,2.5672325964085756,19.5115180683136,27.60020405769348,-39.37318628311157,14.22983327627182,9.5
1.761758804321289,-0.022439122200012207,-0.26228904724121094,1.9265444149888418,-0.017514706734682074,0.05199271117870172,-42.95657238533303,118.4693199358442,-0.9384497616267881,11.949570980585623,0.0071947296175494556,0.5281815969944,-1.2152619177103043,60.694058562606244,0.28548581779003146,0.5263309943675994,-1.5500378948450089,54.12275681558272,0.03399337457492948,-0.8036143264174461,1.1753113055229187,64.25864581175406,0.1698618917912245,-0.879578018784523,1.5237567299604415,58.17641386032268,0.007025608015684416,-0.11825702277055088,0.14018668249962213,12.859867066626267,0.018414745728638438,0.05107727025321876,-0.004458853915250583,12.597601408588735,0.031808858966440354,0.07958004863697064,-0.005561424020738259,12.834206947596371,-0.05034494040038276,0.0776185706704087,0.13587314737963901,13.02338435727723,-16.61453754425049,-6.71724609375,18.59328059196472,-5.947087152004242,2.9079741893708704,7.232341170310974,31.840434436798095,-4.825834919512272,-19.888979473114013,2.4672443342953922,-9.30659877061844,2.60805950820446,11.35486620903015,22.066170349121094,-40.93498233795166,14.13888093471527,10.0
1.761758804321289,-0.022439122200012207,-0.26228904724121094,2.0013337691300275,0.0794997677529835,0.0762098034579134,-41.94833897090344,118.42045970018378,-0.9489323991625424,17.111263994319277,-0.11855718408245593,0.4913796001672745,-1.2542563128471373,67.5744388534774,0.16583938725292682,0.5723066747188568,-1.4994116145372391,60.88307757029504,0.014030292071693111,-0.8031731852889061,1.1808075135946274,71.10224883084419,0.14376732014119625,-0.7918393477797508,1.4958298820257188,65.42815245172477,-0.46283584553336693,-0.06495643107366794,-0.21250659125739113,13.516572371219354,-0.4015179152637895,0.16573975095530052,0.14043646336537693,13.42526057491329,-0.16923542356231305,-0.1736761964430599,0.09793504486733978,13.418014129566142,0.026775027392567145,0.12838641994601127,-0.1505356657717287,15.10006598829621,-26.557646489143373,-10.439460397958756,25.063146982192993,-9.395041954517364,12.146673531360866,4.289873663783073,24.564801330566407,-4.023682382702828,-18.760836443901063,-3.747056362554431,-5.62692532800138,1.1178497566725127,11.66340587735176,26.008053579330443,-43.07654176712036,18.47673613548279,10.5
1.7815873622894287,0.09256255626678467,0.12183010578155518,2.0101450155184217,-0.0733217320632674,0.11054678897280125,-40.89293918945262,118.44448110369656,-0.945208898427087,14.646699772808992,-0.2911806008964777,0.4700809955596924,-1.3267764556407928,74.57237972056751,0.03146542226430029,0.6407527807354927,-1.4236378717422484,67.95905371785634,-0.0631428456865251,-0.8768942722678185,1.2261893713474274,78.04167603074085,0.21677989408373832,-0.829540282189846,1.4781768810749054,73.60684285264591,-0.081146308086756,-0.02418534489753076,-0.04060444117536687,13.297806273768643,-0.024020336946100666,0.025534005223736292,0.07208597424454313,13.696887778146253,-0.0010429411773910735,0.03277379468762724,-0.011092809000485114,12.971945403485522,0.10616881081152187,-0.16766597164748023,0.04231711920456133,15.340240669165166,-20.57804295539856,-11.982089178562164,29.782115182876588,-11.503730988502502,21.179655737876892,1.2429215519502759,20.033600454330443,-3.713310943245888,-13.271324238777161,-5.378342294842005,-5.141020500287413,0.6360659925884101,-3.7540091048181057,25.674475774765014,-40.3163537979126,15.771519198417664,11.0
1.7815873622894287,0.09256255626678467,0.12183010578155518,1.9181312521069265,0.014994552627068707,0.09518002724253587,-39.91795190548065,118.60151369841249,-0.9679396847047333,9.709108053324453,-0.2438105546683073,0.4689427328109741,-1.3719947344064714,81.4789529150277,0.10488593906164169,0.6192992210388184,-1.4582573032379151,74.8527068673764,-0.053369709905236956,-0.8458829298615456,1.2839497458934783,84.6825891386982,0.16837093457579613,-0.874536734521389,1.4641489869356155,81.04781948029975,0.13066228622474832,0.0074180139620643295,-0.14820084047214407,13.071614614745362,0.17895770578921869,-0.08937681652589363,-0.11112628402987557,12.83442408577269,-0.039515648661675964,0.009923489071247,0.26850141214662204,12.43624309203344,-0.21191036511206857,-0.009451875216076924,-0.07968192226787535,13.316452441414578,-14.118324556350707,-10.21129319190979,34.682331523895265,-12.225059089660645,16.92342089176178,8.864193480014801,17.865912165641785,-0.886476649174001,-11.836108465194702,-1.5319414400239475,-13.56318382024765,1.9073140265978872,5.058525896202773,22.227611055374144,-36.42819309234619,11.725022974014282,11.5
1.7875480651855469,0.055332064628601074,-0.08674216270446777,1.83204785346054,0.05009672648599841,0.10474976131844146,-38.99918093594636,118.7897224450477,-0.9976968706497604,11.526348615975142,-0.2630666872859001,0.4520957888662815,-1.4508183419704437,88.13511412345538,0.14668308183550835,0.5932331690192223,-1.4960412907600402,81.35453540723621,-0.06657548720017076,-0.8551689058542251,1.3876607567071915,91.05441620543604,0.07996714003384113,-0.8620109418034554,1.4226675093173982,87.91039204436719,-0.2277261010360687,-0.032500768280832946,-0.17628587838430387,12.031782787886396,0.06950455094190094,0.05615323402967112,-0.13896540627310633,11.922264537130413,0.03243424470955444,-0.018515651068086107,0.02477297148940181,11.647273661572125,-0.06104540400789794,0.03765928972395307,-0.04602140919578623,12.895419436272567,-20.81188257217407,-11.147622451782226,42.6244818687439,-15.836081604957581,16.007849702835085,7.312645745873451,10.505754561424256,-0.8552675830223597,-9.491203639507294,-6.07444377316162,-12.820146234035493,0.700295064910315,12.185045409202576,28.634171667099,-36.4975279045105,13.444950137138367,12.0
1.7875480651855469,0.055332064628601074,-0.08674216270446777,1.367799858165812,0.11832685880242895,0.11828134850438321,-38.234166710429506,119.02355238309148,-1.0137878136161382,14.301070344773226,-0.39868940874934194,0.5324907656013965,-1.577321420311928,93.42913737293706,0.18290863938629628,0.6791807958483695,-1.5672692948579787,86.73300695621839,-0.03523518014699221,-0.8681981554627418,1.3991672831773758,96.1314577470115,0.11775627810508013,-0.777418608367443,1.4184131115674972,93.7409951559121,-0.36674173200786386,0.41103908675934037,-0.31346051443291656,7.681843361308751,0.002051999648315117,0.2773093686134318,0.06272384473183971,8.225240443966932,0.011156436150986595,-0.2823555905867824,0.08078904573099815,7.057159436280654,0.2742727472455363,0.4062810777514602,-0.04150105453900381,8.925180287999915,-10.935555827021599,-17.71410899460316,39.495631052553655,-18.77774178409949,11.864889925643801,2.0096956695243717,15.942281310427934,-3.741465247971937,-9.975321685522795,-12.140552751347423,-14.580352446511387,-1.636290262695402,5.535177976265549,23.375406371951104,-34.96133361816406,13.769375673234462,12.5
1.4919419288635254,0.08239459991455078,0.33106982707977295,0.9185268653340337,0.5357925015926517,0.15435337422188342,-37.872414198703176,119.39355616584595,-1.0158521419966802,27.00098595902778,-0.09777677631776896,0.7496889090538025,-1.4709943813085555,96.5157888399249,0.0066940289965714325,0.7885149240493774,-1.4170206665992737,89.98668553555302,-0.09966644974425436,-0.9282853847742081,1.36080686211586,98.9780368839039,0.12046039884909987,-0.7815285986661911,1.3032191824913024,97.96681123898347,0.5003797155527415,0.2812668368004342,0.45820213205321786,5.457048217063179,0.3421514379375686,-0.3230740538954916,-0.1440125104477449,6.1149825650897744,-0.5399819036522455,0.20342339124244385,-0.030876694796803703,6.061289344638058,-0.3397865385971655,-0.3113066719924977,-0.3891866656094553,8.419428492036023,-21.210878268033266,4.2771681471727785,19.090968352258205,-0.6372153715247987,3.939162438958883,-15.901684794202447,27.449267906695603,-5.282266215570271,-6.642861393392086,-1.8093821287155152,-15.209983763694764,2.032371695358306,4.376995006054639,8.45202615082264,-31.064467301368712,5.722128665149212,13.0
1.4919419288635254,0.08239459991455078,0.33106982707977295,1.3269315094468572,0.3451490452705862,0.10785270506701733,-37.726281821655185,119.97669530948697,-0.9890537096963544,18.27446928548625,-0.123865956091322,0.7742316418886185,-1.364080947637558,100.18371056079603,0.07265652255911846,0.5876221585273743,-1.2627838027477265,93.81380216846556,-0.2723898150771856,-0.8997336855530739,1.293612145781517,103.23995724775406,0.03380917713046074,-0.8647252491116524,1.1762495547533036,103.13512282482401,0.34889288537594815,-0.060160687157962384,0.4281174442414727,8.677074546957146,-0.7999108835054654,0.0818693776364536,0.5713553960719447,8.767044595434914,0.24411014204013498,-0.01861157318336818,-0.04565671676370922,9.839152874101742,-0.010077590524461577,-0.1629660363882507,-0.12856518604248524,11.04587328190929,-5.750110050737858,5.335368999317288,12.742045955359936,0.025923184964299253,-2.2007008166611195,-1.7531382235884667,30.542526980191468,-4.648385599604808,-6.195431488491595,16.198500063419342,-19.758441775888205,7.438625941183418,5.595602854574099,10.715284555107354,-23.92972916062921,3.999388823020272,13.5
0.9925715923309326,0.6021690368652344,1.0948867797851562,1.8546596481285298,0.14432598332939853,0.07010712121582646,-37.824077411033,120.73213954933212,-1.009457734468888,15.967852478613489,-0.25616521067917347,0.7243492239713669,-1.3430622947216033,105.64960995349001,0.23519497456843966,0.5058845861256123,-1.3444516295194626,99.46102724885709,-0.26038953110575674,-0.8352452519536019,1.3304907262325287,109.5095789177928,0.03422502961009741,-0.9466874012351036,1.1240052753686904,109.63109207302132,-0.4291089298423594,-0.14045656474533919,-0.4274518605687463,12.156007931640803,0.5174378938822867,-0.39698550125516313,0.01000575636013552,12.452036414940643,-0.07178807980645159,0.11568792472035261,-0.12728572278235642,13.38909452906225,-0.025131248993760756,-0.1370455826190157,0.038463338794521414,13.24494971400236,7.957384091168642,-0.283662032186985,20.078296706080437,-1.8697612796910108,-8.453528371620923,10.775584706701338,20.30424653828144,-0.7213261420524213,-12.425310019105673,11.907527010440827,-20.16413803897798,8.256890488071367,8.647338265553117,36.43735987663269,-16.13583277998492,8.500512099266052,14.0
0.9925715923309326,0.6021690368652344,1.0948867797851562,1.9646042222513935,-0.01276070261677795,0.05847141886724273,-38.020092668244295,121.61692829758795,-1.0361519059738087,10.489599882523489,-0.27543524697422983,0.7313278785347939,-1.4392099350690841,112.29159349803352,0.23769775912165642,0.46175855010747907,-1.3302203649282456,106.05898505418413,-0.25010622702538965,-0.7900526162981987,1.34050210416317,116.35483424129379,-0.015097966630855808,-0.9111390718817711,1.1385425066947936,116.18559795880054,0.14934449845956033,0.07048214121473412,-0.013078970253124983,13.107826827825475,0.10403252483536757,0.061567199856800876,-0.07657979495207248,12.692867264081096,-0.030861091432042128,0.20069696236346296,0.07988242240745765,13.10862607575812,-0.13289550802795652,0.1785644620792113,-0.10559926332487062,12.478519278973499,2.2058900726307185,-15.341751537322999,23.672606768608095,-8.069853947162628,2.5234982650354505,13.699339224100113,23.676175031661987,-0.14272335783112794,-12.021480586528778,15.071215925216675,-26.714343547821045,9.670810069441796,19.55156056404114,15.426425907611847,-17.38295186519623,3.908193187844008,14.5
1.7666106224060059,-0.04250133037567139,-0.13738799095153809,2.0394839365345687,0.015331281582097926,0.09152459022195297,-38.18521897061625,122.63761635382134,-1.0372409826531805,10.271177880045412,-0.25236105903983114,0.7231639850139618,-1.4147774571180343,119.26267166882226,0.23684496216475964,0.483109644651413,-1.3326050978899002,112.87058036571236,-0.22114490792155267,-0.7450051140785218,1.3190457808971405,123.55797786992213,-0.05178563481196761,-0.8357774701714515,1.0693102306127549,123.14647187292309,-0.06533519067559239,-0.051743105315251184,0.026182994654861534,13.5081761513453,-0.09282659900596205,0.08990963363302289,-0.041265619636515115,13.338999002887686,0.11785373332985463,-0.020426400746525495,-0.11030274910188301,14.172323511799162,-0.021358968651074336,0.07925284045938329,-0.07008596654981764,13.942600277464903,-8.893559200763702,-16.86520658969879,29.07030740737915,-9.020386142730713,5.989426640551537,14.740729455947877,19.145160760879516,1.106783078685403,-13.924002060890198,5.128221150692553,-22.700720376968384,5.904387346506119,22.623564405441286,23.89445845603943,-20.323133401870727,6.266906546354294,15.0
1.7666106224060059,-0.04250133037567139,-0.13738799095153809,2.0385430325174014,0.05137344587309609,0.0894250648837404,-38.35020280935778,123.63627328091579,-1.03696281457967,10.216014014316395,-0.28708031848073007,0.7060692042112351,-1.4254757726192475,126.30708974570516,0.1984125104546547,0.5330836248397827,-1.3526749616861344,119.7845412524684,-0.15152099400758742,-0.7516809272766113,1.2718925386667252,130.86332919846788,-0.04688240893185139,-0.8157775974273682,1.0887492454051972,130.402006495652,-0.06692072527736985,-0.03702160221834883,-0.039757526817633976,13.525573974214469,-0.049019855933829265,0.0713728441948846,-0.022905972751170355,13.350918109509639,0.11737339996438857,-0.016840178110216982,-0.037833538066804506,13.817321708357108,0.010254648971778491,0.03209110360894456,0.0642406962051083,13.86845363829097,-12.277810876369477,-17.811825947761534,30.48321125984192,-9.807458548545837,8.633842217996717,12.633801460266113,16.68182349681854,0.7905631121556508,-15.320056862831116,6.55487134411931,-16.63279727935791,5.593439500853419,22.80281660079956,27.25411250114441,-23.280442333221437,8.122143681049346,15.5
1.7668962478637695,-0.018024146556854248,-0.011840343475341797,2.068481554767722,0.020157888811382505,0.10032195064406832,-38.551569162996124,124.64230215333164,-1.0477529187328205,9.2408963677662,-0.27733654394745827,0.7194910565018654,-1.4163956850767137,133.34257455476674,0.1912932824343443,0.5363149315118789,-1.3423117208480835,126.81525440194383,-0.12172808956354857,-0.7130713498592377,1.239245948791504,138.16021100375548,-0.05611948996782303,-0.7838832587003708,1.087077922821045,137.60180660043335,0.098429798541081,0.10135268427960607,0.05893111091943177,13.353511943190231,0.02596919852257542,-0.026684339616215347,0.03784420502175459,13.631670117564525,0.02280207844601647,0.17824541011476489,-0.14439251485690371,14.114911384624852,-0.03209286727762364,0.11991469498609435,-0.045047870107259316,13.50899285230415,-1.5486780638713389,-14.98935553073883,23.11410125732422,-8.114246075153352,6.751810840368271,11.92235746383667,25.745811138153076,-0.7565287367952988,-22.678639822006225,12.888241953849793,-23.526346845626833,8.550969378948212,25.399519453048708,12.341851282119752,-21.011299829483033,4.331432698071003,16.0
1.7668962478637695,-0.018024146556854248,-0.011840343475341797,2.122875831980772,0.03374857883875928,0.11067000549738987,-38.729530326498605,125.6888785674539,-1.0543229101339129,9.628737821890729,-0.2228844177722931,0.7712141367793083,-1.3858278864622116,140.38853026200835,0.2195397413522005,0.5410890877246857,-1.3524223339557648,133.91088118794434,-0.13592592164874076,-0.6643614646792412,1.2004200524091722,145.720127945824,-0.08684692412614822,-0.7236713942885399,1.0323155319690704,144.74808115143446,0.14618865644131865,0.13409357923406928,0.07001553377177352,13.56600578494686,0.11153303339422681,0.0525608858741187,-0.08283736650351342,13.620568430954904,-0.07095913092177669,0.06491000652900408,-0.0025880513037688036,14.665930318475326,-0.07010797551038109,0.053334546794997696,-0.09105709354361977,13.750962182836908,1.4794836035743355,-18.25144706726074,19.70162715435028,-7.939518654346466,5.6417128419876095,13.30286797761917,28.280238571166993,-0.7912442152452422,-27.400424489974977,11.779687190055848,-25.568328666687012,9.097839004993439,29.255287609100343,8.565463888570667,-18.806684260368346,3.9326327325031163,16.5
1.7865149974822998,0.038514554500579834,-0.13477861881256104,2.0200287351452393,-0.07920742442589213,0.11851175377814295,-38.7740536872333,126.7237385205167,-1.0635178036919517,9.4010730598582,-0.09531869266182184,0.8602059957385063,-1.3048359698057175,147.30335870178556,0.33353800654411314,0.5883165234327317,-1.425385292172432,140.82544185332367,-0.168558726683259,-0.6492632594704628,1.2186684316396714,153.34032015750032,-0.11809243511408568,-0.7210178479552269,0.9961341965198517,151.79209919489003,0.25082088741379116,0.11458493075434467,0.21614574403993828,13.157865380994842,0.23706706157752147,0.05388365097628228,-0.13200478256677828,13.20261907473907,-0.04809521758912512,-0.06684631903047004,0.05485908641333113,14.610310779678143,-0.063883765192737,-0.044353081471895255,-0.057574574555412934,13.33950171715401,-0.6249453358352184,-28.240693588256836,20.47451247215271,-7.968392100334167,-6.265927593633532,8.543352386951447,22.54675673484802,-1.3166100596543402,-19.259924354553224,5.82744029648602,-21.56393430709839,6.83958805680275,31.35777344703674,12.329536721557378,-19.086101994514465,4.447492651417852,17.0
1.7865149974822998,0.038514554500579834,-0.13477861881256104,2.021094554427524,-0.07541317927062402,0.15405810530837782,-38.67888778922428,127.73558300608588,-1.0788408572980313,8.737321611044141,-0.010088680384506006,0.8837111362814903,-1.186851875782013,154.16992422233795,0.4029895882308483,0.5787588635087013,-1.4711796528100967,147.7480068068604,-0.18660553216934203,-0.6876662287116051,1.2185430777072908,160.941445577832,-0.15099848061800003,-0.7630232778191567,1.006351463496685,158.73335194240389,0.15669834104578742,0.02405890193802636,0.34665512723445036,12.709672391128631,0.0712623929430228,-0.010819585625912977,-0.11234892709945937,13.254012436544516,-0.008005105037777507,-0.04662593342329062,-0.015733578312518388,14.249607373379337,-0.028253917095257486,-0.0805000601358281,0.10693662636977141,12.943406581754278,-5.385649938583374,-32.54203036308289,15.54101791858673,-7.023344674110413,-12.953412928581237,4.814300096035003,20.20722074508667,-2.392666473989375,-15.020415534973145,10.21400306224823,-15.162821187973023,7.030993090867996,33.1167751121521,14.208197426795959,-22.014608602523804,4.4356304860115054,17.5
1.7458574771881104,-0.041337430477142334,-0.24283814430236816,2.127930006975066,0.033077296688347045,0.17932243700526687,-38.46973530965221,128.7248044199978,-1.0936216244205723,12.147459458361478,0.02459786205581622,0.8800697317719459,-1.0738058722019195,161.00727366502093,0.3863841252028942,0.5558971571922302,-1.5127733063697815,154.77341107765275,-0.1807004253566265,-0.7412904849648476,1.2037426847219468,168.4903172983398,-0.15495183765888215,-0.7778162455558777,1.0674553126096726,165.57705407103396,-0.14186315354773624,-0.008500626825677551,-0.16649035494676018,14.221209977486218,-0.23311134657111166,-0.0776733452264574,0.036802422643230255,14.048040751886148,-0.021638284700063216,-0.1540938314357403,-0.0005158421485036452,14.750655081435966,-0.0362845893955303,0.1118546846598131,0.030579504378285348,13.707476360166543,-17.035910806655885,-36.3529499912262,6.991380041241646,-6.343560353517533,-13.482752466797828,8.668379871770739,20.75541682720184,-0.6744957321602851,-16.61461042881012,10.980494199991226,-3.7513542818743737,5.979014803171157,32.74673055648804,30.656459913253784,-27.30714104652405,10.829242116212844,18.0
1.7458574771881104,-0.041337430477142334,-0.24283814430236816,2.248878349432864,0.12700350259176804,0.1826230549727584,-38.298608792585874,129.79473312931069,-1.1109391430872035,10.6702347143872,-0.1168223468773067,0.9238815405964851,-1.3441104358434677,168.8232601584462,0.18652020484209061,0.5682265254855156,-1.4886487007141114,162.25786040063164,-0.184740427210927,-0.7523168095946312,1.2073499369621277,176.09897896667005,-0.15911036428064107,-0.637333801984787,1.0178369057178498,173.1106150229378,-0.19111456099029528,0.04489583830715695,-0.6152287837227582,15.367567666047655,-0.34956931968664384,0.06739376281436392,0.04746446570454687,14.574088595722912,0.11958366498610516,0.1241531071309918,-0.008481719796661027,14.325542861852226,0.11032764004540312,0.19186032951338233,-0.06274152094277634,14.929815824272207,-8.626491317301989,-35.00806443214417,4.0895158588886265,-9.398565108776092,6.613314509391785,7.31344647526741,32.39898606300354,-3.2220363835431636,-23.990219712257385,13.833486138582229,-14.02023102581501,7.757478732466698,23.30622796535492,13.66341850399971,-20.510866241455076,7.40080923460424,18.5
1.8263227939605713,0.1364072561264038,0.12766790390014648,2.164571609687548,0.02098300105344523,0.1810735031748463,-38.17424805002368,130.84976501820006,-1.1505709455051045,11.9441078338199,-0.13864657998085023,0.8388998410105706,-1.497152950167656,176.7611430345249,0.10874677699059249,0.541743548810482,-1.4589961296319962,169.80557457421855,-0.1271015764400363,-0.6956316664814949,1.2477966910600662,183.59244303334668,-0.11658086519688368,-0.6527021324634552,1.069215195775032,180.81939754626936,-0.023773336450452806,-0.2214737968372303,-0.058477367798257136,14.89140834087394,-0.07056196763068949,-0.12550276971255284,0.08922451731606978,14.4101940576509,0.004403812620228307,0.07721389644633153,0.1192918527259933,14.41678204973433,-0.01917997827192736,-0.02744968201831268,0.07912539031924393,14.397461254115797,3.9079574900493026,-21.328423957824707,8.573104500565679,-8.715270817279816,6.205887144356966,10.780746031999588,38.9304122543335,-3.198023772239685,-30.846956424713134,15.557743825316429,-25.645346899032592,11.296677141189575,23.18124779701233,6.845919039193541,-18.01922161579132,5.12215136885643,19.0
1.8263227939605713,0.1364072561264038,0.12766790390014648,1.8820004425192634,0.11992058574719291,0.1396810044504875,-38.1417698133774,131.86658617508797,-1.1807377024951995,12.291101039509398,-0.19820578295737504,0.7303689002990723,-1.547518448829651,183.73432925856235,-0.019212750087899622,0.5930886420607567,-1.4100137287378312,176.81052847302826,-0.10284826129674912,-0.7188769847154617,1.281520420908928,190.71990344480722,-0.07868099298328161,-0.6641560545563698,1.165537930727005,188.16596598359266,-0.3924264577626373,-0.18658976515609355,-0.09607255499135871,11.492948702855674,0.3511894885028546,0.23542431116856732,-0.3448853745628469,12.300126984611907,-0.12895196299188055,-0.42815179255148633,0.20235524658859064,12.206226715568514,0.1420526763209014,-0.09874924413679605,0.3247260740770526,13.726405103851521,-7.2426268669962885,-10.767211168408394,19.61231878295541,-8.21381991315633,3.0414484292268753,-4.628572677075863,33.26559503956698,-7.114502441519871,-20.197824421301483,2.7253251398727296,-20.318464319556952,5.394769050446339,18.44349957227707,0.5956481982208789,-27.801000571250917,5.2421836884040385,19.5
1.7719502449035645,0.261008620262146,0.24931955337524414,1.534604350793365,0.01694708278109667,0.013182769418500363,-38.34255368884475,132.6842144717084,-1.2078965913313713,9.826841006820823,-0.43085099399089816,0.6870048186182975,-1.3928132486343383,188.9768199570812,0.330959480330348,0.566074401885271,-1.3575048446655273,182.26626082007454,-0.1747916030883789,-0.8776116466522217,1.4123295605182649,196.02760627131548,-0.010728398303217545,-0.785928248167038,1.339782571196556,194.76967624121738,-0.07433086726231566,0.023630521190111567,0.7066678216355966,8.937192016701434,-0.126278237347866,-0.16593904035721255,0.27014915175966264,8.549617010071783,0.13815279718584939,0.14946771113630478,0.2400049657783648,8.374933929192188,-0.007552212414018184,-0.27118017466829797,0.34398029883401016,10.49539979207903,20.69910566866398,-19.124639363512397,29.612480452358724,-10.974781758859754,-7.205875775720924,1.9434083922207355,8.388351830877363,-2.320665657520294,-6.884797148928047,-1.0937501769233495,-15.488235396817327,2.9968991509638725,4.0754875628650185,-1.2089220896735788,-33.64325096607208,3.7613760981708766,20.0
1.7719502449035645,0.261008620262146,0.24931955337524414,1.344698803183531,-0.16646119361959907,-0.05694284700517691,-38.470301603611794,133.37893208267067,-1.381934240883404,13.92027590247471,-0.2869899567961693,0.721756437420845,-1.2709876084327698,193.63196203467817,0.026063173144902977,0.6293579411506652,-1.1685481303930283,186.63927019255803,-0.21545911230146886,-0.793165762424469,1.6511217176914215,200.3679495584992,0.07338384576054523,-0.841568728685379,1.4849254417419433,199.04434464641955,0.34604225073974165,0.21383385519606168,-0.8098607999494569,10.378296889508153,-0.24777094929109328,0.21622030106102724,0.05795114757196381,9.865295227356302,-0.29503426142187544,0.0788656523098046,0.2283338701531436,9.64980226447023,0.290712502811709,-0.06107993341936748,0.03662355158579761,7.783820290120055,8.580637625008821,-31.039825658351184,35.71694004237652,-7.378301851376891,8.275802526324988,-7.955854304432869,5.776023939698934,-1.8206400089594537,-4.827917800955475,-13.461769222021102,-29.56711735188961,3.440700352918357,11.891346483677626,2.259390990138054,-16.257974578738214,5.893775041329209,20.5
1.0765960216522217,-0.15650087594985962,-0.6915556192398071,1.5500102241761298,0.03139561353702814,0.17897657315041424,-38.53962700803202,134.09328124853752,-1.481651137052172,12.875261243028897,-0.2924005953222513,0.7207103317975998,-1.5132527983188628,198.97753815961917,0.11558701373636722,0.6840169152617455,-1.3866726571321488,191.5976741337497,-0.18611046381294727,-0.850037262737751,1.5445699739456176,205.54521042233642,0.027750072602357248,-0.8021162989735603,1.27380689650774,203.90018653850646,-0.38115209717797904,-0.09004359952812012,0.34634275534699105,7.515396473668473,0.10852422270686078,-0.04687173847391288,0.21245052445191864,7.790629362440773,0.2375690056896533,-0.12794744769655977,0.14136325453509963,8.391904822132222,-0.22587146809517766,-0.006018399245335524,0.16467293098001612,9.248549933036768,0.37122335709631443,-17.33255993247032,32.32039847061038,-8.846012456961908,11.005674568414689,-2.9701935394108294,17.68594784498215,-3.6108239340409636,-3.563185653537512,-3.9704299274086954,-30.79730312883854,5.856380127761513,8.839719764199108,0.04273202743381262,-17.97452522814274,4.465587444971316,21.0
1.0765960216522217,-0.15650087594985962,-0.6915556192398071,1.4028402864145124,-0.09203268947695191,0.19573927857496615,-38.514345808288496,134.77842485593445,-1.8024291281771452,14.908256790528123,-0.3087426451593637,0.7674510902166367,-1.6428601551055908,203.9693038666214,0.159506083317101,0.6561157178878784,-1.533912518620491,196.56586784220895,-0.14155934646725654,-0.7532430717349052,1.5569124054908752,210.3031969741509,0.02211101543152836,-0.7862944856286049,1.4467196077108384,208.95323534723556,0.4750567557948222,-0.2662071924331582,0.00615777789148789,12.091743654100346,0.16401556631460387,0.06200379280568199,0.07712653273804021,10.498175654151707,-0.1633097943855664,0.22641589483338417,-0.855038386819453,11.3289309363669,0.19565025401934638,0.3743392681499498,-0.7031013671821033,11.466141083055877,9.14607194662094,-17.36677044197917,26.475082806944847,-4.85984524874948,8.575638828687369,-2.3870834308117628,23.40496901612729,-4.876857117712498,-18.30321725971997,-5.528305030837655,-29.707727217972277,6.938503680713475,9.700567995905876,3.5348382715880873,-17.55214149594307,7.129717264426872,21.5
1.4752659797668457,-0.19051122665405273,0.1081686019897461,1.6214154869688826,-0.014894438218434534,0.22898558618550535,-38.457989989087004,135.6515922833037,-1.92593080998646,12.114565110631585,-0.11157217791653239,0.7367413902282715,-1.404422727227211,209.85858997309475,0.19303566858172416,0.707252527475357,-1.4710728764533996,202.13288597137148,-0.23163146495819092,-0.7637682148814201,1.4497133934497832,216.50355845849623,0.01266744605032727,-0.8181275853514671,1.3679965472221374,215.19474469775386,0.314048831498897,0.4467749543164912,-0.037492835806189756,11.64962791262052,-0.04738820689901769,0.16294489027411949,-0.6302455957368128,11.602018188331126,0.19023950231284054,-0.05723645229005201,-0.11923093547323795,12.201314853159326,-0.12790410643900146,-0.15119975764252158,0.019657575838681968,11.374850881574078,1.4299111849069595,-28.0030702573061,37.965378754138946,-8.672297010477632,2.9111510127782823,-7.702329057902098,16.420786590985955,-4.463395320335403,2.47452418461442,1.8307453516870738,-20.412095035389065,7.891219324525446,11.551208481639623,-8.895712258629501,-25.418559161424636,0.4173687092610635,22.0
1.4752659797668457,-0.19051122665405273,0.1081686019897461,1.488771552147292,-0.11841346719152437,0.1871189334322236,-38.203195376045876,136.3840402689022,-2.0524073253481485,13.181868695799892,-0.014286155221725494,0.8090967503190041,-1.4163004118204117,215.50756807781764,0.18916416492735152,0.7769629693031311,-1.6041883772611618,207.469311090105,-0.1278720425069332,-0.8477450376749038,1.3637464702129365,223.0380343807749,0.05282131173007656,-0.8956950032711029,1.3164339458942413,220.85200836975514,0.3016943366987553,0.05470974517119871,0.6669725000364727,8.93549372020587,-0.29804567829584916,-0.13378188324475268,0.4686745219742783,9.632132781131109,0.03677554931209956,-0.28960575406798134,0.4161446357888613,12.162824874351553,0.041484165106866346,-0.4123997927244229,0.355701164100672,10.265555109609606,-5.492996312528849,-12.129260374605655,30.54494188219309,-4.684765074242023,-0.02532587558031082,1.7464298693090676,26.090906047970055,-1.9164236080390402,-10.77539895363152,5.162914076894522,-31.171951838061215,6.44159275688231,26.412180944532157,-6.230390448234975,-30.13771126590669,1.5310428266227245,22.5
1.4667153358459473,-0.22453182935714722,-0.9996504187583923,1.5073102776724332,-0.14189973921385554,0.11528993564954508,-37.686613277093606,136.92164061103483,-2.058549784225774,12.539064330875593,-0.15533197748241945,0.8360858237743378,-1.4322767025232315,220.24566556691082,0.1204056307220344,0.6978282544016838,-1.394673439860344,212.35687847249235,-0.15832060370594264,-0.8661552065610886,1.4026558923721313,229.32830131999904,0.2389680881612003,-0.9863919782638549,1.4799512660503387,225.91521143846182,-0.5977372936068348,-0.22287981563066514,-0.5424368245266051,10.278908574155182,-0.012471127527864478,-0.09718202704974234,0.19832059766983967,9.985494493460596,-0.1423904735758482,-0.03548034130202811,0.07648024008813838,11.951436209826216,0.32988668241791963,-0.05978111111072306,0.19066012202043303,10.039286421980751,2.4834751400351522,-9.209612804949284,24.8222801913321,-5.123217289457098,8.184014249294997,4.6742132138460875,21.97850241947919,-1.4133063787873834,-1.3677938264608382,8.537063407041133,-29.607209072113037,5.915863937325776,3.480974359884858,3.7413213944435117,-19.103625102564692,3.6265445890650154,23.0
1.4667153358459473,-0.22453182935714722,-0.9996504187583923,1.837711457050803,0.03807936765551349,0.057082350611838285,-37.008591429262985,137.3879971558314,-2.064750639403907,13.032873405881357,-0.18161733917891978,0.6165886273980141,-1.3408132141828537,226.4212258757052,0.08457135923206806,0.5864185824990272,-1.3032658022642136,218.3114416932873,-0.18953040234744548,-0.9443726471066475,1.4509959423542023,235.53142532360528,0.1753847027570009,-1.0342453479766847,1.4347839242219924,231.95044113435452,-0.14838658102958577,-0.46669909085953265,0.0972669009221769,12.867926837375578,0.2862851843127093,-0.1272869300993887,-0.1967103322462902,12.205378080645035,0.023731407922460382,-0.05317425502002281,0.017549412158993357,11.825856672888872,-0.15026617543932702,-0.12051411693941519,-0.06192616378097489,12.735535143427965,-19.445932545661925,-6.580944057703018,32.06108288764953,-8.026281937360764,12.750236978530884,8.865815680325031,12.30483786046505,0.21953024029557128,-2.7437394333817067,4.853759977170267,-14.03335610628128,3.8906131953001024,4.81744932807982,40.16652871131897,-28.263777990341186,12.115438666343689,23.5
1.5786464214324951,0.06271946430206299,-0.21341943740844727,1.7748787768205423,0.009622695807558588,0.025321976260775432,-36.30186727736208,137.82813206563603,-2.0896675641664273,9.21281298173562,-0.20476079404354094,0.5342596378922463,-1.3328178215026856,232.81323218444504,0.19586382538080216,0.5335194918513299,-1.389012449979782,224.55542540799667,-0.20143205590546132,-0.9174442130327225,1.475451912879944,241.63582555569909,0.08588099550455809,-1.0523722153902053,1.4028557866811753,238.44105549755295,0.255572045114024,0.09034834594631364,0.1431149313488567,11.264281354635681,-0.12401014556976037,-0.11516268862197038,-0.19351306442892807,11.711563619309185,-0.09320208757084983,0.09753440168404022,0.1074006993047214,11.545675014070964,-0.19076540980723472,0.014941699782395276,-0.12701230752437812,11.674873415418743,6.436476811617613,-11.389826080799104,40.86229557037353,-12.462879729270934,-4.8573750624805685,4.861807689517736,2.499348750412464,-0.46164265939965843,-3.1275514811091125,5.438304318338632,-17.368642263412475,4.5237686681747435,12.411489126682282,27.800983407497405,-28.610333404541016,6.656319904010743,24.0
1.5786464214324951,0.06271946430206299,-0.21341943740844727,1.5737580283686685,-0.23461749250557762,0.07280022173638435,-35.55567235559674,138.06689255412167,-2.1025404191853196,14.205965536819946,0.012970047430426348,0.6472544628381729,-1.174258368909359,238.1302062226818,-0.0245880348974606,0.6091567319631577,-1.3203968870639802,230.25211601334686,-0.22391074739396571,-0.9294136980175972,1.4451154059171676,247.93272933620534,0.09203669216483831,-1.073311524093151,1.3610641592741013,243.96274092912643,-0.4511234289970209,0.16791877437484853,-0.324974930184013,10.323366952629293,0.041034151738734904,0.26395786289540946,0.15578643171353762,10.56792941976021,0.06907451454644659,0.007979400677914415,-0.2412110443375359,12.432620400660516,0.41610326348347376,0.19594602475632927,0.21519803815266417,9.862423614322692,-6.105525294393301,-6.786187168210745,22.287297617942095,-4.847630812741118,14.582379626110196,8.967453726381063,23.506099919714032,-0.7235638709133491,-10.247386191636323,9.30805290311575,-36.79684600830078,5.51416092902422,16.174498419165612,17.030618250072003,-9.730691396556795,5.557591196673457,24.5
1.5464527606964111,-0.3434361219406128,-0.8467299342155457,1.9491242048313862,-0.015177881526880752,0.06171390740445368,-34.64673761771733,138.11863948990936,-2.0987746868041426,10.877775517940579,-0.2821019513905048,0.5893266728520393,-1.327695163488388,244.31783975048677,0.16231470562517644,0.5467807576060295,-1.3445712280273439,236.46806069581623,-0.19392202138900758,-0.8878915962576867,1.3671690446138383,254.5681102843895,0.19664148144423962,-0.995337127149105,1.4467559212446213,250.07616497922334,0.06683358987207433,-0.24156915260811815,0.2957225357498391,12.751114523952161,0.06415668740270347,-0.2648964569701193,0.11896009561451315,13.078041407019603,0.05851592854479464,0.011382794208553959,-0.09095940240610982,13.077586493831662,-0.1541698755764498,-0.13466455493277527,-0.08621006135072098,13.605816768886987,-2.415335265100002,-0.14433391977101565,23.301691403388975,-4.638730275528506,3.854700917173177,12.486116383075714,26.835019702911378,-0.605691101537086,-7.347135729938746,8.547665167395026,-25.1411891078949,4.939967632740736,3.205433759689331,21.91970605313778,-25.8218572807312,8.04006835103035,25.0
1.5464527606964111,-0.3434361219406128,-0.8467299342155457,1.956594364685792,0.011710023316367541,0.015840927671206526,-33.693592638006166,138.21031275587242,-2.1093273322862216,10.347119273012336,-0.29791214123368265,0.5491622617840767,-1.3181500881910324,251.05644252617003,0.18987147405743598,0.5304182127118111,-1.3935221195220948,243.18101840240885,-0.14992169924080373,-0.8713562390208245,1.3319773650169373,261.36797551709947,0.14527002211660148,-1.0228520679473876,1.4144308745861054,257.22504924500043,0.08155843008577904,0.05237475254840812,-0.13734963439469727,12.915662713608448,0.09715706584177924,0.015926185510939366,-0.22245981562833766,12.78873547867515,0.021284643830194856,0.0928022880309504,-0.001531230869576688,12.820045916068693,-0.12008703255117523,0.011626746253991073,-0.024163801133312242,13.14905046426054,-1.4868597865104676,-12.392792868614197,33.645117683410646,-10.622696990966796,3.577110172137618,6.401263093054294,8.90799989938736,-0.35159535553539173,-6.385311607122421,7.271713598947972,-12.541357026100158,4.4092533778399225,7.431137779951095,31.734992628097533,-29.46115509033203,9.376620244979858,25.5
1.749335765838623,0.035552024841308594,0.06024169921875,1.952238155573718,0.024580461224629667,0.06040522819573972,-32.74659446163159,138.25204623540967,-2.125217215364989,13.464013063611427,-0.25368998922407626,0.5579653930664062,-1.3754713559150695,257.80074612086673,0.2262941700220108,0.5051860252022743,-1.4310678535699843,249.7784387938955,-0.15071002192795277,-0.8335366606712341,1.3408437740802766,268.0686870816788,0.06958736266940832,-0.9894638958573342,1.389920374751091,263.938571494723,-0.03527233919784459,-0.09057290357304586,-0.04366093006065266,13.19707697392633,-0.020303134774703926,-0.07367169076701072,0.054535488880556926,12.904606115647663,-4.6201948511844575e-05,0.020733782746227197,0.007222911586855884,13.06252035371802,-0.15600682721349873,0.08315758830649392,-0.08839547270016901,13.15516352151097,-5.670878832936287,-10.028132177963853,34.13182728767395,-9.766919980049133,1.5612282309681178,9.42709718644619,11.530776739120483,0.8006464475207031,-7.758118065595627,9.327946010380984,-15.330327787399291,5.897612671367824,13.193154797554016,32.60328108310699,-28.661181325912477,11.015493239164352,26.0
1.749335765838623,0.035552024841308594,0.06024169921875,2.0366950794404968,0.02953535273757295,0.06292766269609251,-31.75346454687115,138.29467015581957,-2.1218971324662705,11.115236871380393,-0.28171989351511,0.5346276718378067,-1.383964457511902,264.769513087069,0.20510869674384594,0.4723330716788769,-1.3967234623432159,256.6329062824741,-0.16597241185605527,-0.8332882285118103,1.357497775554657,275.1271370062617,-0.020687049735715845,-0.9336730152368545,1.280306658744812,271.0949909748594,-0.0974400425687205,0.003472009926433573,-0.05065966782586808,13.243288380851135,-0.017537860075456033,0.06107503375074323,-0.011747415176838923,13.026286664906872,-0.05163530794514946,-0.05271887691429493,0.07043917836531893,13.57427239143381,-0.17882679305828092,0.1393321327291694,-0.2990694297838251,13.849992311335239,-8.874568205326796,-12.20589785337448,37.02805967330933,-11.89153932094574,5.261200715787709,11.885096964836121,10.452017180919647,1.4266571908071637,-9.249847540855408,6.383999174535274,-17.6207736492157,5.0484853534400465,19.25279782295227,29.259645414352416,-27.465928735733034,8.709640897512436,26.5
1.8064370155334473,-0.11872470378875732,-0.17862868309020996,2.013928241336142,0.051409818088980125,0.084603247651829,-30.78956927075474,138.36088152254197,-2.1139217789924647,11.723728699001892,-0.3778518362343311,0.5520646011829377,-1.4077173107862473,271.525333553733,0.18476894930005072,0.507590302079916,-1.3952378988265992,263.4052967714091,-0.2074361526221037,-0.8574678391218186,1.3571148800849915,282.2123325543765,-0.11905980218201875,-0.8772883114218711,1.119582257270813,278.3786523749524,-0.15960022630513904,0.14521588265528307,-0.015066137381903629,12.590644633941782,-0.0969609780330663,-0.00948988351019307,0.10732647880550539,13.198863206669508,-0.07125674424937016,0.03164043599970968,-0.10097785738086217,13.720500052798045,-0.16065211089225526,0.06947415001679177,-0.26551432146249554,13.937543553739815,-1.1515484330710024,-8.61226058602333,34.63593577384949,-9.579623804092407,9.34885978102684,14.657448123693467,15.209736065864563,2.134016379117966,-16.373631601333617,14.480366415567696,-27.083617973327637,8.029151349663735,24.86348545074463,20.70754784822464,-18.161053104400636,5.667534211277962,27.0
1.8064370155334473,-0.11872470378875732,-0.17862868309020996,2.052553205063424,-0.08763827751744747,0.08295575770179348,-29.786469758882813,138.39770545974898,-2.099970552695022,11.262682676675182,-0.38478722766041756,0.6520196318626403,-1.3990497201681138,278.08927107132627,0.14367719873785972,0.4828501883149147,-1.3225258851051331,270.29264635532405,-0.198324306756258,-0.8033187964558601,1.2772041881084442,289.47637636814807,-0.1499813801050186,-0.8389680317044258,1.070660975575447,285.4555671569689,0.08478227069457578,0.14872600247226264,0.0495674566667064,12.863542220941099,0.015050815920480411,-0.044104551872157914,0.09319375174660069,13.413541748657929,0.070343080160782,0.13759247216274115,-0.17010898438915556,14.07910548071121,-0.004406625559097554,0.10996305614551175,-0.020133051206775884,13.287191985585928,6.0991983672976495,-12.116671650409698,22.904421854019166,-7.42599771976471,7.636226031780243,16.57832661151886,24.77461965560913,0.8639134777750587,-24.4438383102417,17.57557276248932,-30.093998107910156,9.38200112581253,28.249223432540894,16.354949672222137,-13.912682495117188,4.733794238269329,27.5
1.7030012607574463,-0.011816203594207764,0.0006847381591796875,2.135543895155708,0.00011474739276123528,0.07490965344950726,-28.720756186436997,138.40687356307825,-2.0911679527448506,11.199053449921882,-0.35927209094166757,0.70614865899086,-1.3900337439775468,285.0472492540376,0.1417236503213644,0.49719770208001135,-1.3173669177293776,277.38287881137273,-0.16325486846268178,-0.7482732114195824,1.2069765102863312,296.9829753681529,-0.14685026176273822,-0.7646816539764404,1.0487098324298858,292.55882613592354,0.005769040439248783,0.07247441740303413,-0.014312115098420368,13.765024264614297,-0.04919968194108906,0.05349454339894225,-0.009747652280485549,13.96805085232235,0.07800574299755306,0.054883641893155914,-0.10229803920949447,14.712161846913752,0.025533260154438284,0.16203302944394352,-0.05941744213101411,13.98609941860389,3.5230928253754974,-16.448494544029234,19.425917019844054,-8.10844829082489,8.027648839652539,17.07128017902374,27.079730138778686,0.7795614662743173,-27.04904715538025,16.533794040679933,-26.175704584121704,9.001809623241424,28.30651554107666,16.15920354127884,-15.95351676940918,5.415895746164024,28.0
1.7030012607574463,-0.011816203594207764,0.0006847381591796875,2.177957881859087,0.01508914935331487,0.07683869771808456,-27.620758510551514,138.42895350529062,-2.081683549106626,10.050625443486226,-0.35503507032990456,0.7312050417065621,-1.4344637036323546,292.3590712401169,0.09215006360784173,0.5173895624279976,-1.3127394503355025,284.7881494127669,-0.10020190490409732,-0.7206854078173638,1.1412214612960816,304.73843750172813,-0.10649542106315493,-0.6920717495679856,1.063250768184662,299.9634115411313,0.152949820783638,-0.07860291271820988,-0.14352718228886976,13.885243569341306,-0.15962482582172388,0.030271909259214955,-0.030136622488313156,14.44382162895094,0.18655279012010248,0.04159907568898005,-0.120798041335606,14.723480284209758,0.16281576840994602,0.06606559738973146,0.20124285578432471,14.13727735581286,13.525360943651759,-15.293139053583145,6.008582593165338,-6.790788166821003,2.8505885768309236,9.505671648569406,36.542923259735105,-3.1822831346467138,-34.083251028060914,17.438314061164856,-27.679990663528443,8.990552003383636,22.775955934524536,9.08925619892776,-13.293025557994843,4.649140931069851,28.5
1.8045594692230225,0.08333766460418701,0.08528697490692139,2.107046123616569,-0.018790092649245922,0.10084071588480285,-26.53441463589388,138.49133424357942,-2.0943908393488497,11.244702041809612,-0.2615370215475559,0.660655343234539,-1.4556727874279023,299.52123080071095,0.047107712402939796,0.5412865886092186,-1.4062832790613173,292.2570260163289,-0.03562310961075127,-0.7095864567160607,1.132733033299446,312.262168297654,-0.05748461320996284,-0.7014720550179482,1.215635461807251,307.2379200905697,0.08465357748392989,-0.0843359792396787,0.07729460961443894,13.871544262036032,0.07219792392572343,0.05774566150011096,-0.19942358187964704,14.089461025483468,0.04554319530822783,0.033269215979638375,0.03180163023299936,14.16766366965024,0.00021384319326354194,0.015745194427004724,0.21067175396803978,13.754434643961169,1.6239574176631868,-14.162734794318675,22.911627832055093,-8.906968281269073,13.038407241106034,10.456165177710353,29.88666949272156,-1.9533817611820996,-29.581641883850097,11.644699905738234,-21.904382977485657,7.336551293730736,21.210278005599974,10.106197872590274,-24.261593952178956,7.434938176162541,29.0
1.8045594692230225,0.08333766460418701,0.08528697490692139,2.02006998504296,0.059616037050498664,0.09001525921505409,-25.512850252365975,138.59648281301384,-2.085988162386158,14.422538418090998,-0.2807971086353064,0.6246486186981202,-1.440067166686058,306.66777259431,0.1218562015146017,0.6113426545262337,-1.4580329608917237,299.30947400326704,-0.02220425273058936,-0.7543120649456978,1.1772719258069992,319.4300616076648,-0.028522575879469513,-0.6392087337374687,1.24725368976593,314.4736760739747,-0.1541721681465807,-0.05277450457029013,-0.013729361954622332,13.243535088105043,0.10579508865925982,0.060877291817937114,-0.004293412232199485,13.454130592683992,0.005562150240580609,-0.11528474641827419,0.05008827336320487,13.197748937406265,0.08758858316422106,0.03698101272920322,0.0978449024612401,13.927904266142708,-15.42780456751585,-17.36138611078262,30.35206401824951,-11.567462863922119,17.53802266597748,11.210806654021145,22.168729020357134,-0.522096159029752,-20.60916476368904,4.330931412875652,-14.368375464081764,3.9056889144261366,19.325525298118592,15.1401518368721,-32.22473837852478,12.038018172979355,29.5
1.7843008041381836,0.0412827730178833,-0.08425664901733398,1.9364611396070768,-0.06548469005296101,0.08636209104998346,-24.521768587840697,138.74083025967101,-2.074393845234301,9.035124651363894,-0.2544677656888962,0.6378732138872146,-1.3904227578639985,313.3763775798587,0.18685037031769752,0.5921414083242417,-1.437671160697937,306.22412449977475,-0.010001435184385628,-0.6688030588626862,1.1247769457101822,326.2784482593309,-0.012880405550822616,-0.6442618808150291,1.281136691570282,321.54621347553183,0.2417655044145401,0.13114523178551418,0.1966247945855049,12.17503529750726,0.22017911387284617,0.07889975444508406,-0.06277616961912989,12.477956563687805,0.0011874491239804222,0.3477881721354613,-0.17682301646770104,12.758379341116083,-0.034607213790057774,0.08432618564831527,-0.04925929889617644,12.536613484313543,-4.268497089520097,-15.58069239139557,20.91959740638733,-9.132381529808045,13.647074012756347,10.478902062969283,34.04627989768982,-2.773081052675843,-25.688076038360595,11.720871858671307,-21.28005675315857,7.51976938762702,20.232380981445313,-6.636623901072889,-29.844987277984618,2.9197598895430565,30.0
1.7843008041381836,0.0412827730178833,-0.08425664901733398,1.8201105334914314,-0.07980781697547779,0.0555818466215488,-23.591656839587152,138.78731152777434,-2.0569857227358384,12.503312143622065,-0.1518274301290512,0.6491079404950142,-1.249162893295288,319.5525321507881,0.3001313781738281,0.5970640486478805,-1.4572671687602996,312.50289031317953,-0.027952366257086397,-0.6143852084875107,1.0713607335090638,333.07222119521293,-0.049772524684667585,-0.6699136373400688,1.2951420551538468,327.92398638812415,0.18883249096264831,-0.04893052610831974,0.33507084364038414,11.749985575656401,0.23561643379488018,-0.06898571259657843,-0.014820647717035612,12.091976793214275,-0.054289217184180866,-0.06717222421118416,-0.04041788702725113,13.430759129047452,-0.0929149048339837,-0.20306632264250524,0.09593644603733344,12.282411028508378,-11.475167231559753,-12.072362334728242,15.826487665176392,-6.2147638285160065,8.095226716157049,14.8508375954628,36.40811325073242,-1.2135477875731886,-25.54770339012146,16.495475125312804,-17.167359986305236,9.130051305890083,24.93938249588013,-2.370800571590662,-32.96051507949829,4.937360577988438,30.5
1.6526694297790527,-0.049300193786621094,-0.3069475293159485,1.8732354947176295,-0.04914379446983729,0.08069730768992743,-22.650700580986467,138.6980988664301,-2.0493592731535593,12.445181467761675,-0.02211185449545155,0.6520259824395179,-1.066110564172268,325.74440312262885,0.4336779510974884,0.5671250566840171,-1.4994933450222014,318.90435524070966,-0.08117886487394571,-0.6525572428107261,1.072463167309761,340.2533761118089,-0.11737613864243031,-0.7958420768380166,1.2946189415454865,334.48299202453387,0.1706735667055133,0.019569694592643058,0.27099727214718244,12.337066648133238,-0.07944442438927633,-0.15153922879954365,-0.08822628838161835,13.115262000746432,-0.19124351989045396,-0.23624689460732667,0.1278244576925267,14.383430143570326,-0.16008975088792493,-0.23353039378629298,-0.09532540987113693,13.042744133584652,-15.922714249193668,-19.24231674194336,13.603183404281735,-5.849836369752884,-8.027972709834575,6.354126633629203,26.008620652481913,-2.276476226877421,-18.60502012729645,16.358368673324584,-9.480170044600964,8.230566080668941,32.79595706939697,11.878599347919225,-33.318127412796024,7.111416965425015,31.0
1.6526694297790527,-0.049300193786621094,-0.3069475293159485,1.9681865461941461,0.14855006320366645,0.08967814135673795,-21.719579891004933,138.5563279306643,-2.0174917151202227,14.672870129587292,-0.08041690774000017,0.7051568466424942,-1.10188167989254,332.2641666523982,0.26061998814344406,0.5711166450381279,-1.4947913324832915,325.69268365146314,-0.16189358040690421,-0.7876156243681908,1.1451978230476378,347.56395454542803,-0.1596758995950222,-0.7645325699448585,1.2133477973937987,341.39237914870756,-0.3649477759383927,0.16253920400648486,-0.4065610788908372,12.633131343766003,-0.24399368983845415,0.20948025335631967,0.06692186768180132,12.794226095257704,-0.10643883388309709,-0.17334881662239138,0.06947100629117639,13.380554953889886,-0.007074059844183307,0.26256107190428485,-0.2254690763229585,13.622884929697468,-37.91253589630127,-31.120394010543823,16.09052171766758,-9.223403205871582,8.49792311694473,15.862355065345763,22.544984126091002,1.418931750105694,-12.464818533994258,1.74595207773149,-3.2784328715503217,2.754778828244307,29.56123002052307,27.00696246623993,-37.28248966217041,12.618460853099823,31.5
1.673433780670166,0.10619807243347168,-0.2282085418701172,2.086249285309045,0.0640017531240232,0.06405727770545801,-20.715702349356704,138.50062558347727,-2.003980880499295,13.794222476933125,-0.25918355777859686,0.741192094385624,-1.3383528524637223,339.2455053626418,0.16066232159733773,0.6061110606789589,-1.4639822852611541,332.6408032231528,-0.1642730489373207,-0.8512795448303223,1.1826861572265626,354.55920985445164,-0.13205669432878495,-0.7247331988811493,1.1723442494869232,348.87143122058006,-0.18683286395675514,-0.0492121773071331,-0.3259684116927991,14.107710707032629,-0.12035769855135195,-0.03777310286018611,0.08460663590476188,13.705033575656676,0.11044632812913918,-0.046120181340274936,0.15886567215168262,13.297705330642268,0.07317091791488183,-0.031922962051269,0.019022491983229365,14.583635173356145,-22.939085092544556,-29.18099181175232,25.391212224960327,-11.132390699386598,15.37414192199707,13.102190127372742,17.548712301254273,1.066459162424726,-14.848554310798646,13.689772202968598,-5.103120926991105,5.8619760429859165,24.28532615661621,24.965035495758055,-30.09130597114563,11.633400557041169,32.0
1.673433780670166,0.10619807243347168,-0.2282085418701172,2.085513325910714,0.06887146546318253,0.0789111373809174,-19.683846307922973,138.56703125422428,-1.9905358601705265,12.733906137745143,-0.3501616844534874,0.7154420682787895,-1.4333540827035904,346.573788541122,0.1508203960582614,0.6083960947394371,-1.4160148310661316,339.7609293376572,-0.1376190523803234,-0.8370606216788292,1.245118099451065,361.53607572613925,-0.12840330388396978,-0.7012749153375626,1.1159243142604829,356.5240765110666,-0.1814700429978126,4.528259666285826e-05,-0.10638217833599668,13.570050372968103,-0.00458904273629376,-0.0855731417866513,0.19702591694859678,13.755709669617296,0.02932406499086234,0.07221868865101554,0.021465815623279646,13.357868604422759,0.005513688078272264,0.05865075370823242,-0.1484416041736959,14.529952509009197,-11.220244875177741,-22.212669286727905,27.063791255950928,-11.081454668045044,13.832160200700164,12.432419866323471,19.950662014484404,0.33486334026558323,-19.992089335918426,13.728890308085829,-17.11154774516821,6.523326703649945,26.2889612865448,17.671646535396576,-23.6323388671875,8.241324310898781,32.5
1.7694025039672852,0.1833103895187378,0.1156700849533081,2.052005623568023,-0.02130863539933183,0.07468010846419776,-18.681195871194188,138.68484061218567,-1.9711118094918312,10.795515668853453,-0.36402863144874575,0.7129921296238899,-1.4639408206939697,353.4792447459,0.12728901036083698,0.5330717611312866,-1.3140737682580947,346.8611873880491,-0.08350356481969357,-0.7967017063498497,1.2310590469837188,368.56081864748035,-0.09010435637086629,-0.7125687304139138,1.0847839057445525,363.92424326701286,0.11795106037631287,-0.005826684176783741,-0.00853175242273976,13.3335713434333,0.029032708777662813,-0.05806323213077762,0.020504461796786347,13.563007751323418,0.0763611493937426,0.08619711984488959,-0.020990714210724487,13.761324370864509,0.04295282911483083,-0.07025327131317069,-0.012466796361884263,13.936148234428805,9.218092679902911,-11.357753866910935,15.85706300571561,-6.3534660506248475,9.593422060795127,14.149085354804992,31.943337774276735,-0.8432786846905946,-32.85521240234375,21.21915714919567,-27.123208026885987,10.322656902074813,24.551641983985903,6.263247420042753,-17.412371854782105,3.8305852192640306,33.0
1.7694025039672852,0.1833103895187378,0.1156700849533081,2.086126765423429,-0.02892079560822015,0.07573589040555735,-17.626870656960776,138.77330215035775,-1.9482677360266891,9.151043353575885,-0.28447231128811834,0.7421084067225456,-1.4310182374715805,360.50887328931594,0.1851658672094345,0.5483049091696739,-1.3464969742298125,353.87148055865975,-0.10263506207615138,-0.7270908537507057,1.2346934986114502,375.9100592692241,-0.11417095720767975,-0.7039990490674972,1.0441145992279053,371.1039621888399,0.1265688020697195,0.09149618459274729,0.09110257433496104,13.34806253236766,0.09251810725854909,0.08698428630271313,-0.08824784684164136,13.368968697130459,-0.038489792146253456,0.16255475907154335,-0.04073999733409927,14.080651409771315,-0.05304007936569679,0.08390091347050972,-0.07893251035974702,13.486759019179953,1.6894967287685723,-16.237629685401917,20.394252099990844,-8.097018828392029,10.940873498916625,15.282313823699951,30.018307456970216,-0.40816778227104805,-31.285336923599242,13.32404770374298,-29.497077264785766,8.844787372350693,31.1315771484375,7.921694662570953,-16.394150547981262,3.848888325691223,33.5
1.7787151336669922,-0.0037128329277038574,-0.24616563320159912,2.0934339226006586,-0.01534458594089579,0.07272302370136391,-16.586625258313816,138.7889073133881,-1.9329452279129893,10.897889092147539,-0.2481671792268753,0.763804769217968,-1.389159619808197,367.55705355145284,0.20985720574855804,0.5738947039842606,-1.375219802260399,360.91699740733037,-0.10401240944862365,-0.6849495229125023,1.203325986266136,383.38942451136376,-0.12748327553272248,-0.6789000099897384,1.0404016447067261,378.25590961688533,0.03461294220177388,0.020118090806670406,0.06756142307503912,13.658704839175295,0.020835499760170087,0.0031921805740368816,0.006646786770049499,13.767816864654412,0.010583529287039907,0.013126421093094367,-0.057026065385213834,14.563569426333272,-0.007682088274459424,0.04785630714601096,-0.001968070304427829,13.865110095468758,-1.8931098861433566,-18.118885469436645,20.523805117607118,-7.9324948954582215,8.180636646747589,15.035003600120545,28.39415063858032,0.13746830495540052,-28.672284097671508,9.990106592178345,-25.090904064178467,7.8556573414802555,30.161580781936646,13.217555634975433,-19.546161851882935,5.972078007459641,34.0
1.7787151336669922,-0.0037128329277038574,-0.24616563320159912,2.0178763623913945,-0.05784975820979961,0.058485484951244754,-15.548911793175543,138.75838891670813,-1.9320130128103241,9.664953021186813,-0.2067881663888693,0.8129347014427185,-1.3804286301136017,374.55806099257,0.2318065547198057,0.6014427256584167,-1.4082531249523162,367.9470515236806,-0.09948800440877675,-0.6613631337881088,1.1836259573698045,390.88597809624093,-0.11565580237656832,-0.6600039994716644,1.047699443101883,385.3607091379912,0.30997563913505344,0.20896884429831583,0.15928058344601484,12.565361834238285,0.1507885692139817,0.12484936468630037,-0.23431589761211838,13.010857578547228,0.012698984265030975,0.03393342659451666,0.06669306181880631,14.083306866336354,0.06924486788295636,-0.11275461389063586,0.14655164254141348,12.986191355230881,8.583223798945546,-22.85497901916504,21.06826244354248,-8.416896865367889,1.743764458745718,8.166640705913306,24.726106816977264,-2.199548153680662,-27.328067264556886,11.687307484149933,-25.439034872055053,8.895115065574647,31.43798130989075,-0.0650677796639502,-19.02007348537445,2.259128125696443,34.5
1.7711081504821777,0.06648892164230347,-0.1145930290222168,1.9542465206500623,-0.11091731286411916,0.09313736201658744,-14.583141936731032,138.54865052426345,-1.9288432699430373,12.418012295001219,-0.014504507941310293,0.8256143701076507,-1.2612936890125275,380.9310912754888,0.09198288362473249,0.6574766489863396,-1.422957529425621,374.5034097287116,-0.08154618112370372,-0.746572530567646,1.2248259282112122,398.3687919432825,-0.06582048077136278,-0.7279338243603707,1.1300393325090408,391.81829614581244,-0.048636433637784006,-0.37325908795592594,-0.09316503652553633,13.13823911547297,-0.4092061546321051,0.06444109299342936,0.1289791576383382,13.039580957341993,0.05544447138491157,-0.2925247809338757,0.057387115406430746,14.203292482672468,0.06906469463337729,-0.011546104121772129,0.08120649405748416,12.774682105434533,-19.966798265874385,-25.58263249203563,20.262796686142682,-6.82789445605129,8.413099754080177,12.570438282489777,24.585699102785437,0.6782811311259865,-23.207411956191063,-2.2133294478431345,-17.68526673004031,2.5709221874852664,31.919385833740236,20.91703344345093,-25.65373034954071,9.819496542215347,35.0
1.7711081504821777,0.06648892164230347,-0.1145930290222168,2.0520723213325915,0.1371659603875607,0.07422428302944989,-13.592231486080033,138.40925125652666,-1.9172713946603042,13.909796623134707,-0.2977281824871898,0.6397934436798096,-1.4054729050397874,388.0376932577254,0.2231133173033595,0.6443039467930793,-1.492442902326584,381.6832382893437,-0.11854759655892849,-0.8627263993024826,1.2588344025611877,405.52461288628615,-0.04650047181174159,-0.7695829638838768,1.225934588909149,399.3081839606116,-0.6238363605075132,-0.13429733045063386,-0.19923988072607282,13.40016308328475,0.2820903206940417,-0.15241810875994938,-0.10366970034901417,14.022961080800055,-0.1029213006624318,-0.1403153210814936,0.024682678155506763,13.42176215196314,0.027761092598895264,-0.1904608302826368,0.2601142356888476,15.15341814769398,-24.422440322339536,-18.50482186794281,36.127751665115355,-11.422828760147095,12.80258270263672,6.170729116052389,9.613956338837744,-0.5597909593128133,-11.036035135835409,6.35560309752822,-1.4566495349630713,3.8845949101494623,19.292009263038636,30.652121348381044,-35.44112338066101,14.071724395751954,35.5
1.7859601974487305,0.3138902187347412,0.42763471603393555,2.0955546164931658,0.061969779982893165,0.06998119555791496,-12.615216293264186,138.46695082690505,-1.9040157538975324,10.731297814706645,-0.42395167514681814,0.6451446402072907,-1.4552631670236587,395.00593000998475,0.1980886969715357,0.5382928073406219,-1.4087068444490434,388.89255701643117,-0.12293394263833761,-0.8346553891897202,1.2931924551725387,412.44780148203444,-0.06853299044072628,-0.8238005554676056,1.2391531902551651,407.0156399482164,0.050856053232592346,0.12774072552622406,0.005799665290668174,13.20587568798855,-0.07381706678236818,-0.16762794511083662,0.26784321458928234,13.702015476445984,-0.0010592208691741478,0.2155276992204775,0.04426011009578242,13.342389008549846,-0.0709545851827141,0.054203216457158705,-0.23088802381539275,14.280659307046928,2.862757794428617,-11.24113357782364,27.23466824531555,-8.30697751045227,7.168913057297468,14.525720000267029,22.715339040756227,0.4596305007248884,-20.728934121131896,17.893336005210877,-23.739528727531432,8.45455462217331,23.198922538757323,12.494882333278657,-24.153200492858886,5.538809933662415,36.0
1.7859601974487305,0.3138902187347412,0.42763471603393555,2.0441202149447055,-0.00739741228198773,0.06844212391093961,-11.590583890221135,138.52100605932563,-1.8794973604416314,11.43108352765632,-0.3758608964085579,0.7164099124073983,-1.4083035802841186,401.75487294157244,0.19992240346968174,0.5234641274809837,-1.316036307811737,395.7958555176908,-0.11998989794403314,-0.7443102681636811,1.2523298424482345,419.6064194607392,-0.0862193100899458,-0.7617743995785713,1.0951872897148132,414.31689502000364,0.04100695748238859,0.06856121461867103,0.1111490544687633,13.000463280786349,0.039607660420095045,0.09803214067326316,0.054863561664063296,13.1638845178747,0.013125269655875231,0.019183193450362894,-0.09674736269284429,14.084048889595088,-0.02501261179324137,0.11556810467303151,-0.2538692669143095,14.012775188710288,-0.3510487974667922,-16.280500097274782,26.82302737236023,-8.55802589416504,10.7999636054039,19.324554805755614,23.948873686790467,2.1279833092098124,-26.35604253768921,5.711826317813247,-27.450009784698487,5.992814446091652,28.408969173431398,14.838898820132018,-19.829549684524537,5.6747994295880195,36.5
1.7465863227844238,0.05455237627029419,-0.054589033126831055,2.0740372539439518,-0.04926504175242429,0.049972338366595724,-10.547992970951857,138.5575710248391,-1.8615434772959052,10.348876796121537,-0.3869937628507614,0.7348366197943688,-1.3999801748991012,408.6964909738789,0.22484096333384515,0.5713075518608093,-1.3354167175292968,402.80983233381426,-0.10495556734502315,-0.7622118249535561,1.2120974814891816,427.03151633687855,-0.09582083206623793,-0.7621577760577202,1.0438127142190934,421.7417557488636,0.06504177062413616,0.07621259696898536,-0.041252100728133546,13.434767173172222,0.073260254113655,0.016201546944673163,-0.07100473843857938,13.69509381957275,0.025992251728533044,0.0719481518482052,-0.06141772758255884,14.10935463109979,-0.01241436836373912,-0.06439200984897267,0.03998886267340379,13.912129019441393,4.1237809780985115,-17.554215211868286,23.750113468170166,-8.212183725833892,9.419620079994202,13.10614364862442,21.76485891819,0.5935688644461333,-26.083846254348757,17.600055918097496,-23.840282325744628,8.829230141639709,28.534822731018068,14.454085519313812,-16.764693555831908,4.715011847615242,37.0
1.7465863227844238,0.05455237627029419,-0.054589033126831055,2.1121850285564774,0.00926120334389982,0.05983970954631603,-9.503480410427315,138.57385704728628,-1.8492246290421575,10.561253828469631,-0.34178686946630477,0.7702538403868675,-1.4239737904071808,415.79752441111236,0.23877849750220775,0.5736658072471619,-1.35661369740963,409.93063963915256,-0.09013251911848784,-0.7089062303304672,1.1964283454418183,434.39474465194456,-0.0992374138906598,-0.7294469526410103,1.0439446586370469,428.8988622134577,0.002857877691799029,0.032669786848083276,-0.07030564857097749,13.808237310346833,-0.057451068230292085,0.030630033358814493,-0.055241040861080365,13.815286567257369,0.023545479977403746,0.03953568853909924,-0.00012217851788852248,14.218618860229942,-0.009533389810999377,0.1314272640803389,-0.05502901227042711,13.848160194989639,3.019097048835829,-17.087653784751893,18.323752813339233,-7.734658303260804,4.803515512282029,12.911140832901001,26.980558557510378,-0.4428200245834887,-29.12700656890869,11.422586107254029,-24.68365259170532,7.816765692234039,27.515834522247314,19.4126917886734,-16.440018076896667,6.985272951126099,37.5
1.7882351875305176,-0.0037422776222229004,-0.1692180633544922,2.1441891388494567,-0.024260216049220674,0.07954261919224324,-8.438408566881037,138.58754660696306,-1.8481304733833925,10.200467853219031,-0.33027805790305137,0.789405110180378,-1.456581553220749,423.07947889243434,0.20810918733477593,0.5891132345795631,-1.3967594105005263,417.20776863673797,-0.08489972747862339,-0.6687684243917466,1.1860194510221482,441.9152571217226,-0.10495484784245492,-0.6842150136828422,1.0359631717205047,436.2251858681762,0.0820375509323197,0.028990365526719283,-0.035481940552856604,14.061940019978707,-0.0028628065471627655,0.019565768866240795,-0.08844788748328755,14.121280444892966,0.023302014230318108,0.1103809600300516,-0.040465930012571434,14.522263961610555,0.0025909220103471644,0.01976697167524444,0.0815662765329655,14.032800033573558,7.944484156668186,-18.98678105354309,16.331534593105317,-8.163920850753785,5.270622289329768,10.677308161258697,29.524968299865723,-1.5326913319993765,-30.896726932525635,13.296946611404419,-26.982733917236327,9.538016242980957,28.400009765625,11.999292244911194,-14.63474639415741,5.471113752126694,38.0
1.7882351875305176,-0.0037422776222229004,-0.1692180633544922,2.1652104439115716,-0.03322554282900039,0.09969472825557446,-7.361257265544713,138.5541817688889,-1.84053871667826,10.517544990114093,-0.2871354454755783,0.783922806084156,-1.4527981346845626,430.46942240233585,0.2066885767877102,0.5859453248977661,-1.418590716123581,424.5903915079546,-0.06896526198834181,-0.6298415029048919,1.1521700006723403,449.62181375691443,-0.09886866018176078,-0.666651531457901,1.0816588985919953,443.5894073852437,0.05239539653102523,-0.026668681424941196,0.03448047340778737,14.22913874867309,-0.03435194451429449,-0.00994460692911532,-0.0065422158977119955,14.317619511529745,0.027366638202998735,0.04184713913490021,-0.07848466513754065,14.917281020106234,0.014181019373498192,0.08788778978180063,0.03722832298086981,14.221193802777336,3.5615933550521732,-18.78606955051422,17.688570199012755,-8.287366724014282,5.480612582266331,11.776763823032379,30.868496532440187,-1.4462384189962176,-30.76813952445984,10.425588654279709,-24.477932071685792,8.781373155117034,28.05888352394104,11.409229301214218,-19.036885356903078,6.137574560642243,38.5
1.7983379364013672,0.0015735626220703125,-0.1745237112045288,1.8810643163885639,-0.2689510083285185,0.07808764290726733,-6.343253634091841,138.44182243406703,-1.829160183817777,10.358330436049958,-0.10334464793952065,0.893601598739624,-1.2992275935411453,437.1351457470414,0.16090703869063872,0.6505301105976105,-1.4462583446502686,431.5550463177024,-0.06493604440242053,-0.6243740594387055,1.1651227980852128,457.2426777237197,-0.07872964894399047,-0.6628701478242874,1.1264326858520508,450.51012957694775,0.6412188013564339,0.2657534800942181,0.5666886796504929,11.513698287727973,-0.39496910158432763,0.1732288866694485,0.23482609691952547,12.446762197507214,0.03434281968639164,-0.14094875709626903,0.05349784922465843,14.39927194666202,0.10301646962920702,-0.137171037885051,0.12630379676375625,11.937768085474154,1.261850904971361,-35.185403451919555,31.28174167752266,-7.417396985590458,-1.0732539534568786,8.451642513722181,14.239757377430797,-0.6959444200480357,-20.593290572166442,-4.653753907084465,-21.33384919166565,2.6430889480328186,37.49147112846374,-0.18431543596088887,-25.693933625221252,3.6374562380835416,39.0
1.7983379364013672,0.0015735626220703125,-0.1745237112045288,1.9868949408522902,0.05097979718347401,0.11152816544510287,-5.3833799649474825,138.20236766273754,-1.8087583428612712,14.220153571674249,-0.1649948583742662,0.7398928835988045,-1.3420622140169143,443.7675494448698,0.09875433026441897,0.6512011086940765,-1.3660461258888246,438.3681795423425,-0.09042793036205694,-0.7972503450512886,1.2220222163200378,464.5592068156088,0.007582059739797841,-0.7453827366232872,1.17952268242836,457.4091704126643,-0.834088252744951,-0.4114557216365672,-0.5712079871602666,13.239601757633068,0.4194177772857673,-0.08455528980743837,-0.28569846808457955,13.603945903547526,-0.23542312069654897,-0.3679401734363617,0.20879813832820712,13.035514933537126,0.19052005872910707,-0.16972547434649146,0.17131991407732905,15.03822557816661,-29.982226765453817,-14.390411706827582,25.095411487072706,-8.402163995628944,11.26550354398787,7.493549696505069,21.83585574287921,-0.8713728243904189,-12.870838013589383,-2.751780644133687,-7.198928822875023,2.0281046181920828,17.684259327054022,25.87947624206543,-34.34757329940796,12.458313567638397,39.5
1.7335801124572754,0.1075437068939209,-0.22945797443389893,1.9331926712604013,0.0724379621309651,0.06512634416318216,-4.453810388355776,138.2442911177183,-1.7937415343586613,12.519257096949033,-0.28327281069010496,0.6631553718447685,-1.4145033770799638,450.39521904991153,0.1789633109793067,0.6158992937207222,-1.4360630065202713,445.2297603930733,-0.16521560799330473,-0.8827503603696824,1.2520279610157012,471.2030307700809,0.10293370904400945,-0.9060093447566032,1.3450583815574646,465.17671968754905,0.41378191488562116,-0.09661224860928806,0.25963752588027544,12.530614245241795,-0.14279829832932914,-0.11904682281299955,0.09283882398085741,13.035486223329004,0.09811038344525727,0.055557280221421965,-0.09982780187274645,12.690262596661206,0.1000979597768484,-0.30239961805406285,0.3216464728638039,13.709152857357012,-4.254154672175646,-1.121817842684686,10.868017771542073,-2.854722761066514,13.290868683159351,-0.7037928522378206,36.282166203334924,-6.010417836576234,-9.372870413511992,15.022060421761125,-21.44257824897766,6.50848153578001,-8.952859804034233,14.567452206201851,-20.98374713897705,7.6204455709178,40.0
1.7335801124572754,0.1075437068939209,-0.22945797443389893,1.9557024664193776,-0.004317005998335965,0.010613134173391188,-3.5616828143979933,138.41393209897686,-1.7931253301819268,10.086234338805355,-0.14541395239531993,0.6166771906614303,-1.281847233772278,457.01178839583974,0.1674039276689291,0.538705064356327,-1.3772941613197327,451.9554582033423,-0.09340073708444833,-0.8566070112586022,1.260747926235199,477.85975598983816,0.09862921506166458,-0.9506527435779571,1.422926612496376,471.9245448916748,0.07105156576262636,-0.11258329260913684,0.10751217065850309,12.935226641187112,0.14229053712436251,-0.05541374077999758,0.04378292799349534,12.757817808273924,0.06519610535377993,0.04468867341002174,0.14049078534650547,12.730598777273578,-0.05127735968562102,0.08390562066458708,0.004130457338234072,12.741041551224205,-15.073746218681336,-11.140359284877777,21.161875357627867,-7.33070573206991,14.663025023937225,15.137382168769836,27.104453096389772,-0.37581521848915145,-12.325398745536804,13.83538608968258,-15.29152195930481,6.278418124914169,8.96396266117692,19.566042993068695,-31.95475788116455,7.777128686904907,40.5
1.7871575355529785,-0.0937422513961792,-0.06000065803527832,1.8086119521804327,0.005679791926474186,-0.002700560250059281,-2.624683999798896,138.6194597217664,-1.8090919421090763,7.229872083441388,-0.14178776532411574,0.608187806904316,-1.2811469948291778,463.66241949304725,0.21288909517228605,0.569187180697918,-1.4074866151809693,458.44385404682595,-0.06898132039234042,-0.7994958260655403,1.2822836983203887,484.39424238707807,0.07039545863866806,-0.8623734623193741,1.3930886405706406,478.5593209304895,-0.06909011985042823,0.11164483083147309,-0.17091732896585657,12.084399267675156,-0.01347473849971056,0.15058653437283492,-0.1289268608322482,11.919126387944111,0.04256201352528606,0.174761111728399,-0.061300847510133656,11.779763981695986,-0.022184373174352495,0.2486723538855266,-0.04422982715611351,12.0297295146544,-19.729020080566407,-22.838847866058348,25.48685028076172,-12.758574023246766,11.158762221336366,7.263608019426465,20.083232889175417,-2.553148697130382,-11.45336642742157,-0.803412005007267,-12.021971788406372,1.6509319044463338,13.953215746879577,18.20170763283968,-36.25006586074829,7.954852638840675,41.0
1.7871575355529785,-0.0937422513961792,-0.06000065803527832,0.8447512182293226,0.24754811852557665,-0.005007104170752109,-1.933240690377407,138.82212147049847,-1.82915219911781,16.001633557500945,-0.1713877233909443,0.7707125961780548,-1.4630730468034745,468.33736756021625,0.055827913952161905,0.7187814730405807,-1.4082117813825608,463.1322209742089,-0.04761500458233058,-0.6760036599636078,1.2311199277639389,488.86752909670724,0.08071723205968738,-0.6439996674656868,1.3749228370189668,483.14533438109413,0.41149596059786264,0.2832799692100242,-0.045749228409769395,5.37557200321703,-0.8691273118064805,0.27543630769506705,0.5988530014491089,5.247337745745788,0.02315020186670856,-0.002413946154021146,-0.1321176464810571,5.3710762880242475,-0.049777160095670736,0.026011153518108555,-0.044175184286830114,6.172428263074093,-2.622933542728424,-12.097954426407814,5.418471447490155,-8.306398003809154,3.0327130500227213,-17.66226458489895,50.75096059799194,-10.251566917896271,-18.069822368621825,-12.412964920699597,-29.447945375442504,0.022919671828858554,-0.1562489316612482,-17.868215375244617,-28.94617443084717,-1.2390120534598827,41.5
1.1782360076904297,0.002792537212371826,0.04860544204711914,0.9213807944241941,0.5774549595289147,0.09885738140491497,-1.7094252559873357,139.24810211173667,-1.8138341312816424,23.494314392782307,-0.2576652774005197,0.8303482574224472,-1.4179773676395415,470.9804248897692,0.08666464425623417,0.6428409138321877,-1.3374490022659302,465.8963488253885,-0.17563217582181095,-0.9068593856692314,1.3141445988416671,492.0851924137111,0.03253513411618769,-0.7309920811653137,1.2396308827400206,487.220938251128,-0.25383348804791556,-0.15244359038980346,-0.4503667008953817,6.606043090990447,0.7570500839630064,-0.2167964288321963,-0.3127558906904945,6.489819874625816,-0.3464218059472253,-0.33542533302224425,0.14223198493225564,7.537117261406679,-0.033029570733573904,0.011454764295036984,-0.3383066460297534,9.957597420980937,-7.488917306363582,-5.936958979843184,22.27271164044738,-2.5957108466792853,-6.048581717163325,1.7002603095769881,18.710876768119633,-3.2088107930868865,-9.303226366043091,7.067190456315875,-12.876403142213821,3.7891947815171445,13.791529427617789,13.011530998647213,-32.22193852722645,9.35849435236305,42.0
1.1782360076904297,0.002792537212371826,0.04860544204711914,1.3580184155285133,0.3232827868316672,0.06680244297494403,-1.5855971196536638,139.88036246329176,-1.822292450127723,18.07203109719817,-0.05145163454489193,0.7248754507303238,-1.282849834561348,475.1671574624363,0.10000788056451711,0.6302963048219681,-1.3245431917905808,469.845123744366,-0.24226734451949597,-0.9339706993103027,1.3355626887083054,496.53844936020084,0.006640818713058252,-0.8791752275824547,1.1567202937602996,492.81993598859015,-0.463512182810657,-0.0033274472864574588,0.37125335517274627,9.37086150416823,0.3263933677826499,-0.2834855185243135,-0.06578053035156825,9.595891634137345,-0.11964121040676771,0.1360966905958122,0.16109714602135847,10.395537720685144,-0.07630283548916866,-0.3279200113497722,-0.056795606627708356,11.868455934558671,-21.8814009706676,1.1179937935248017,23.476676817536354,-1.1267752463754732,4.211148274242878,-2.381833227276802,17.146801303327084,-2.706691309008747,-4.231051778681576,5.9631576082110405,-9.997170989736915,4.609320038841106,9.633323426023125,31.325662987157703,-27.31412962436676,8.729679180691019,42.5
1.2582926750183105,0.6500177383422852,1.1096384525299072,1.921109063271854,0.0765900587025979,0.10110933394116206,-1.7332042323867696,140.70549330524935,-1.84548293746387,10.313907463523782,-0.2098979527503252,0.6649485710263252,-1.3734774196147919,480.9943722647112,0.19046001844108104,0.4752535070478916,-1.2977468240261079,475.73531884306334,-0.24875308752059935,-0.9194671523571014,1.346381448507309,502.9373324924545,-0.0075721128749864875,-0.9349659898877144,1.1242825931310654,499.65468354182127,0.2647056784651355,-0.10988801264271912,0.03346224246305951,12.415003622007568,-0.2434516507868737,0.0474235330722394,-0.05821087828826896,12.33672858912762,0.08865206200354905,-0.1384098811556554,0.07238175146274096,12.8709188908708,-0.055623586395027846,0.004052626220171794,-0.07277400011781471,13.02920352138556,-1.9925984385609627,-6.0268118394911285,19.124455096945166,-5.239729335065931,5.965242847800255,11.307717164158822,24.436428604125975,-1.1708963535726071,-13.833247622847557,17.779408779740333,-24.240071640014648,7.666800115704536,12.991709988936782,22.00085937842727,-16.21608238592744,4.740422840788961,43.0
