junja94/rosbag_plot/data/0504_mission/motion.csv
command_linear_x,command_linear_y,command_angular_z,linear_x,linear_y,linear_z,base_x,base_y,base_z,cot,joint_position0,joint_position1,joint_position2,joint_position3,joint_position4,joint_position5,joint_position6,joint_position7,joint_position8,joint_position9,joint_position10,joint_position11,joint_position12,joint_position13,joint_position14,joint_position15,joint_velocity0,joint_velocity1,joint_velocity2,joint_velocity3,joint_velocity4,joint_velocity5,joint_velocity6,joint_velocity7,joint_velocity8,joint_velocity9,joint_velocity10,joint_velocity11,joint_velocity12,joint_velocity13,joint_velocity14,joint_velocity15,joint_torque0,joint_torque1,joint_torque2,joint_torque3,joint_torque4,joint_torque5,joint_torque6,joint_torque7,joint_torque8,joint_torque9,joint_torque10,joint_torque11,joint_torque12,joint_torque13,joint_torque14,joint_torque15,time
0.0,0.0,0.0,-0.0004905784347248114,0.0002421958746305605,0.00045475561919489034,15.484538783791283,161.39391055925725,-2.640792069371031,2.409645723234409,0.43303828956159346,1.0162015816916716,-2.277436124766531,-1.5056837513780874,-0.12258568566086833,1.0745069870919537,-2.45166913717071,2.819655358368344,0.2999413364504013,-1.1056203637386393,2.4324683470228696,0.5696030849277038,-0.16829660827396836,-1.047645952803957,2.425061483324671,1.8679579923826148,-0.00020214228897004696,-0.00023443542963808971,0.0006269172419847065,-0.00048591644519654117,1.4682502043609504e-05,-0.00026422108984119923,0.00045478025337052194,0.001341518441282497,0.00020237837737325132,-0.0002113105069266939,0.0005697544372772694,0.00045285706026432926,-7.212797551088805e-05,-0.00028956494375389293,0.0008383759045925104,0.0015763062996714964,-2.0861580452304676,-2.344120328411734,15.435705576937623,3.385392711206448,14.503506338669478,-4.8765186444382,29.516419428257855,5.113500305480021,-25.26175399499437,14.859266246023354,-22.58066695745737,3.806522787714297,11.009411443230565,4.9074703286761885,-15.426645507110408,-4.078408176913583,0.0
0.0,0.0,0.0,-0.0004905784347248114,0.0002421958746305605,0.00045475561919489034,15.484538783791283,161.39391055925725,-2.640792069371031,2.409645723234409,0.43303828956159346,1.0162015816916716,-2.277436124766531,-1.5056837513780874,-0.12258568566086833,1.0745069870919537,-2.45166913717071,2.819655358368344,0.2999413364504013,-1.1056203637386393,2.4324683470228696,0.5696030849277038,-0.16829660827396836,-1.047645952803957,2.425061483324671,1.8679579923826148,-0.00020214228897004696,-0.00023443542963808971,0.0006269172419847065,-0.00048591644519654117,1.4682502043609504e-05,-0.00026422108984119923,0.00045478025337052194,0.001341518441282497,0.00020237837737325132,-0.0002113105069266939,0.0005697544372772694,0.00045285706026432926,-7.212797551088805e-05,-0.00028956494375389293,0.0008383759045925104,0.0015763062996714964,-2.0861580452304676,-2.344120328411734,15.435705576937623,3.385392711206448,14.503506338669478,-4.8765186444382,29.516419428257855,5.113500305480021,-25.26175399499437,14.859266246023354,-22.58066695745737,3.806522787714297,11.009411443230565,4.9074703286761885,-15.426645507110408,-4.078408176913583,0.5
0.0,0.0,0.0,-0.0004905784347248114,0.0002421958746305605,0.00045475561919489034,15.484538783791283,161.39391055925725,-2.640792069371031,1.5263630651803566,0.43303828956159346,1.0162015816916716,-2.277436124766531,-1.5056837513780874,-0.12258568566086833,1.0745069870919537,-2.45166913717071,2.819655358368344,0.2999413364504013,-1.1056203637386393,2.4324683470228696,0.5696030849277038,-0.16829660827396836,-1.047645952803957,2.425061483324671,1.8679579923826148,-0.00020214228897004696,-0.00023443542963808971,0.0006269172419847065,-0.00048591644519654117,1.4682502043609504e-05,-0.00026422108984119923,0.00045478025337052194,0.001341518441282497,0.00020237837737325132,-0.0002113105069266939,0.0005697544372772694,0.00045285706026432926,-7.212797551088805e-05,-0.00028956494375389293,0.0008383759045925104,0.0015763062996714964,-2.0861580452304676,-2.344120328411734,15.435705576937623,3.385392711206448,14.503506338669478,-4.8765186444382,29.516419428257855,5.113500305480021,-25.26175399499437,14.859266246023354,-22.58066695745737,3.806522787714297,11.009411443230565,4.9074703286761885,-15.426645507110408,-4.078408176913583,1.0
0.0,0.0,0.0,-0.0004905784347248114,0.0002421958746305605,0.00045475561919489034,15.484538783791283,161.39391055925725,-2.640792069371031,1.0033086813385172,0.43303828956159346,1.0162015816916716,-2.277436124766531,-1.5056837513780874,-0.12258568566086833,1.0745069870919537,-2.45166913717071,2.819655358368344,0.2999413364504013,-1.1056203637386393,2.4324683470228696,0.5696030849277038,-0.16829660827396836,-1.047645952803957,2.425061483324671,1.8679579923826148,-0.00020214228897004696,-0.00023443542963808971,0.0006269172419847065,-0.00048591644519654117,1.4682502043609504e-05,-0.00026422108984119923,0.00045478025337052194,0.001341518441282497,0.00020237837737325132,-0.0002113105069266939,0.0005697544372772694,0.00045285706026432926,-7.212797551088805e-05,-0.00028956494375389293,0.0008383759045925104,0.0015763062996714964,-2.0861580452304676,-2.344120328411734,15.435705576937623,3.385392711206448,14.503506338669478,-4.8765186444382,29.516419428257855,5.113500305480021,-25.26175399499437,14.859266246023354,-22.58066695745737,3.806522787714297,11.009411443230565,4.9074703286761885,-15.426645507110408,-4.078408176913583,1.5
0.0,0.0,0.0,-0.00024709838018669334,-5.497498916507586e-05,-8.233291169498533e-05,15.485899779797627,161.3953402008293,-2.640832324820415,1.4444576077427222,0.43287488624453546,1.0158789283037186,-2.2766616785526277,-1.5058358450580869,-0.12242701113224029,1.0742701500654221,-2.4509929168224334,2.819558874249015,0.30019226029515267,-1.105807608962059,2.433017406463623,0.5694796397487187,-0.16834732480347156,-1.0478507053852082,2.425846837759018,1.8678561910906162,-0.0002470978751803802,-0.00043252142002740614,0.001266368112647853,-0.0004599212808817151,0.0003252928465516862,-0.00016224880513570126,0.000983479965815955,-0.00047199807020656013,0.00038827705171752227,-0.0003584127849905787,0.0009037686415872398,-0.0001208501620619502,-0.00012422474141661816,-0.00035124934074173787,0.0012514221924252924,-0.00018819376707150475,-2.537454788684845,-2.8688815593719483,15.909449882507325,3.292543308734894,14.654265809059144,-5.153670198917389,29.69700262069702,5.116699314117431,-25.012533979415892,14.990039467811584,-22.510214262008667,3.724383006095886,10.919185495376587,4.913235394954682,-15.303039975166321,-3.974540228843689,2.0
0.0,0.0,0.0,7.245796147659203e-05,-0.00017068202168640033,-0.0005847485007466899,15.48543639153336,161.39304662817608,-2.6411524898984204,1.5384259226621242,0.4329239019751549,1.0160397630929947,-2.2769658970832825,-1.5058046448775597,-0.12247758470475674,1.074356290102005,-2.4511660885810853,2.819592214737207,0.30003310516476633,-1.1057246392965316,2.4327762603759764,0.5695329920199698,-0.16832622997462748,-1.0477324002981185,2.4254077661037443,1.8678997687284262,0.0003509524380021226,0.00047548469468486094,-0.001581755399482909,-0.0003861817812441432,-0.0004142587298222259,0.0003919087874085987,-0.0011504851689739443,0.0008777190325360246,-0.00036084921561041933,0.0004047628291481978,-0.0010950693828735165,0.0004657864429721156,9.901851370003557e-05,0.0005148882608927166,-0.0015971848868583552,-2.5057046804671003e-05,-2.3012326419353486,-2.4986283886432648,15.67301245212555,3.343458083868027,14.664749360084533,-4.997348170280457,29.801678638458252,5.082409205436707,-25.33446823120117,14.99773537158966,-22.68661410331726,3.796528356075287,11.032033524513245,4.968394079208374,-15.575932760238647,-4.031202099323273,2.5
0.0,0.0,0.0,-0.0005947829636625497,-0.00018346721495296082,-0.00014195228860241823,15.486487020865788,161.4006968514191,-2.6378479324727073,2.178352814752229,0.4329881422221661,1.0161991399526595,-2.277387591600418,-1.5056746422528287,-0.12260785359889269,1.074481793642044,-2.451524270772934,2.8196719191955064,0.2998366843163967,-1.105556293129921,2.432313920259476,0.5696971122349781,-0.16832515381276608,-1.0475654619932175,2.4247674572467806,1.8680398774253164,-0.00014639522609146885,-1.1337909127860221e-05,0.0003034534621566332,0.0011667008574004051,-5.298013243041182e-06,0.00016550628684436404,-0.000420328778091049,0.00045349124493062226,-0.00023391513675869862,0.00025292633759269604,-0.0003033015791613808,0.0003929631063497438,-8.570079244619708e-05,1.4676344620616128e-05,-0.000237298349919601,0.0003065996245297856,-2.2663626503944396,-2.433774721622467,15.704207491874694,3.334801800251007,14.688334026336669,-4.975339331626892,29.916150636672974,5.033076894283295,-25.45296537399292,15.06301462650299,-22.85146862030029,3.8810605907440188,11.090728063583374,5.002534444332123,-15.804559392929077,-4.000582219362259,3.0
0.0,0.0,0.0,-0.00019518491215674366,0.0003500421395638068,-8.234796353871355e-05,15.486277317666856,161.3915118662913,-2.641162221613336,3.097761833505532,0.43291071891784666,1.0160698419809342,-2.2770598423480988,-1.5057203246201398,-0.12257813263684511,1.07439643740654,-2.45130388379097,2.8196590249185176,0.29992117673158647,-1.105666527748108,2.4326310288906097,0.5697061921578793,-0.16839454263448717,-1.047688985466957,2.425219863653183,1.868009283946176,-0.00019049466770593046,-0.00032419198965455003,0.0007288575032723023,-7.332214197866418e-05,0.0004917364746970026,-0.00044720184526235733,0.000931320248572775,1.0527553867255536e-05,0.0002734848476261063,-0.0003199437076388715,0.0009562434511822984,0.00037407864610569837,-6.782186899082332e-05,-0.00019404669980150935,0.0007383025147433951,-0.00039425907552253814,-2.421024510860443,-2.6385626339912416,15.835192732810974,3.294698121547699,14.680331082344056,-5.043361580371856,29.82117705345154,5.047021872997284,-25.272865724563598,15.002940311431885,-22.64611608505249,3.860355702638626,10.98689917087555,4.934915606975555,-15.516560091972352,-3.957209452390671,3.5
0.0,0.0,0.0,-5.4210122556285e-05,-0.0002865253363391326,0.0002200739141136855,15.487720512006156,161.39276048108445,-2.6410890660446307,2.5029288834005725,0.43289190128445626,1.0160475647449494,-2.276954231262207,-1.505764033335413,-0.12253558851778507,1.074361806511879,-2.451184047460556,2.8196377510467783,0.2999578468501568,-1.1056910878419877,2.4326795721054078,0.5696685130057626,-0.1683813614398241,-1.047706265449524,2.4252963078022005,1.86797947505926,0.0002851340136917766,0.0005510304420164279,-0.0012767613437259266,0.0005802497664880321,-0.00021280592786384624,0.0003395943521721009,-0.0008653710611859617,0.0013648455941849787,-0.00044753500855234524,0.0003107535979617986,-0.0011799691561229177,-0.0004186672662654643,0.00014478663669856016,0.00047857316740713106,-0.0015732815606110504,-0.000197057597527527,-2.389947121143341,-2.560848435163498,15.838931741714477,3.309174212217331,14.711041359901428,-5.054417722225189,29.858028221130372,5.057301967144013,-25.32259813308716,15.06271460056305,-22.763284616470337,3.87711657166481,11.026429862976075,4.994407913684845,-15.623732738494873,-3.9557765352725984,4.0
0.0,0.0,0.0,-0.000442888398271329,-0.00026312514110607985,-0.00015324127911203037,15.485126977385153,161.39355522986295,-2.640992629720575,2.9156259996130753,0.43302205443382263,1.0162826597690582,-2.2775848627090456,-1.5055741077136182,-0.12269653711467982,1.0745448440313339,-2.4517357921600342,2.819831230740271,0.2997284685075283,-1.105525505542755,2.4322181487083436,0.5698230832915498,-0.1683723721653223,-1.047522931098938,2.424614666700363,1.8681489151466033,0.00011330125717891058,0.0001145395495378458,-2.819520787579063e-05,0.0002833651330399543,-0.0002808008006156434,0.00012767419560890962,-0.0002539144889927752,0.00018643672428361998,-0.0002127691514976025,2.6749769055443142e-05,4.989160803705943e-05,1.5095108985213014e-05,-0.0002016917259768315,7.464016001759067e-05,9.227420597391519e-05,0.0010209363219814674,-2.18744721531868,-2.368234175443649,15.617877893447876,3.3305600810050966,14.644093365669251,-4.94678165435791,29.828174114227295,5.015501501560212,-25.477291870117188,15.016766891479492,-22.73950574874878,3.9108498811721804,11.053819632530212,4.984158473014832,-15.654810876846314,-3.9581037068367007,4.5
0.0,0.0,0.0,-0.0005023955539454999,0.00032386382666542993,-0.00025730642779564435,15.485171569028985,161.39536312848026,-2.640988973014183,3.238301423995104,0.4330320014059544,1.016301851272583,-2.277675338983536,-1.5054694760675185,-0.1227427963539958,1.0745717924833298,-2.4518627071380616,2.8200078669801627,0.2996571654081345,-1.1054367905855178,2.431962070465088,0.5699451763278433,-0.168383397012949,-1.0474447816610337,2.4243353068828584,1.8683231601591217,-0.0003197421689035301,-0.0004196139613951011,0.001203888045611611,-0.0003794122126815828,0.00019937748647973696,-0.00031973253873998387,0.0012378830033403588,-0.00045175705158212757,0.0006094135926874058,-0.0002024209497877807,0.0006265162006207233,-0.0014325458521915148,-0.0001561077165017207,-0.0004901535717229783,0.0011041152739010684,-0.0011432367296791114,-2.3300773191452024,-2.562286739945412,15.840517597198486,3.3077188336849215,14.703253650665284,-5.074030632972717,29.971287260055544,4.96971342086792,-25.398382034301758,15.118664045333862,-22.866142778396608,3.877635600566864,11.08070834159851,5.045344181060791,-15.78131618976593,-3.8547656869888307,5.0
0.0,0.0,0.0,0.00045897579247924334,0.00025294372149296107,0.0005376930396423188,15.482344693904263,161.38496007466648,-2.6399995557505185,3.326158041219889,0.4330081516504288,1.0162886607646942,-2.277639033794403,-1.5053886518332078,-0.12274519320577383,1.0745363104343415,-2.451750302314758,2.8201124368326034,0.29966603189706803,-1.105479217171669,2.4320471477508545,0.5699600723448933,-0.16840808562934398,-1.0474641811847687,2.4243778359889983,1.8683160351629078,0.0004893197077786986,0.0009665368990908925,-0.0024324291177092987,0.0007222736493413949,-0.0003735949018796188,0.0005398634405730704,-0.0020677496319843045,0.00044322187581398805,-0.0009428686203347057,0.0008456556873335439,-0.0022130996835142774,0.0012783852074828284,0.0002477293571576585,0.0009715890246950771,-0.0031377068565974164,0.00037631262569705787,-2.2694430541992188,-2.4795517325401306,15.801984333992005,3.3095222795009613,14.71468801498413,-5.0299149107933045,30.036033325195312,4.962520365715027,-25.452217016220093,15.086583518981934,-22.87246728897095,3.893430223464966,11.084087586402893,4.993451850414276,-15.834874501228333,-3.9120717322826386,5.5
0.0,0.0,0.0,-0.0006361833361249319,0.00014149551266259732,-1.6205352809419095e-05,15.486611259758138,161.39548841049702,-2.636443190488278,2.778123026959777,0.4331172059476376,1.0164341419935226,-2.278049992322922,-1.5051492763033998,-0.12284058790653944,1.0746804827451706,-2.4522800040245056,2.8204673814862735,0.29954774901270864,-1.1053099876642227,2.4315302646160126,0.570168127851926,-0.16835547417402266,-1.0472995054721832,2.423877737522125,1.8685039515544946,-6.910169154374157e-05,-0.0004793387272123363,0.0009438129283276749,0.0004411319415141215,0.0002938816812183027,-0.0002398003248613155,0.0003080961962553265,0.0005851552051087652,0.0003394488501143194,-0.00031790049007874454,0.0008154617443882925,-0.00040373295718964164,-0.0001210317610257744,-0.00035433389069436654,0.0013369270579325476,-0.0008733486927033529,-2.2798536503314972,-2.5384777784347534,15.884016723632813,3.29497852563858,14.688499522209167,-5.07802894115448,30.02334538459778,4.99466626405716,-25.3874550819397,15.084638323783874,-22.877732038497925,3.849907044172287,11.066393570899963,5.012036690711975,-15.765350637435914,-3.861863474845886,6.0
0.0,0.0,0.0,0.0002804584643916513,0.00040201972864511786,0.00013131226599014104,15.486655063359663,161.3944984250735,-2.637648590687492,1.928673786182981,0.43305752992630003,1.0163942468166351,-2.2778843343257904,-1.505200025750805,-0.12279325008392333,1.0746265703439712,-2.452062451839447,2.8204236652808614,0.29956296607851984,-1.105373963713646,2.4317634963989256,0.5701245614493249,-0.16838699243962765,-1.0473587131500244,2.4240862739086153,1.8684696991416876,0.00010283930441822038,0.0002457633370294241,-0.000529669339328001,0.00032016236019978496,-4.2690783970842515e-05,0.00017941478709551702,-0.000490113552833011,0.0002016758707809544,-0.00034735990761184185,0.00011066896791262947,0.00026588014533872355,0.0011489856868981605,9.600716686344087e-06,2.5888033472792213e-05,1.973568917936944e-05,-0.001365539861031599,-2.3387802827358244,-2.417540773153305,15.880971875190735,3.2725079452991483,14.761944398880004,-4.996232538223267,30.05693127632141,4.9290952038764955,-25.477977476119996,15.07223457813263,-22.8275119972229,3.889897303581238,11.077341418266297,4.995074958801269,-15.737029838562012,-3.8395384788513183,6.5
0.0,0.0,0.0,0.0003656011120269453,4.3074969576625734e-05,0.00016915487865523684,15.489877757673606,161.39893303319684,-2.6381668476048525,2.753164417850665,0.4330342763662338,1.0163189780712127,-2.2777219653129577,-1.5052602389908105,-0.12278066661208868,1.0745834404230117,-2.4519616758823393,2.8204029531696597,0.29962396666407587,-1.1054680854082108,2.4319986236095428,0.5700650148318265,-0.16842066794633864,-1.0474498254060745,2.424400497674942,1.8683999490802035,7.537249770396017e-05,0.00026988053478658525,-0.0005910976879020855,-0.0004803970749388209,7.127021491814226e-05,9.529575709558291e-05,-0.00013456992815520272,9.336021684300869e-05,-1.563480384745002e-05,1.9456959360848244e-05,-0.0008313428162066558,0.0008909704809996622,9.385517673129547e-05,0.00022126796460009482,-0.0008177701315603359,0.00046092710438592034,-2.360193316936493,-2.5254609537124635,15.873485445976257,3.2563490319252013,14.70569320678711,-5.029094367027283,29.907567415237427,4.962783093452454,-25.372609968185426,15.032304301261902,-22.68826979637146,3.8827311754226685,11.000584421157837,4.933138787746429,-15.54656418323517,-3.8316155886650085,7.0
0.0,0.0,0.0,0.00024993003542823276,-0.00016883982799790635,-0.00012504615011483367,15.484919204084271,161.39498926990854,-2.6412242818014913,2.5621416221558744,0.43311972603201865,1.0165430957078934,-2.2782904994487763,-1.505025003636201,-0.12291932448744775,1.0747468566894531,-2.4524426114559175,2.8205211232448324,0.29937961146235464,-1.105285443663597,2.4314776706695556,0.5702947580408675,-0.16840544722974302,-1.0472501522302629,2.423661797046661,1.868515256049145,9.539997272126458e-05,-2.9236094661542682e-05,7.359466196599747e-05,-6.8512564756659014e-06,-0.00028611692631509423,0.00010212658745751733,-0.00041736584325586227,-0.0009476479980819374,4.830398998663954e-05,0.00012734100337154471,-0.0003824864564795287,0.001964645464672363,-7.3262869604485e-05,5.080713098541826e-05,-6.28072434803313e-05,-0.0008233641246587939,-2.175255142450333,-2.320422915816307,15.74852041721344,3.2774025309085846,14.70987244129181,-4.946678023338318,29.971287317276,4.956474959850311,-25.554327144622803,15.04396553516388,-22.85573101043701,3.8693413305282593,11.08788197517395,4.98835834980011,-15.79078878879547,-3.8918773221969603,7.5
0.0,0.0,0.0,0.0006046458156726485,0.000547191322826161,0.0002107799551024625,15.482499901191979,161.39395817478652,-2.638482397732144,5.9822478784364925,0.4330151017010212,1.0163881385326385,-2.2778903496265412,-1.5051068015887876,-0.12286215957254171,1.0746234315633774,-2.452062840461731,2.820472167686091,0.2994983732700348,-1.1054111605882644,2.43183251619339,0.5702246390899599,-0.168445715457201,-1.0473797065019608,2.424131098985672,1.8684333831951552,9.169560129625512e-05,0.000372648721824557,-0.0007897656825335801,0.0006788000383957625,-0.0003272507866059588,0.00022080685996534903,-0.0002613844492733893,-0.00026519344079412716,-0.0002296042748469179,0.00017255607150697466,-0.0005781554319953566,0.0007375538387635704,3.717670112596248e-05,0.00030210930596427914,-0.001384891908569674,-0.0003570145884696799,-2.336810510158539,-2.4689090251922607,15.889495353698731,3.2606639766693117,14.737853627204895,-5.009101719856262,30.01009753227234,4.938941240310669,-25.432624864578248,15.046756200790405,-22.785888338088988,3.856896470785141,11.071459078788758,4.974598145484924,-15.672952189445496,-3.857161120176315,8.0
0.0,0.0,0.0,-0.00015565544916976091,0.0005387837359124856,-0.00018302258964440096,15.48467413452418,161.39032483516405,-2.639516100642351,4.190174501721222,0.43319198936223985,1.0167048674821855,-2.278759322166443,-1.504513608671463,-0.1230503124371171,1.0749071091413498,-2.4529869604110717,2.8208632297975695,0.29929620191454887,-1.1050703221559524,2.4307949221134186,0.571069702964091,-0.16837944276630878,-1.0470521795749663,2.422973771095276,1.8688473801170433,-0.00051078432526002,-0.0006310683623811324,0.00162398592754098,0.0001407173611229169,0.00014161998990521043,-0.00032574293398641616,0.0005345908988967358,0.0013369934806459873,0.00047955871038313154,-0.0004078381855229345,0.0010394118758610162,0.0005488669772860372,-0.0004464690139185431,-0.0005530634648971752,0.0018667255847496554,0.0011652722761504508,-2.2908962202072143,-2.4739906859397887,15.947328662872314,3.1473595476150513,14.73528968811035,-5.048792464733124,30.15461015701294,5.018074879646301,-25.52075174331665,15.120230126380921,-22.9275887298584,3.595925221443176,11.125984358787537,5.042376651763916,-15.845414905548095,-3.8823550951480867,8.5
0.0,0.0,0.0,0.00036505595549570223,0.00029538459924203294,-0.00012773539628360619,15.48279840401175,161.39193677460742,-2.6373977943158406,3.2983282020015694,0.43309743374586107,1.0165138500928879,-2.278312546014786,-1.5044930276377229,-0.12294221442192793,1.0747508227825164,-2.4525430572032927,2.8208475079925246,0.29948255568742754,-1.1052005785703658,2.431139931678772,0.5710216349870099,-0.16841155909001826,-1.0471836394071579,2.4234507477283476,1.8687547776366944,0.00040012754207617503,0.0005208942271601992,-0.0011895877848210124,0.0004601046097504792,-0.000324067301807229,0.0003879480596205368,-0.0008077381444354239,-0.0004929613437920023,-0.0003308042364677928,0.00045166271931794204,-0.0012919044788179284,0.0009449119333329057,0.00036119879736785704,0.00048499327512019797,-0.0018897987391581974,-0.00022251417835344127,-2.3789824938774107,-2.6485212945938112,16.059967193603516,3.14317120552063,14.769407539367675,-5.171258053779602,30.187542972564696,5.053057260513306,-25.379509859085083,15.159525470733643,-22.9493092250824,3.5847392868995667,11.089072823524475,5.0490264987945555,-15.842826571464538,-3.8462820732593537,9.0
0.0,0.0,0.0,-0.00026134263318149326,-0.0008688219275521914,-0.00019249678530728503,15.485931628628474,161.39206298803296,-2.6370110393328985,1.0839570531295328,0.4331516015529633,1.0166104465723038,-2.27854518532753,-1.5044225809931648,-0.12300692941993475,1.0748241335153579,-2.452753623723984,2.820889177517028,0.299381767809391,-1.105118898153305,2.4309100806713104,0.5711106328372132,-0.16839106857776642,-1.0470994198322296,2.423142770528793,1.8688036152257173,-1.3153358415516005e-05,-0.00011897637013344671,0.00045138320521056737,-0.00019247986491135045,-0.00013477197624710624,-0.00015055355872647854,0.0002863900569906762,-0.0018920385767002322,5.2469312332650305e-05,-5.5450261086605555e-05,0.0003120278862574188,0.00011044416158549935,-0.00011697987642928365,-0.00016683103066005857,0.0005690103650220821,-0.00051678222941417,-2.359473217725754,-2.603767204284668,16.045823969841003,3.1157961225509645,14.765658211708068,-5.125791864395142,30.24976990699768,5.041020495891571,-25.46352939605713,15.165126237869263,-22.97392249107361,3.5674355494976044,11.105325946807861,5.045732614994049,-15.899980783462524,-3.8727308988571165,9.5
0.0,0.0,0.0,-0.00020914849625118398,-0.0004359040379526049,-0.0003438299233672511,15.486231318527585,161.38981363092537,-2.636031231170128,2.316219652152648,0.433198578953743,1.0166934698820114,-2.278758374452591,-1.5043421125405307,-0.12304024565964937,1.0748850637674332,-2.452933256626129,2.8209136122280887,0.2993368300795555,-1.105122492313385,2.4309441411495207,0.5711482801562326,-0.1683977784216404,-1.0470865881443023,2.4231074976921083,1.8688252149185756,-0.00018431896691161096,-0.00019058448359071415,0.0005661777142525133,-0.0003848863907059277,6.131816021535106e-05,-1.6892339028215116e-05,-0.00015855625879922306,0.0006578214542982907,0.0002987350800365126,-0.00016984810162793483,0.0006450654213930312,-3.5966832060065285e-05,-5.1857330495067404e-05,-0.00022834319138894537,0.0011673939670385168,-0.0004066911951930806,-2.2315609920024873,-2.4356958436965943,15.833968105316162,3.0974613678455354,14.715080533027649,-5.014782140254974,30.05487886428833,5.050647878646851,-25.49571363449097,15.07055145740509,-22.789546279907228,3.5595614099502564,11.091096305847168,4.985721662044525,-15.700754041671752,-3.8899274384975433,10.0
0.0,0.0,0.0,0.0003261242003240576,-0.0006072995458431069,-0.0005309569162252073,15.48486795073238,161.39182359642606,-2.6387692573633843,3.2145996781304476,0.4330418299138546,1.0163457173109054,-2.277817952632904,-1.5048349207214562,-0.12285460948944092,1.0746191424131393,-2.452141683101654,2.8207158331939115,0.2996273255348206,-1.1054022866487503,2.431724033355713,0.5708244289485869,-0.1684579373896122,-1.0473829358816147,2.424182494878769,1.8685235326544702,0.00010489805106253965,0.00011805506347525497,-0.00017529506198898017,-0.0003626428150298123,-4.520553110122577e-05,-7.685242825667179e-05,0.000616197252736985,-0.001123136251847338,-0.00018608967430562868,-1.9805535766435968e-05,-0.0004714926632510515,-7.310900733694197e-05,5.549420710531531e-05,6.82285823594486e-05,-0.0006555662789764241,2.5688066795853224e-05,-2.4688913083076476,-2.749586913585663,16.113083534240722,3.169052150249481,14.766545305252075,-5.16022248506546,30.03006244659424,5.021152248382569,-25.234862661361696,15.045232319831848,-22.69534502029419,3.6515094339847565,10.971893558502197,4.917423465251923,-15.514925274848938,-3.8138020992279054,10.5
0.0,0.0,0.0,-2.2989197923448277e-05,-0.00016812845597793206,-0.0004452198829922224,15.486809744867212,161.3923860600063,-2.639002916117109,2.4561151687539926,0.43320768818259237,1.016709541082382,-2.278797310590744,-1.5042842343518443,-0.12306744992733001,1.0748837447166444,-2.4529208195209504,2.8208943475865533,0.29932112589478493,-1.1051221263408662,2.430884575843811,0.5711278283274173,-0.16840113401412965,-1.0470641732215882,2.422992699146271,1.8687133552868311,5.2587581465074274e-05,0.0002699727638788993,-0.0009538532317322368,0.0014975776259554478,-0.0002164043130502331,0.0003318846353054622,-0.0007774746797401462,0.0005377458795638692,-0.0002465533179382391,0.00022331202615080792,-0.0006626097052255724,0.0013659690823541975,-9.983648422753052e-05,0.0002498595148926007,-0.0009540693402399564,-0.0004831183664705835,-2.1550941425561905,-2.4108023011684416,15.818944244384765,3.1468662214279175,14.689239273071289,-5.020483422279358,30.10796308517456,5.053957176208496,-25.5165754032135,15.09587320804596,-22.94686152458191,3.573702093362808,11.11858274936676,5.019069175720215,-15.900432138442993,-3.925970766544342,11.0
0.0,0.0,0.0,7.388661666628362e-05,0.00015235291240089677,-2.7652975992822597e-05,15.481429077011674,161.39421345649808,-2.637977619909374,2.5307347165805836,0.43323476895689966,1.0167412877082824,-2.2788917565345765,-1.5040532945928484,-0.1230976502597332,1.0749066352844239,-2.452987085580826,2.820954558954028,0.29933910340070724,-1.1051083266735078,2.4308240425586702,0.5713876669212522,-0.16842474229633808,-1.0470527857542038,2.422895257472992,1.8688052761643885,0.00022325250282480952,7.174966475146353e-05,-0.0005435195521431262,0.000689224585374273,-2.6030802486456348e-05,5.395287264126117e-05,-0.0003767451092747103,0.0007550254301521476,-5.949183336676881e-05,4.232287760607129e-05,-0.0002512084283707225,0.0003435429850528481,0.00015745996645301946,0.00020963742719259755,-0.0002466426704320157,0.0005081687285853819,-2.1248887634277343,-2.409346430301666,15.85561086177826,3.1163980174064636,14.693309211730957,-5.0231250333786015,30.15806202888489,5.0583105516433715,-25.44545371055603,15.03903489112854,-22.887501268386842,3.565207092761993,11.077295398712158,4.932582275867462,-15.828960657119751,-3.96152871131897,11.5
0.0,0.0,0.0,-0.00012569162236677732,0.0004371239445349191,0.00010107231679603864,15.484971038557873,161.39487278515762,-2.638996943878475,2.6653144784302425,0.4333272884786129,1.0169382071495057,-2.279446851015091,-1.5036573638900026,-0.12319124732166528,1.0750747615098952,-2.4535022592544555,2.8211429846751708,0.2991993698477745,-1.1049305766820907,2.4302690720558164,0.5717364434441659,-0.16837836481630802,-1.0468580204248428,2.4221925115585328,1.8691307789480296,8.475683164889604e-05,9.899415204301237e-05,-0.0003707601947118654,0.0011634588738197275,-9.655142342774185e-05,0.0002318603447917307,-0.0007905505787089355,0.0006588108926933239,-5.88006388730091e-05,0.0003276137603030875,-0.000866147240069332,0.00040012406947069625,-8.404462206049227e-05,0.0002451342136253172,-0.0009045791959209352,0.0021752914445457945,-2.097814058661461,-2.333383140563965,15.814522938728333,3.126791009902954,14.707226638793946,-4.971109752655029,30.206108570098877,5.103721907138825,-25.591176986694336,15.103698420524598,-23.02164073944092,3.619030487537384,11.170110492706298,5.006300933361054,-16.00634674549103,-4.025772881507874,12.0
0.0,0.0,0.0,0.00019355114162650393,0.00010482521179860232,0.00027729057358003657,15.490817639520472,161.39287299790405,-2.6384623588288743,2.258234472812059,0.43317724630236626,1.0167567551136016,-2.27892675280571,-1.5036692863212477,-0.12312425531446934,1.0749547100067138,-2.4531694531440733,2.8212061640108446,0.2992669616639614,-1.1049932467937469,2.430502020120621,0.5718476064928383,-0.16846213258802892,-1.046958435177803,2.4225941109657287,1.8693715176834211,-0.00011221171797595746,0.0001345451089837945,1.0374304506147486e-05,0.00022829437642474931,-9.57274588726352e-05,2.4845653132698092e-05,0.00020733952490706805,-0.0010423623198469463,-0.0003555892861205754,0.00014934311061401908,-0.00015570781980958618,-0.000614609462152988,8.439901780071552e-05,0.00023931436413487706,-0.0003554017870854964,0.0004234101026503037,-2.563447117805481,-2.6398971390724184,16.35028917312622,3.012485601902008,14.875671033859254,-5.175664973258972,30.383833656311037,5.067215855121613,-25.471871795654298,15.159628701210021,-22.894970293045045,3.6412715923786165,11.082244238853455,4.997167806625367,-15.797255549430847,-3.9427426850795744,12.5
0.0,0.0,0.0,-0.00016974822971536248,-0.00029935000178645676,-2.6284503280136323e-06,15.48681901077818,161.3948055262334,-2.6375349769389125,2.70865667606126,0.43324472159147265,1.0168034994602204,-2.2790698289871214,-1.5036601839279253,-0.12314714524894953,1.0749900591373445,-2.453267503976822,2.821220522610308,0.2992802588641644,-1.1050165194272994,2.430530424118042,0.5718367064657801,-0.16844116061925887,-1.0469591796398163,2.422620952129364,1.869318768368487,0.00012312750274046707,-0.000130044715781316,0.0001044881213288389,-0.0007429418020188665,-0.0001049259135978449,7.048685371277434e-05,7.120412575865646e-05,0.0015371437995311066,0.00018166275087737945,-0.0001427021809329368,0.00011628764018055266,0.00021748544695135538,-0.00010333243635376007,-8.805434561835438e-05,0.00023238944094157478,0.001728562127486132,-2.3379031240940096,-2.53322766661644,16.09338585853577,3.052092344760895,14.759207406044005,-5.104982645511627,30.235216236114503,5.130127894878387,-25.437136907577514,15.083549356460571,-22.81454137802124,3.6204024243354795,11.059188494682312,4.97990980386734,-15.682748155593872,-3.959300196170807,13.0
0.0,0.0,0.0,-0.00024363317924727915,-0.0002247885163798099,-5.8508532487402306e-05,15.485056666309985,161.3950429215567,-2.6377212435108617,2.9682909470272225,0.43317640632390975,1.0166974252462386,-2.2788242828845977,-1.50368923818318,-0.12310831625014544,1.0749024528264999,-2.453035007715225,2.821196209614032,0.2993207669258118,-1.1050350701808929,2.430599319934845,0.5717940164096252,-0.16846429042518138,-1.0469930803775787,2.422735283374786,1.8693042843091667,-6.639432867596602e-05,-0.0003774832517945531,0.0006402912626487778,-0.00014430314707958083,0.00029521652034732935,-0.00040592278076797633,0.000771055720812443,-3.943562963893152e-05,0.0003384838564270288,-0.00021419994194087647,0.0005606333830454959,-0.000748454516386262,8.942511136374583e-05,-0.00023043095965630264,0.0007102945683550659,0.0004247349900505155,-2.5132474315166475,-2.743371556997299,16.28211572647095,3.0385057747364046,14.827321076393128,-5.224470884799957,30.343437366485595,5.125625762939453,-25.40474549293518,15.196997776031495,-22.946633129119874,3.5962855672836302,11.078737292289734,5.031207954883575,-15.806451358795165,-3.92055154800415,13.5
0.0,0.0,0.0,-2.49814670089192e-05,6.0138097332815804e-05,-0.00020077132109457663,15.488282591985412,161.39402877519152,-2.6380228637018712,1.6238034116731892,0.43317053332924843,1.0166891586780549,-2.278775144815445,-1.5037073455979977,-0.12309932805597783,1.074896583557129,-2.4529949653148653,2.8211805964160237,0.2993546798825264,-1.1050566452741624,2.4306576693058015,0.571779307646089,-0.1684556620568037,-1.0470111775398254,2.4228125727176666,1.8692694720083514,-0.00017292507815287725,-0.00036399357700302523,0.0008209654754698383,-3.626027258018403e-05,0.0003447996452844574,-9.785506521625e-05,0.00046260182950601475,0.0007794248557814005,0.00029583976010733005,-0.0002739785133798554,0.0007710973015781394,-0.0004859056212547428,-5.721832105726592e-05,-0.0003684699506622635,0.0011470792074021992,0.00037299524265378627,-2.5338457763195037,-2.7013143920898437,16.291390686035157,3.0253576827049256,14.827026872634887,-5.1785511922836305,30.322259578704834,5.09938295841217,-25.37809850692749,15.159772071838379,-22.883860216140747,3.598809590339661,11.061258182525634,4.9874327802658085,-15.753793044090271,-3.914806581735611,14.0
0.0,0.0,0.0,0.0005367916463051308,-8.677513406896895e-05,0.00010214313244343351,15.49078588892477,161.40068778476288,-2.6373365535066298,1.9807174341407403,0.4330802996456623,1.0165608471632004,-2.2783869802951813,-1.5038533040946707,-0.12303641069680453,1.0747777658700943,-2.4526138627529144,2.8210895219243493,0.29939458951354025,-1.1051447761058808,2.43092195391655,0.5717283765627764,-0.16850982882082463,-1.0470979815721513,2.4231109976768495,1.8691543560379955,0.00011359175544387727,0.00033468917759484686,-0.0009261912322926852,-0.0004506481249642165,-0.0002072846310228554,6.044410181260841e-05,-0.00023517701676380978,-0.0003818066905850084,-0.0003502889640436717,0.00023741184421560346,-0.0006049928463294776,0.00047057362745946997,0.00010738744638657166,0.00040917546129481117,-0.0011111384568863172,-0.0004825790427332042,-2.676245536804199,-2.7882362616062166,16.501085267066955,2.9971525943279267,14.912418437004089,-5.266414084434509,30.490468883514403,5.0205143713951115,-25.416857624053954,15.223984689712525,-22.96195508003235,3.612861223220825,11.05391314983368,5.020988571643829,-15.863833470344543,-3.837319841384888,14.5
0.0,0.0,0.0,2.976713338632245e-05,0.00018803654590295127,0.00026309875755790553,15.48499987079153,161.39201517918707,-2.6398315543538486,2.7595557658241416,0.4332205110788345,1.0168066054582596,-2.27897719502449,-1.5037035612044773,-0.12316296447068453,1.0749670565128326,-2.4531789314746857,2.8211841823208164,0.29919912576675417,-1.1050101453065873,2.4305392861366273,0.5718430599775153,-0.16848214484751226,-1.046946455836296,2.4225569450855255,1.8693029473190759,-9.185931009266223e-05,2.751141943567888e-05,9.823556916954243e-05,0.00031317586173265204,1.930235175852365e-06,5.894142160313048e-05,-0.0003372819113089359,0.0014948365187106608,-0.0002904825717205911,0.0001350733285738202,5.4778613158118466e-05,0.00043138660854188655,-0.0001391134510360076,3.764840184192972e-05,-3.99267697846274e-05,0.0009800928821892105,-2.397868517637253,-2.452238676548004,16.20007478237152,3.0268452870845795,14.825957202911377,-5.08257797241211,30.309664936065673,5.057960586547852,-25.592470407485962,15.123416543006897,-22.918386974334716,3.6734554350376127,11.088187055587769,5.013993561267853,-15.798069734573364,-3.9315312826633453,15.0
0.0,0.0,0.0,0.0006126645893937284,0.00020282339763425534,-0.0002491090268920273,15.486474861580291,161.3918464336397,-2.6386267999761683,3.236932190601176,0.43315076500177385,1.0167197328805924,-2.278734415769577,-1.5037553124581826,-0.1231290490180254,1.074888636469841,-2.4529508817195893,2.821131492927007,0.29921578645706176,-1.105068986415863,2.4307562041282655,0.5718087719865396,-0.16850503705441952,-1.047011079788208,2.422815555334091,1.8692294372070284,0.00020416621105999095,0.0006248764044113581,-0.001582184403958695,0.0009390974174740287,-0.0003326451121160302,0.0004349253964319832,-0.0007347655174833041,-0.0005782550165625005,-0.0005760082622073528,0.00038951999852586156,-0.0012873994857322355,0.00019969209659832066,6.853848022446207e-05,0.0005979827084943403,-0.0020352548716726284,8.310873401045754e-05,-2.531132686138153,-2.5262078940868378,16.32320550918579,3.009929064512253,14.876402163505555,-5.149346857070923,30.3506210231781,5.007993767261505,-25.571365756988527,15.144199013710022,-22.8634033203125,3.656644177436829,11.09721613407135,5.039119594097137,-15.738269081115723,-3.8807812786102294,15.5
0.0,0.0,0.0,-0.0005087278956803319,0.00034549305462079925,-0.00016456805986273158,15.484976249101578,161.39022039584347,-2.6348471086957512,2.64034974677236,0.43321907743811605,1.0168497687578202,-2.279135503768921,-1.5036121309311234,-0.12324805270880461,1.0749987918138504,-2.453270740509033,2.8212124987972276,0.29908899232745173,-1.1049347788095474,2.430342403650284,0.571923691340706,-0.1685086317360401,-1.0468649816513063,2.422254000902176,1.8695180341955662,-0.00031767025666088936,-0.0009538984320866573,0.0021556992935368325,-0.0006650393738183724,0.0001863986980749139,-0.00031770918313636334,0.0008087627874444896,0.00028478890377429104,0.0010909462117713968,-0.000644857709682532,0.0017415522134883055,-0.000665921611825579,-0.000161401374594896,-0.0007286338985805426,0.003027204441241932,0.00024900555655329597,-2.4717843341827392,-2.6025239920616148,16.29860770225525,3.0256525790691375,14.84373616695404,-5.165901892185211,30.399973649978637,5.082930815219879,-25.532463912963866,15.211087579727172,-23.01879475593567,3.6577781009674073,11.112633829116822,5.058916327953338,-15.886682443618774,-3.9894948136806487,16.0
0.0,0.0,0.0,0.0002862739826433664,0.00037756248360849994,-0.00042696949054087384,15.480387365009554,161.39583209961535,-2.64269028587648,2.8509418456464295,0.4331311120092869,1.0166701096296311,-2.278613237142563,-1.5037708807153485,-0.12312341641634703,1.0748460954427719,-2.45282217502594,2.821108013208869,0.299271272867918,-1.1051001673936844,2.4307889246940615,0.5718239900796346,-0.16852840594947338,-1.047036464214325,2.4228633975982667,1.8691502776564577,0.0002469178743853893,0.00043575678954301005,-0.0008354280558451252,-0.00016416934109296941,-3.605158038017333e-05,0.00028174282715008077,-0.00033750344501562516,-0.0006154911998085198,-0.0004348867930590021,0.0005280758598678664,-0.001149013277906484,0.0006890062662918357,0.0003054627329724452,0.0006276421058516998,-0.001896652443225339,-0.0007673282828667743,-2.530558565855026,-2.6418482184410097,16.374952764511107,3.0154637730121614,14.863873319625855,-5.177930800914765,30.379822235107422,5.037817847728729,-25.487558250427245,15.189353222846984,-23.004906482696533,3.6597468245029448,11.074596848487854,5.019725012779236,-15.873583750724793,-3.874537020921707,16.5
0.0,0.0,0.0,-0.0002617398154163921,0.0003260870743249417,-0.00010581793740709136,15.484300191257198,161.39579471396763,-2.639392293807451,2.753462965446662,0.43316634342074395,1.0167519760131836,-2.2788504087924957,-1.5036913560204244,-0.12318932984024286,1.07490410387516,-2.452973293066025,2.821143514602616,0.29916532933712003,-1.1050287342071534,2.4306235480308533,0.5718606936409424,-0.16852349385619164,-1.0469561702013015,2.4225612807273866,1.8692931989011314,-0.00021435536389981577,-4.0337745652948766e-05,0.0005385781425346978,0.00035129621125917337,4.140904279079621e-05,-0.00021068770879018012,0.00021151957485086005,-0.0005353539668266975,-5.965499326434612e-05,-0.0002474677541837942,0.0006047150782486123,0.00010991545477797699,-0.0002863166298883909,-0.00036997117404657124,0.0009781779596811924,-0.00032993859745359294,-2.5313737452030183,-2.6408838844299316,16.342044172286986,3.014615116119385,14.884820075035096,-5.1853161764144895,30.457442779541015,5.031587467193604,-25.533294286727905,15.199723043441772,-22.970469303131104,3.651897474527359,11.106609945297242,5.008405377864838,-15.90569815158844,-3.9309380793571473,17.0
0.0,0.0,0.0,0.00037519962544820527,-0.00019161329892518575,-0.00010621394046265047,15.482430492824767,161.39349488251247,-2.6393887508472558,1.922865397808082,0.43322830319404604,1.0168673956394196,-2.2791571843624117,-1.5035953811042844,-0.12326027665287256,1.0749801152944565,-2.453187906742096,2.8212135530345113,0.2991094854474068,-1.1049384796619415,2.4303258562088015,0.5719128755777295,-0.16849820561707018,-1.046843995451927,2.4221605288982393,1.869412007510786,0.00023290393187695705,0.0003836216235111858,-0.0007406736847160067,0.00022329036605239351,-0.00030443028434907137,0.00019760248974977918,-0.0006088134642380217,0.00028483004378889067,-7.431176908393005e-05,0.00015522600255715648,-0.00035883157071967616,7.324096922606477e-05,7.195040695450925e-05,9.148289846181214e-05,-0.0006454718338670305,-0.0002842124640832646,-2.3864887177944185,-2.5184642100334167,16.24158289909363,3.0627174365520475,14.832325620651245,-5.164006686210632,30.519390172958374,5.090769331455231,-25.563524284362792,15.247408666610717,-23.128337593078612,3.6613624334335326,11.15746311187744,5.090690181255341,-16.06056022167206,-3.9883156752586366,17.5
0.0,0.0,0.0,0.00017974507733284882,-0.00040715332263951195,-0.0003216324412764307,15.48539727119384,161.3908297964718,-2.637272951426504,2.9485779925765025,0.43312296018004415,1.0166613852977753,-2.278632650375366,-1.5037323963731206,-0.12315781123936176,1.0748395204544068,-2.452801195383072,2.8211344271895755,0.29924095079302787,-1.1050708079338074,2.430722897052765,0.571820632624126,-0.16854254879057406,-1.0469984871149063,2.4227519357204437,1.8692904462744715,-0.00012744313707648222,-0.00025479226916586705,0.0005992279091693419,-0.0004224900830401746,6.217056023702628e-05,-9.186806665753567e-05,0.0004946767548838562,-0.0003557444559483245,0.0002302398190012899,-0.00025340818301220386,0.000728095066526788,0.0007372214828472317,9.379817461736673e-05,-0.0001350251366840596,0.0010293931059576068,0.0005605945517218247,-2.6211264657974245,-2.783683261871338,16.488909912109374,3.0042310214042662,14.903763456344604,-5.284412405490875,30.470783891677858,5.048912661075592,-25.435677099227906,15.243990468978883,-23.010336360931397,3.633285417556763,11.077694191932679,5.047962384223938,-15.869243392944336,-3.8795097506046297,18.0
0.0,0.0,0.0,-1.6341046841494237e-07,7.279565345465119e-05,-0.0001653645741546502,15.487172793740854,161.3944128569309,-2.6407320395941163,2.1769124847967785,0.4331982223689556,1.0167672944068908,-2.2788715970516207,-1.503735126529356,-0.12320299189537763,1.0749101227521896,-2.452988148927689,2.821131483564331,0.29918019264936446,-1.1050727295875549,2.430701196193695,0.5718322629398895,-0.1685315215587616,-1.0469795560836792,2.4226482594013214,1.8692082007859891,0.0002522335303658955,0.0003749825446445728,-0.0007914841566181226,0.0005046249060680926,-0.00027004230628312377,0.00036604351420907374,-0.0005397041129697696,-0.0009027014711282026,-0.00020319165209828057,0.0002588513120875836,-0.0009696963317591797,0.00020242046976601464,0.00011188576643622719,0.0004231379786374736,-0.0012598765097760994,0.0019979920938990336,-2.352887191772461,-2.5174317502975465,16.164494400024413,3.0423283064365387,14.810509929656982,-5.101118597984314,30.29856291770935,5.068032236099243,-25.529167938232423,15.12524612903595,-22.93514868736267,3.663667775392532,11.081193523406982,4.983795475959778,-15.847035851478577,-3.931148062944412,18.5
0.0,0.0,0.0,-0.0006156934499567141,6.178484351879374e-05,-0.0002967201076082741,15.483327540601284,161.3968390869057,-2.6370789853482655,1.8416944311975096,0.4332237468659878,1.016805654168129,-2.2789980363845825,-1.5036540663556184,-0.12323702719062567,1.0749436861276627,-2.453101637363434,2.8211796545308476,0.29914364114403724,-1.1050196051597596,2.430546941757202,0.5718874971089568,-0.1685274475067854,-1.0469257038831712,2.422443699836731,1.8693519103679548,-0.00022986802944612882,-0.0004434888782473127,0.0012124011389004145,3.093872775457688e-05,0.0001572461909902641,-0.00013576084721350333,0.0007503735080618729,-0.0001721127779804283,0.00016922200570303327,-0.00022348880231906152,0.0009323100951152456,0.0001048949500518986,-0.0001825612391951537,-0.0003469268583725544,0.001374488117307271,0.0003040207166812553,-2.4531447851657866,-2.6035910069942476,16.249675784111023,3.0352731454372406,14.838135290145875,-5.1450786519050595,30.364895029067995,5.0644839572906495,-25.502041444778442,15.162843351364137,-22.95519560813904,3.6406167459487917,11.091326622962951,4.997028062343597,-15.864633049964905,-3.9604573965072634,19.0
0.0,0.0,0.0,0.00045009312261286386,-0.00023912320020035434,-0.0005655268714894555,15.484593207474616,161.39259514760354,-2.6385639622791723,2.7306027854975508,0.4330554921925068,1.0165012562274933,-2.2781731557846068,-1.5038814894936197,-0.12306900788098574,1.0747068399190902,-2.452388803958893,2.8210178993277215,0.29938189059495923,-1.1052383440732956,2.431198054552078,0.5717320804372864,-0.16857059098780156,-1.0471621978282928,2.4233470833301545,1.869092772102263,-7.14704863631347e-05,-0.00014706759925275673,0.00036134689979956794,-0.0009378044220993919,-3.2616182549207095e-05,-0.00019838654912336242,0.00043829811699854106,-0.00013607247485237874,0.0002184425183950241,-0.00012880685127384718,0.0005410123374120922,-0.0010112324992182981,-2.8396523307341342e-05,-0.0001548783195285596,0.0005069442917920194,-0.0005348232214881907,-2.7349442529678343,-2.85696453332901,16.56097333908081,2.9811874735355377,14.909869856834412,-5.296945033073425,30.413221349716185,4.986524922847748,-25.339047718048096,15.169549312591553,-22.858206224441528,3.602758814096451,11.027241711616517,5.000803797245026,-15.692394342422485,-3.791687442064285,19.5
0.0,0.0,0.0,0.0001346775505903226,-0.000483173600739215,-0.0005421315293643866,15.484964571251192,161.39326428744909,-2.638260246154781,2.0436918602709033,0.4331736563146114,1.016659100651741,-2.2786138451099394,-1.5037682067351656,-0.12315721202641726,1.074824185371399,-2.452730836868286,2.82108164978661,0.29926995500922204,-1.1051140558719634,2.430815513134003,0.5718094460991909,-0.16853367865085603,-1.0470231717824936,2.4228061294555663,1.8691438211552898,0.00019833480180496166,0.00018972610444238929,-0.000658103880926391,0.0001807625894493188,-1.8871700785539332e-05,0.0002741130840292615,-0.0004547318511983587,0.0004557996844311557,-2.961494218299867e-05,5.9966532206591346e-05,-0.000503507922467314,-7.937368380395754e-05,2.3907637748511522e-05,0.0002027893667673651,-0.0006192469283273047,0.0005048897445892037,-2.5009614384174346,-2.732182023525238,16.345676860809327,3.024980278015137,14.849423818588257,-5.225659110546112,30.44456823348999,5.043386650085449,-25.438160829544067,15.220020470619202,-23.00544846534729,3.63011318564415,11.084631071090698,5.007429635524749,-15.907420845031739,-3.8922604405879975,20.0
0.0,0.0,0.0,0.00011051084850620345,0.00017746759592304407,-0.0009259054954376268,15.486176119001358,161.3889094721032,-2.6373174469707736,1.2649910369380801,0.4332119992375374,1.0167034155130386,-2.278694348335266,-1.5037178486476068,-0.12317986227571964,1.0748643094301225,-2.452876720428467,2.821110537386239,0.29927918419241906,-1.105125487446785,2.430827168226242,0.5718483124385868,-0.1685455434769392,-1.0470406877994538,2.4228502178192137,1.8692141105068945,8.323501567016937e-05,4.6709897375024695e-05,4.799756294994675e-05,-0.0002479549968085041,-4.420844105139925e-05,-6.145269233261063e-05,-8.310306663479829e-06,1.9682866087520595e-05,-8.741218495535918e-05,-0.00012231491727526152,0.00041780066467279794,0.0004617271486452609,-2.9935428429493593e-05,-8.484511817006567e-05,0.0003376419546676623,-0.0009206864928251176,-2.4413676965236664,-2.6020296168327333,16.28818705558777,3.0178268969058992,14.789084005355836,-5.173460328578949,30.267122802734374,5.061269583702088,-25.388115329742433,15.109747366905212,-22.857054157257082,3.656653592586517,11.018905806541444,4.959216206073761,-15.689498381614685,-3.9065502631664275,20.5
0.0,0.0,0.0,0.0004150856238088901,0.00019437029574271309,-0.00130311373763265,15.489421031609165,161.39169309994818,-2.639515124677166,1.5215534949996397,0.4332063725590706,1.0167617887258529,-2.2788179183006285,-1.5036932023400746,-0.12322264607995749,1.0748888903856277,-2.4529078781604765,2.821127300320825,0.29915178835392,-1.1050263142585754,2.4305427622795106,0.5718853249681932,-0.168539672344923,-1.0469271570444107,2.422408117055893,1.869254624677216,-9.043380044413352e-06,0.0002368708450276142,-0.0006050214150565441,-6.964955778555323e-05,4.946601079790164e-05,0.00019984325915263783,-0.0003622920388173105,0.0004340104707962809,-0.00027030567230757927,0.00025838662397586565,-0.0008129924515069939,0.00015517510881661687,5.927510236698072e-05,0.00036225319170873227,-0.0011846429899110534,0.0008087263887710759,-2.489192073345184,-2.6127575504779816,16.41104164123535,3.0214651727676394,14.877181420326233,-5.19255163192749,30.575179977416994,5.029141216278076,-25.55567820549011,15.26740086555481,-23.186014261245727,3.6850031781196595,11.124217267036437,5.041878180503845,-16.136585211753847,-3.933620902299881,21.0
0.0,0.0,0.0,-0.000763746205760349,-0.00019448061824986606,-0.0015162282249873767,15.481985875406654,161.3940869308132,-2.6357455310780953,1.567593771044105,0.4332000234723091,1.0168027985095978,-2.278870177268982,-1.5037028402784482,-0.12325464405119418,1.0749196010828017,-2.452973996400833,2.8211187952662136,0.2990574721992016,-1.1050415331125258,2.430629994869232,0.5718843587400602,-0.16856699496507643,-1.0469390165805816,2.422463034391403,1.8692660490141133,-0.0003883319361951139,-0.0005644338126003823,0.0016102466090027823,-0.0006395267270304188,0.0002606574036112888,-0.0004888022619412101,0.0012553289819965496,2.8572897954936533e-05,0.0004503896634202837,-0.000528521607295687,0.0014250564980499952,-0.001382489687821824,-0.0002475229788558691,-0.0005805788829247112,0.001993879212785127,-0.000680197820377088,-2.506743119955063,-2.4917112624645235,16.343306045532227,2.998994277715683,14.898814973831177,-5.094385862350464,30.45548363685608,4.983297922611237,-25.651668815612794,15.189337482452393,-22.994694595336913,3.695479179620743,11.107356133460998,4.98999995470047,-15.935235357284546,-3.920976861715317,21.5
0.0,0.0,0.0,3.072609587304505e-05,0.00020488404770033976,-0.0008827357026912271,15.486363852614447,161.39419805953722,-2.6391340443736144,4.468906335758451,0.4333129134774208,1.0170006477832794,-2.2794177281856536,-1.5039701090917237,-0.12348845195025206,1.0748717594146728,-2.4530803096294402,2.8208213898723717,0.29927654698491096,-1.105106645822525,2.4307679545879366,0.5707476493901812,-0.16868564017117024,-1.0467935675382614,2.421938695907593,1.8706362204278235,0.000850947921435766,0.0010886881947389177,-0.003206414236828921,-0.0016260079854849515,-0.0010672808900730358,0.0003606081598942121,-0.0015755084318882246,-8.460786094273167e-06,0.00024109729160202054,0.000174172884074497,-0.000719131232934756,-0.003689003779186146,-0.00036023165756435445,0.0009318356716160831,-0.003277130128021947,0.004674825616801729,-2.489503797292709,-2.4117626583576204,16.00070803165436,2.6879089891910555,14.628558444976807,-5.001968402862548,29.74001118659973,4.2096443784236905,-24.779835233688356,14.796886291503906,-22.632745504379272,3.106688457727432,10.903154201507569,4.9336226224899296,-16.063405656814574,-2.985437458753586,22.0
0.0,0.0,0.0,-0.00014956386396381693,8.947742079890741e-05,-0.001151523037367125,15.485261867292015,161.4011071115106,-2.639285472738055,1.3866449856554466,0.43342760264873503,1.0171650356054307,-2.2798706221580507,-1.5041130490617476,-0.12366006407886744,1.074921640753746,-2.453392221927643,2.8206887488456247,0.2993738555908203,-1.105130878686905,2.430809063911438,0.5700729749787123,-0.16875550761818886,-1.0467143660783769,2.421637307405472,1.871528275571329,5.1650881545121835e-05,8.480441721652138e-05,-0.00023777752817736046,-0.0005358835330601379,-0.00011858478131572371,6.324266715025236e-05,-0.0004546307972045726,-0.0005666664083495009,-0.00010712582521277627,0.00017200077780077282,-0.00035126236610676635,4.5736477831692986e-05,0.00015079970981551067,8.477061194716962e-05,-0.00044066871261903075,0.0008078475554647375,-2.4862659776210787,-2.3633550453186034,15.75614001750946,2.505036356449127,14.443850364685058,-4.9024301886558534,29.131920375823974,3.868622398376465,-24.28769561767578,14.54786199092865,-22.30037964820862,2.8352968919277193,10.737693495750428,4.876407716274262,-15.887298579216003,-2.468673803806305,22.5
0.0,0.0,0.0,0.0006236053140514685,-0.0003934772908713717,-0.0016169561421836912,15.484068363868467,161.39684392483764,-2.6374892350707864,0.811544287652555,0.433433233499527,1.0171726924180984,-2.279900447130203,-1.5041138074384797,-0.12366953164339066,1.074933271408081,-2.4534116423130037,2.820686822006964,0.2993710957467556,-1.1051299202442169,2.4308127105236053,0.5700671495218878,-0.1687550311535597,-1.0467114907503128,2.421622303724289,1.8715398871617435,5.902920563808877e-05,3.210505647947119e-05,2.9623519828559227e-05,-0.0006416939415931282,-4.3877913024544747e-07,-4.953886358061622e-05,5.92428990091664e-05,-0.00023878821269705556,9.058418425585878e-05,-1.4164150485097904e-05,9.532053178530985e-05,-0.0006827995676969737,-5.904751201370143e-05,6.617394212972793e-05,6.690678328837543e-05,5.179642544521649e-05,-2.4863668501377107,-2.3651210081577303,15.774083442687989,2.506118847131729,14.444910497665406,-4.911368870735169,29.145728006362916,3.8753859150409697,-24.28509377479553,14.54558606147766,-22.30310124397278,2.840270142555237,10.737758922576905,4.872590749263764,-15.87379536151886,-2.4778627550601957,23.0
0.0,0.0,0.0,0.0004700104409783202,-5.3646633939605814e-05,-0.0011966490690962092,15.484518854361477,161.39355627220664,-2.6381731871762946,0.5158171048571009,0.4334379059076309,1.0171750885248185,-2.279902935028076,-1.5041138411441133,-0.12367168880999088,1.074937105178833,-2.4534229040145874,2.8206858670140424,0.29936869665980337,-1.1051373481750488,2.4308178329467776,0.5700643613170621,-0.16876186430454254,-1.046710532307625,2.4216224551200867,1.871545317513652,1.150785234935437e-05,-1.0631880849799722e-07,-1.7785328202478426e-45,-0.00018671427963920062,-0.0001690409241739585,1.642226608268821e-05,-9.884610060057324e-05,0.00041531714930250293,-6.454217432065081e-06,-8.365484367668498e-17,-6.834009270570298e-05,0.000692169900668001,-1.0814268161236251e-13,-3.1038579872738866e-05,1.602105824785094e-05,-0.00029599446823769623,-2.4898873662948606,-2.3653937220573424,15.773269701004029,2.5069123482704163,14.440648856163024,-4.914511411190033,29.153191766738892,3.8802261435985566,-24.282835369110106,14.551570854187013,-22.306781225204467,2.8433420991897584,10.742950735092164,4.872893545627594,-15.8741512966156,-2.481455363035202,23.5
0.0,0.0,0.0,-0.00028605205064481226,0.00025610126593030887,-0.0004781251759122154,15.489797691028219,161.3991055738482,-2.6371309747743856,0.815983500467176,0.43344305753707885,1.0171759271621703,-2.279910640716553,-1.5041140752110054,-0.12367204833775759,1.074937464594841,-2.453428864479065,2.820684599307752,0.29937577396631243,-1.1051373481750488,2.4308228743076326,0.5700616798467393,-0.16876186430454254,-1.0467128086090087,2.421626428365707,1.8715494633064562,3.4528035350233136e-05,5.5368467713279086e-05,-4.947539925554539e-05,-2.799393117959864e-05,0.00011693646283495377,3.5831664944277945e-06,-8.601354346440276e-05,-0.0011105291580503257,-2.3591633671018854e-05,-5.869745281346023e-46,-9.291486526316387e-06,-6.098053115436888e-05,-5.869745281346023e-46,6.28603044625825e-05,4.6163986902111545e-05,-0.0008465876160466162,-2.493138710260391,-2.3657825899124147,15.776858944892883,2.5082174909114836,14.439715685844421,-4.914412324428558,29.156457195281984,3.884190524816513,-24.287266931533814,14.550447845458985,-22.311078186035157,2.8463376688957216,10.742382364273071,4.875294539928436,-15.878118681907655,-2.4870640408992766,24.0
0.0,0.0,0.0,-0.00015661522286547283,0.0003159495703531875,-0.000934331812210263,15.48551411520005,161.39519211471182,-2.6386777606114027,0.6327598351561227,0.4334450942277908,1.0171970129013062,-2.2799270153045654,-1.5041140770835393,-0.12367492455989122,1.074938782453537,-2.4534331560134888,2.8206840899781946,0.2993794925510883,-1.1051373481750488,2.430827088356018,0.5700603241312975,-0.16876186430454254,-1.0467156839370728,2.421623297929764,1.8715537963527729,4.258875024487027e-06,3.999248719516681e-12,-4.1364570827644036e-24,0.0003134306874614521,-2.6713923926920637e-05,7.564095425408408e-05,5.766854924504753e-05,8.61885329402547e-05,7.205672496925202e-05,-5.869745281346023e-46,-1.2338937386797545e-05,0.001552070238496251,-5.869745281346023e-46,-0.00013791723440544732,-1.4695553397225195e-05,0.00028373279378688103,-2.493815714120865,-2.3821616172790527,15.789020872116089,2.508158358335495,14.441792907714843,-4.915099725723267,29.158976230621338,3.8873900890350344,-24.289062404632567,14.546891651153565,-22.31414834022522,2.846768515110016,10.742761278152466,4.879723165035248,-15.875985455513,-2.491008315086365,24.5
0.0,0.0,0.0,-0.00019047689773348312,0.00014085699482611466,-0.0006459627618913375,15.487703392170294,161.3935270002162,-2.639257755810038,0.8236930993893872,0.43344533383846284,1.0171970129013062,-2.2799270153045654,-1.504114112661708,-0.12367624282836914,1.0749418973922729,-2.453434467315674,2.8206833671796274,0.29938333109021187,-1.1051373481750488,2.430830339193344,0.5700588467010703,-0.16876186430454254,-1.0467162829637529,2.4216205286979675,1.871557904694873,1.951131160078688e-05,5.869745281346023e-46,-5.869745281346023e-46,0.00039552874614465395,-3.1036083218394346e-05,2.0268187664159714e-05,-1.4997925820438961e-05,0.00046613521970197103,-2.555015011056825e-05,-5.869745281346023e-46,-6.063380459692684e-06,-6.091383907351876e-05,-5.869745281346023e-46,7.608831302909538e-05,-4.304340373142173e-05,-8.217198754739732e-05,-2.4932316386699678,-2.3805691480636595,15.787647223472595,2.508383322954178,14.44262273311615,-4.918104529380798,29.1571102809906,3.889669386148453,-24.28985528945923,14.546798067092896,-22.316755895614623,2.847962392568588,10.742571821212769,4.8764099955558775,-15.873215665817261,-2.4950451183319093,25.0
0.0,0.0,0.0,-0.00020922396944065554,0.0003975328631001329,-0.0013290167774817397,15.484571486062977,161.39179104894257,-2.6380102726491956,0.5509509301455113,0.43344545364379883,1.0171970129013062,-2.2799344062805176,-1.5041142381215626,-0.12367828015238047,1.0749457311630248,-2.453434467315674,2.820682747370497,0.29938752949237823,-1.1051373481750488,2.4308336973190308,0.5700578617475855,-0.16876186430454254,-1.0467189186811447,2.4216224551200867,1.8715617602447296,-1.2726928971333499e-05,5.869745281346023e-46,-4.484846228562084e-05,0.00015104542773977593,-3.9121735024913825e-05,-1.882473811957228e-06,-4.128156748883208e-26,-0.0007682716692559373,-3.4411907493470554e-05,-5.869745281346023e-46,3.131649399216745e-05,-0.0017124646344237912,-5.869745281346023e-46,3.0473997142648983e-05,2.6765645412380064e-05,0.0005405096421675794,-2.491549334526062,-2.3802881240844727,15.792608451843261,2.5086220955848693,14.444189682006837,-4.92074313879013,29.1571102809906,3.8909074008464812,-24.291146240234376,14.544832801818847,-22.31946412086487,2.848610816001892,10.74247709274292,4.881267757415771,-15.874614334106445,-2.49957924246788,25.5
0.0,0.0,0.0,-0.0001501210250257791,-0.00015006207054670567,-0.0007543966929207989,15.48421371567046,161.39363376524597,-2.6377851489963273,0.598806087500564,0.4334456932544708,1.0171970129013062,-2.2799508571624756,-1.5041141463673404,-0.12367899920791388,1.074950523376465,-2.453434467315674,2.8206827398803567,0.2993869297206402,-1.1051510059833527,2.4308395385742188,0.5700575246912605,-0.16876186430454254,-1.0467205959558488,2.4216202878952027,1.8715646139882833,-3.2005674884508524e-05,5.869745281346023e-46,-1.4646082515110055e-23,-0.00013150388562658527,8.485599421942989e-05,-4.380588756810034e-05,-5.869745281346023e-46,0.0005100353263442902,-6.978394242338485e-05,-4.810235571649884e-05,-5.741936089663711e-06,0.0007098522673885978,-5.869745281346023e-46,-5.8897665780017104e-05,2.9044153034749175e-05,-0.0009535077543395441,-2.490461336374283,-2.3801007747650145,15.80449731349945,2.50787149310112,14.444695615768433,-4.923847258090973,29.156923685073853,3.893241809606552,-24.28780319213867,14.555985550880433,-22.323550004959106,2.8502774918079377,10.742666549682617,4.884458017349243,-15.872588877677918,-2.503087377548218,26.0
0.0,0.0,0.0,1.203736522827613e-05,-9.089159237273663e-05,-0.0003269266041300991,15.481916788936017,161.38912135262746,-2.6389368186386033,0.4657581860187413,0.4334485685825348,1.0171970129013062,-2.2799508571624756,-1.5041140546131178,-0.1236816357448697,1.0749529194831848,-2.453434467315674,2.8206827024296537,0.29938836917281153,-1.1051613092422485,2.4308407306671143,0.5700568505786092,-0.16876186430454254,-1.0467211949825286,2.4216183614730835,1.8715678141508414,-4.037544008245354e-05,5.869745281346023e-46,-5.869745281346023e-46,0.0003648191320780457,5.553186364716347e-05,3.4535078302361857e-06,-5.869745281346023e-46,0.0015883635829721063,-2.4098823184661548e-05,-5.008294390078897e-39,-3.614727127254181e-05,-0.0005593466432614282,-5.869745281346023e-46,-1.956161296420364e-05,-1.3624417165702502e-05,-0.0008694957817531932,-2.493406298160553,-2.3799134254455567,15.803764700889587,2.508063153028488,14.446730227470399,-4.923675117492675,29.155151023864747,3.892220935821533,-24.286989364624024,14.564111118316651,-22.324938020706178,2.8510488760471344,10.742287635803223,4.886219501495361,-15.871289000511169,-2.506779441833496,26.5
0.0,0.0,0.0,0.00027157990087772277,7.202879011351144e-05,0.0008117430497224013,15.490631521543683,161.3958436479304,-2.6362649842704418,0.9991157831981852,0.4334546786546707,1.0171970129013062,-2.2799508571624756,-1.504113985329318,-0.12368403259664774,1.0749551957845689,-2.453434467315674,2.8206820376796786,0.2993886090815067,-1.1051613092422485,2.430846095085144,0.5700564779441162,-0.16876953184604646,-1.0467231118679046,2.4216173982620237,1.8715704637880684,-0.00010192064761359681,5.869745281346023e-46,-5.869745281346023e-46,0.00027605140097270434,0.00022033980097046688,8.198386426564621e-07,-5.869745281346023e-46,1.064528095772883e-05,-3.8170029870305414e-06,-5.869745281346023e-46,1.5611329421860558e-05,-0.00024783753529099826,-3.315516579470971e-05,4.1368664289051434e-05,2.539781616451263e-05,-0.0005330796080292152,-2.497904236316681,-2.3798197507858276,15.80385627746582,2.5088027691841126,14.44841697692871,-4.92405225276947,29.154497938156126,3.8964578890800476,-24.286905069351196,14.563643198013306,-22.328767671585084,2.850745084285736,10.74864462852478,4.881637752056122,-15.871482877731323,-2.5088774514198304,27.0
0.0,0.0,0.0,0.0003631789614754282,0.00029162153796012257,0.00045913987270368586,15.485764497679565,161.39712329125618,-2.6400022354114996,0.928753904257214,0.4334634244441986,1.0171970129013062,-2.2799508571624756,-1.504114017162417,-0.12368798740208149,1.0749579513072967,-2.453434467315674,2.820681923455035,0.29938944876194,-1.1051613092422485,2.4308502674102783,0.5700562569849696,-0.16877648055553438,-1.0467231118679046,2.421617639064789,1.8715730703569833,8.104153311800445e-05,5.869745281346023e-46,-5.869745281346023e-46,-0.00040711156132016037,0.00021891008780955602,-4.827081008535664e-05,-5.869745281346023e-46,-0.000984707445360479,3.5356721575075276e-05,-5.869745281346023e-46,6.241386305922916e-05,0.0004249774629009591,-2.0516246932115307e-05,-7.947697000544935e-05,3.375629828251831e-06,0.0006790823732723343,-2.503965200185776,-2.3799134254455567,15.804131007194519,2.50861913561821,14.451545209884644,-4.928193521499634,29.153098459243775,3.894423828125,-24.285996198654175,14.562894525527954,-22.331571826934816,2.8514474201202393,10.75413498878479,4.881666522026062,-15.869451379776,-2.5131106996536254,27.5
0.0,0.0,0.0,0.0001779574846176486,-0.0003307400395609124,6.723577497423972e-05,15.482163793518081,161.39276783534163,-2.6379095176106273,0.7296132144396484,0.43346845626831054,1.0171970129013062,-2.2799508571624756,-1.5041138448891822,-0.12369158267974853,1.0749602276086807,-2.453434467315674,2.8206818728965852,0.29938956871628764,-1.1051613092422485,2.430853486061096,0.5700560584962449,-0.16878306984901428,-1.0467240703105927,2.421615833044052,1.8715754372414022,8.57826734161515e-06,5.869745281346023e-46,-5.869745281346023e-46,7.54620066288069e-05,-6.661803945731334e-05,1.6549653356127715e-05,-5.869745281346023e-46,-0.00020753824318086743,2.6891680091441456e-05,-5.869745281346023e-46,-1.704545013706841e-05,-1.8971006652860312e-05,3.592224816198034e-05,-0.0001041948527502206,-2.0252638739480638e-05,0.0006278674012584154,-2.5071820282936095,-2.3798197507858276,15.802116322517396,2.507304466962814,14.45441026687622,-4.929918010234832,29.152631978988648,3.8959889471530915,-24.284420862197877,14.563362445831299,-22.33452868461609,2.851745182275772,10.759422249794007,4.885493776798248,-15.869077162742615,-2.5154211926460266,28.0
0.0,0.0,0.0,-0.00010689152181280305,0.0002776580389830216,0.00037333781084633767,15.48098218925858,161.3915139524042,-2.636319866141274,0.9313041473128809,0.43346941471099854,1.0171970129013062,-2.2799508571624756,-1.5041136763610188,-0.12369505811482667,1.0749610662460327,-2.453434467315674,2.8206819178374256,0.29938992857933044,-1.1051613092422485,2.4308547973632812,0.5700557869786494,-0.16878474712371827,-1.0467245495319366,2.421614990234375,1.8715776000194912,2.2549501686605575e-05,5.869745281346023e-46,-5.869745281346023e-46,0.00016238425366262664,2.4947812829875775e-05,7.498887985649534e-06,-5.869745281346023e-46,0.0006919257636568099,2.867546292993911e-05,-5.869745281346023e-46,-5.146794855719345e-07,-0.001384609665953138,-5.6750178004743165e-05,-9.9127565787524e-05,-7.682057165522316e-05,0.0005356029515823174,-2.506400980949402,-2.379538726806641,15.801475286483765,2.5078674137592314,14.45704478263855,-4.927740836143494,29.150019636154173,3.897015209197998,-24.28525381088257,14.56326886177063,-22.335556716918944,2.8519552791118623,10.7604931306839,4.883907952308655,-15.86860267162323,-2.517373836040497,28.5
0.0,0.0,0.0,-0.00011716700253256748,0.00011859869766283125,0.0006911614949568921,15.490339092138681,161.39811604392378,-2.6362597600797324,0.6182145062755163,0.43346941471099854,1.017199902534485,-2.2799508571624756,-1.5041136538905988,-0.1236968557536602,1.0749638217687607,-2.453434467315674,2.8206818841317975,0.29938992857933044,-1.1051613092422485,2.430856227874756,0.5700560416434283,-0.16878582537174225,-1.0467251485586166,2.421614990234375,1.8715795493285732,2.0283638537851065e-44,3.446366695561158e-05,-5.869745281346023e-46,-0.0002641900928520872,3.306057139121451e-06,6.684005856159416e-05,-5.869745281346023e-46,0.0008295507262774883,2.4388395954625754e-05,-5.869745281346023e-46,1.6562502122099108e-39,0.0008341516647098032,-5.869745281346023e-46,-8.969650416724866e-05,-6.2063685712839975e-06,0.0003091756207903703,-2.508161669969559,-2.381889443397522,15.800376367568969,2.508247036933899,14.458433022499085,-4.932015352249145,29.15039282798767,3.897410191297531,-24.28294038772583,14.562707357406616,-22.336580324172974,2.8510627329349516,10.7611386013031,4.889404997825623,-15.868343920707703,-2.5195240581035616,29.0
0.0,0.0,0.0,0.00029198995784231066,-6.750163767577788e-05,-0.0006980785519236817,15.482647039810296,161.39271159999808,-2.6368043669127887,0.6079029456499907,0.43346941471099854,1.0172210931777954,-2.2799508571624756,-1.5041134460391967,-0.12369877323508263,1.0749646604061127,-2.4534373569488523,2.8206816950057463,0.29938992857933044,-1.1051613092422485,2.4308641743659973,0.5700559311638551,-0.16878582537174225,-1.0467243099212646,2.421614508628845,1.8715811746890738,5.869745281346023e-46,2.377163905454249e-12,-5.869745281346023e-46,0.0001163339672700236,-3.289905058036749e-05,-1.7501273146959357e-05,-2.2015491531016906e-05,-2.802244788743402e-05,2.365124254401881e-05,-5.869745281346023e-46,1.0878156726085944e-05,0.00020961620388198585,-5.869745281346023e-46,0.0001102808373617072,-2.2232119579240227e-05,-2.3900046172855607e-05,-2.5032481610774995,-2.3983673334121702,15.800284790992738,2.507376103401184,14.459366693496705,-4.930472896099091,29.15403136253357,3.897222422361374,-24.281553020477293,14.562707357406616,-22.34272644996643,2.851199070215225,10.761422786712647,4.884790127277374,-15.869629254341126,-2.523254039287567,29.5
0.0,0.0,0.0,-5.1294713150341834e-05,-0.00014347374019142944,-0.0007935417674587661,15.478516752172425,161.3935144888268,-2.6377419734803014,0.474499869818361,0.43346941471099854,1.0172210931777954,-2.2799508571624756,-1.5041135771166578,-0.12370009150356054,1.0749684941768647,-2.453434467315674,2.820681631339554,0.29939004838466643,-1.1051793998479844,2.430868990421295,0.5700558188117463,-0.16878582537174225,-1.0467256277799606,2.4216140270233155,1.8715829367446435,5.869745281346023e-46,5.869745281346023e-46,-5.869745281346023e-46,-0.00046680552643055587,-2.448391903497038e-05,6.334753336233714e-06,6.3046588875070906e-24,0.00024573771128394775,1.4111873044756195e-05,-3.155996210331391e-05,3.610923026673546e-05,2.500731633700707e-05,-5.869745281346023e-46,3.495107948790649e-05,4.305563336880349e-05,1.2275811786358541e-05,-2.503641241788864,-2.3980863094329834,15.79689645767212,2.506792067289352,14.460927815437318,-4.9317101383209225,29.15123250961304,3.8987046205997467,-24.282381420135497,14.577223553657532,-22.346828546524048,2.8523634266853333,10.761043872833252,4.88741780757904,-15.86835611820221,-2.523881390094757,30.0
0.0,0.0,0.0,-0.0002770114627956226,0.00015787249896103084,8.246355141307495e-05,15.481576909140845,161.39527633035274,-2.6357832718125267,0.5576129031763905,0.43346941471099854,1.0172210931777954,-2.2799508571624756,-1.5041132587856838,-0.12370069071650505,1.0749690932035447,-2.453447952270508,2.820681524605051,0.29938992857933044,-1.1051852703094482,2.430875973701477,0.570056232642013,-0.16878582537174225,-1.0467270654439926,2.421612461805344,1.8715841070791097,5.869745281346023e-46,5.869745281346023e-46,-5.869745281346023e-46,0.00025154143156552646,-6.092396646510867e-05,3.7942945106202484e-05,-3.519698746846784e-06,0.00038600697909817015,-4.036359553804146e-06,-5.869745281346023e-46,3.513929868858435e-05,0.0013361060114202843,-5.869745281346023e-46,-0.00010529900781931405,-3.54174531750152e-05,-0.00113649776492799,-2.504034322500229,-2.3981799840927125,15.797354340553284,2.507045964002609,14.461125445365905,-4.934273405075073,29.16046878814697,3.8987047696113586,-24.281541891098023,14.582172842025757,-22.351853342056273,2.850957317352295,10.761328058242798,4.886798920631409,-15.866034421920777,-2.5259200155735018,30.5
0.0,0.0,0.0,0.00023361912488382305,0.0003373724360456236,0.00018115173586857918,15.481246072813235,161.39156920792257,-2.637776840503091,0.597887665351732,0.43346941471099854,1.0172210931777954,-2.2799508571624756,-1.5041134479117326,-0.12370057087391614,1.0749712496995927,-2.453434467315674,2.8206814665564606,0.29938992857933044,-1.1051852703094482,2.430880308151245,0.5700558150666764,-0.16878582537174225,-1.0467273050546646,2.421612461805344,1.8715854290889182,5.869745281346023e-46,5.869745281346023e-46,-5.869745281346023e-46,-0.0005022960849262013,3.479070191183063e-05,-4.7764830422150036e-05,5.95380179767737e-14,0.00026666309583973046,-4.495085295390671e-06,-5.869745281346023e-46,5.862405896992594e-15,-0.0013578240924464852,-5.869745281346023e-46,1.5469124441483557e-05,8.958753965693799e-05,-0.0003749301967000075,-2.501479297876358,-2.3980863094329834,15.797445917129517,2.5073205935955047,14.46063018321991,-4.934431800842285,29.149739742279053,3.8999868512153624,-24.282188968658446,14.58095624923706,-22.353984241485595,2.85153666138649,10.761328058242798,4.888074922561645,-15.867815089225768,-2.5268430161476134,31.0
0.0,0.0,0.0,0.00024082790729157755,0.00018999111923968088,-0.00017073064350963744,15.48331762285949,161.3970912009803,-2.640368699317948,0.395848268674269,0.43347457274794576,1.0172210931777954,-2.2799636197090147,-1.5041131351983645,-0.12370117008686066,1.0749704110622407,-2.453434467315674,2.8206813148811163,0.29938992857933044,-1.1051852703094482,2.430880904197693,0.5700560341532879,-0.16878582537174225,-1.0467273050546646,2.4216107761859895,1.8715866705797177,5.128566383171616e-05,5.869745281346023e-46,-4.329209098491196e-05,3.5273393766053387e-05,-6.873884323570013e-05,6.6357927886753645e-06,5.869745281346023e-46,-0.0005970479597906863,-6.487763689304587e-30,-5.869745281346023e-46,1.0597871895361628e-05,-0.0003293910365826276,-5.869745281346023e-46,-8.346772607534383e-05,-1.4364964384810135e-05,-0.0005250659557674798,-2.505625216960907,-2.3981799840927125,15.807901182174682,2.5059158766269682,14.459104471206665,-4.933695075511932,29.14871346473694,3.8989867615699767,-24.28135856628418,14.58179850578308,-22.3557555103302,2.8520072960853575,10.761328058242798,4.885954718589783,-15.867513141632081,-2.5282508182525634,31.5
0.0,0.0,0.0,7.880555775028627e-05,0.0004008080091156846,1.818282766055442e-05,15.48216747508771,161.40059387647344,-2.637566223330924,0.5660853573657622,0.4334893271327019,1.0172210931777954,-2.279974937438965,-1.5041128824061198,-0.12370236851274967,1.0749743646383285,-2.4534518051147463,2.820681455321249,0.29939004838466643,-1.1051852703094482,2.43088161945343,0.5700564105328515,-0.16878582537174225,-1.0467281436920166,2.4216053676605225,1.8715880562557217,1.4728717130879816e-05,5.869745281346023e-46,-1.0797464926891989e-36,-0.00012348703339155849,-4.720615777109867e-05,-8.258301049846826e-05,-5.229777047457279e-05,0.00033537384885172576,-1.251875148767659e-06,-5.869745281346023e-46,6.750121764581349e-07,0.00012338583699346507,-5.869745281346023e-46,3.296337067175245e-05,-1.3978866502062355e-05,0.00019014187951725534,-2.51681476354599,-2.3980863094329834,15.815394926071168,2.5055883276462554,14.46121223449707,-4.939428765773773,29.16270782470703,3.8980265986919402,-24.28219027519226,14.581143417358398,-22.356311531066893,2.8501339709758757,10.760854415893554,4.8876048183441165,-15.861619429588318,-2.5301041746139528,32.0
0.0,0.0,0.0,0.0002498994686541809,-0.00026998431141144076,0.00015931034322085445,15.489839952220644,161.39357211319515,-2.6394321080283554,0.6690274591271259,0.43349340558052063,1.0172224110364914,-2.279974937438965,-1.5041125416047232,-0.12370344709604979,1.0749749636650086,-2.453449397087097,2.820681612614202,0.29939004838466643,-1.1051852703094482,2.430885076522827,0.5700567925300202,-0.16878582537174225,-1.0467273050546646,2.4215975999832153,1.8715894512944018,2.6197694079263447e-24,5.330831684346629e-06,-5.869745281346023e-46,0.0003668082790523945,7.763303101415681e-05,-7.617875003049777e-05,3.6327417555187176e-05,5.953505201864669e-05,2.613336897233386e-06,-5.869745281346023e-46,-3.673652329991768e-05,0.00045337640281365365,-5.869745281346023e-46,6.606964261398871e-05,-2.786036193011749e-05,-0.0013049425961579992,-2.520248901844025,-2.3992118287086486,15.815028619766235,2.505063067674637,14.459970092773437,-4.938013291358947,29.15981569290161,3.898805185556412,-24.281452083587645,14.581143417358398,-22.35816361427307,2.8514338529109953,10.76123332977295,4.8851734113693235,-15.855998482704162,-2.532172167301178,32.5
0.0,0.0,0.0,0.000538749440366036,0.0005538912268679241,0.000652777667240578,15.488930757719652,161.39395729101452,-2.640205418614102,0.618363754753982,0.43349136635661123,1.0172240883111954,-2.279974937438965,-1.504112584673032,-0.12370548442006112,1.0749787974357605,-2.4534412097930907,2.8206815171149087,0.29939004838466643,-1.1051852703094482,2.4308865070343018,0.5700565715708734,-0.16878582537174225,-1.0467279040813446,2.421596884727478,1.8715908688035034,-1.1805265340421138e-05,-9.593270462119122e-06,-5.869745281346023e-46,-0.00037245821726737997,-5.380427029383787e-05,3.3670559779096314e-05,-5.9385637385704825e-05,0.0001833461423065708,-1.6405541100684726e-05,-5.869745281346023e-46,2.7414276309005145e-05,-0.0006604839737362457,-5.869745281346023e-46,-0.00017843610394744017,-1.950572280984167e-05,-0.000839433657651725,-2.5198515129089354,-2.400425910949707,15.813197088241576,2.504111739397049,14.461858096122741,-4.941549701690674,29.153564853668215,3.89753812789917,-24.28153688430786,14.58095624923706,-22.359576635360717,2.85137316942215,10.7611386013031,4.8856046009063725,-15.854987635612488,-2.5322713005542754,33.0
0.0,0.0,0.0,0.00021666198898167077,5.4904267566013204e-05,-0.00033382860422969676,15.483106054390507,161.39623139927392,-2.639689847258781,0.8046390179161355,0.43349340558052063,1.0172231298685075,-2.279974937438965,-1.5041122682145938,-0.12370656300336122,1.0749827510118484,-2.453458547592163,2.8206816013789915,0.29939028799533846,-1.1051852703094482,2.430888533592224,0.5700564985420027,-0.16878582537174225,-1.0467277842760085,2.4215962886810303,1.8715918706098043,1.3818392919748263e-29,-4.531606706649433e-06,-5.869745281346023e-46,-0.00011358306312191942,0.00010855229033574653,1.602191660345621e-05,-1.2232723464559832e-21,5.472176273344686e-05,-1.3066645195422045e-05,-5.869745281346023e-46,6.1732192301292455e-06,-0.0009293942266667081,-5.869745281346023e-46,-3.85325307742263e-05,-9.47566881403665e-06,-0.0012587978072766059,-2.5191679298877716,-2.3997713971138,15.812739205360412,2.5036316335201265,14.461982226371765,-4.939747586250305,29.16625322341919,3.899000529050827,-24.281723165512084,14.581237001419067,-22.36152551651001,2.850760612487793,10.761328058242798,4.885571238994598,-15.853148264884949,-2.5349258542060853,33.5
0.0,0.0,0.0,0.0004342770618133972,4.7818666046187165e-05,-0.0002765409205458816,15.483395163044827,161.39641083496545,-2.638848722046336,0.8636992511559611,0.43349340558052063,1.0172282814979554,-2.279982328414917,-1.5041120154223475,-0.12371519166976214,1.0749831104278564,-2.453458547592163,2.820681784887435,0.29938992857933044,-1.1051876664161682,2.4308886528015137,0.5700574048490115,-0.16878594525158405,-1.0467281436920166,2.4215955758094787,1.8715932712660908,5.869745281346023e-46,-4.03188041778131e-06,-6.11156551301097e-05,0.00032150469958789376,-0.0001155826506051452,2.427442415636492e-05,-5.869745281346023e-46,0.0008830673804076096,-2.831518661551142e-16,1.0241608943706956e-05,8.066386605060303e-06,0.0007605112498509385,2.6691110764748877e-05,5.494854235309129e-05,-2.1626074669440244e-05,0.0002701599500234577,-2.5201506316661835,-2.4038934779167174,15.816241040229798,2.5042810320854185,14.470344228744507,-4.94192440032959,29.165600204467772,3.9002246952056883,-24.28126609802246,14.583105063438415,-22.3607813167572,2.8516150343418123,10.76131971359253,4.8885317587852475,-15.855171236991882,-2.536108810901642,34.0
0.0,0.0,0.0,0.00013649297684604206,7.230825108246679e-05,-0.0003096101766645963,15.487150848769918,161.39562742842847,-2.6380461557685493,0.8760991580689341,0.43349340558052063,1.0172304379940034,-2.279998779296875,-1.504111846894186,-0.12371567104011774,1.0749833500385284,-2.453457463979721,2.8206816444472986,0.29939004838466643,-1.1051857495307922,2.4308892488479614,0.5700579478842023,-0.16878762356936933,-1.0467276644706727,2.421593189239502,1.8715946251089994,5.869745281346023e-46,1.7018579427420427e-05,-2.0090647555466215e-23,4.0736037418516816e-05,2.2607262323219176e-05,3.6567305595580093e-06,6.272215952461304e-06,-8.657376958881172e-05,3.2797886441094286e-05,2.4080036461120872e-05,2.155475078656891e-05,0.00033438381263369536,-8.807045262959314e-06,4.171298382133316e-05,4.927585805799535e-05,0.0006269447605562506,-2.5185783088207243,-2.405584992170334,15.830321907997131,2.5022316789627075,14.466153287887574,-4.9387980079650875,29.164667234420776,3.898424278497696,-24.281556730270385,14.581603093147278,-22.361436586380005,2.8505746757984163,10.76256217956543,4.886484153270722,-15.853899631500244,-2.537049722671509,34.5
0.0,0.0,0.0,-0.000731761687616416,5.619270742628932e-05,-0.0013033828813919521,15.483969196550447,161.39580154394022,-2.635068064746614,0.7365527101075133,0.43349999487400054,1.0172304379940034,-2.279998779296875,-1.5041115922294062,-0.12372178301215171,1.0749841886758804,-2.453458547592163,2.8206817755247586,0.29938992857933044,-1.1051907813549042,2.4308903217315674,0.5700582343820788,-0.16878654465079307,-1.0467281436920166,2.421592116355896,1.8715958946878228,5.384544641948204e-06,-2.7928465292322234e-05,-5.869745281346023e-46,9.147569491653478e-05,-0.00010253467389260717,5.415486501291288e-06,-4.241624683932585e-45,0.00024907526336543636,-1.5211238344738766e-05,-5.296991502673864e-06,-5.495534280533514e-06,0.0006259526702564696,-1.0557069266719994e-12,-7.242698335289573e-05,1.5271930555788485e-05,-0.0005535849846442672,-2.5254591703414917,-2.405667141675949,15.829589295387269,2.503030524253845,14.4716277551651,-4.942106709480286,29.165413627624513,3.89737673997879,-24.28107502937317,14.585262846946716,-22.36319751739502,2.849222104549408,10.761801657676697,4.888375570774079,-15.851496872901917,-2.5393842136859894,35.0
0.0,0.0,0.0,-0.0009131444116513794,-0.00010778039787354695,-0.0008963780267830482,15.48312409333429,161.39759067573402,-2.6357543453672894,0.4389821191547266,0.43350215137004855,1.0172319954633713,-2.279998779296875,-1.5041115641413803,-0.12372202269732951,1.0749850273132324,-2.453458547592163,2.8206817193487046,0.2993901681900024,-1.105201563835144,2.4308916330337524,0.5700583317539062,-0.16878762356936933,-1.0467285031080247,2.421591639518738,1.8715970350617235,5.935684309684097e-05,-4.970567404012575e-06,-5.869745281346023e-46,-0.0004600304276528783,8.8710217316422e-05,4.789212616524502e-06,-5.869745281346023e-46,-0.0007301624681404583,-2.31969734853059e-05,-8.044979172932545e-05,2.2569792469974943e-05,-0.0005864032092817192,2.1889302475681702e-05,-5.520717187325517e-05,-1.2004737078452319e-05,0.00024655334713083547,-2.526756262779236,-2.4067034935951233,15.829314565658569,2.5032114791870117,14.468337602615357,-4.941539387702942,29.16550691604614,3.897351509332657,-24.28134919166565,14.593710622787476,-22.363577308654786,2.84977409362793,10.762836833000183,4.886786909103393,-15.851766405105591,-2.539342215061188,35.5
0.0,0.0,0.0,-0.000723260547109656,4.289301224600705e-05,-0.001846473840490256,15.48061642231179,161.39344501341859,-2.6382951868470665,0.5017213383329361,0.43351736664772034,1.0172329539060592,-2.279998779296875,-1.5041112008695636,-0.12372441954910755,1.0749835896492004,-2.453458547592163,2.820682013336723,0.29939004838466643,-1.105202162861824,2.4308927071094515,0.5700585396053068,-0.16879145972430706,-1.0467286229133606,2.421589493751526,1.871597426421568,1.4356469559911231e-22,1.407171818467496e-05,-5.869745281346023e-46,0.00035259032590329064,1.3662621515494332e-05,5.167631894546268e-05,-5.869745281346023e-46,0.00110746976387142,7.266103230438724e-06,-2.713186237476633e-06,-4.367842103301497e-05,-0.0009299326917568924,-1.1688788664140319e-05,6.341820117603312e-05,1.5699326940832934e-05,-0.001660734870932454,-2.5388220071792604,-2.4075514137744904,15.828124070167542,2.5017155599594116,14.468549547195435,-4.93938227891922,29.16550691604614,3.8964727115631104,-24.28136149406433,14.593871703147888,-22.364397611618042,2.849198033809662,10.765878419876099,4.888902516365051,-15.849931483268739,-2.5402208089828493,36.0
0.0,0.0,0.0,-4.63514117289292e-05,-0.00033203331354466687,-0.001028366775325179,15.482628891379111,161.3877944082578,-2.6371466866849778,0.283551926665636,0.43351736664772034,1.0172348707914352,-2.279998779296875,-1.504111172781535,-0.12372549813240767,1.0749850273132324,-2.453458547592163,2.8206818672789806,0.29938992857933044,-1.105209231376648,2.430893301963806,0.5700591818848604,-0.16878810308873654,-1.0467283833026886,2.421589493751526,1.8715989993510873,5.869745281346023e-46,4.7620075997722114e-05,-5.869745281346023e-46,-0.0004791233416084293,-0.00016633731454395579,-6.7204352114842945e-06,-5.869745281346023e-46,-0.00029592209737554014,-5.869745281346023e-46,-1.0311638968094344e-39,2.2465168169855197e-05,0.00035737295425419634,-1.8588592002596334e-05,-0.00011868831027464563,1.7544994100553425e-05,0.0010317642991663697,-2.539411635398865,-2.4088714182376862,15.826567268371582,2.502089992761612,14.469903607368469,-4.941157221794128,29.164760608673095,3.896738359928131,-24.280988693237305,14.599298725128174,-22.364135818481444,2.848607449531555,10.762944111824035,4.88875951051712,-15.848826889991761,-2.5417124783992766,36.5
0.0,0.0,0.0,0.00047615372126029345,4.302331011092247e-05,-0.0006122025584694578,15.484910589450205,161.39376810906325,-2.638630872006622,0.5287471924170102,0.43351736664772034,1.0172369074821472,-2.279998779296875,-1.504110923734362,-0.12372501876205205,1.0749851471185685,-2.453458547592163,2.820681974013484,0.29938992857933044,-1.105209231376648,2.430894136428833,0.5700596106954081,-0.16879050068557264,-1.0467277842760085,2.421588659286499,1.8715999524714755,5.869745281346023e-46,-2.1698988240202828e-06,-5.869745281346023e-46,-0.00023411376009734245,0.00010962044791811194,2.381707875931263e-06,-5.869745281346023e-46,-0.0009061064480220143,-4.480087639823325e-06,-5.869745281346023e-46,8.897657362099956e-06,-0.0003792652772963728,6.644017031099493e-06,0.00015695850816001598,-3.3958375957883914e-05,-0.00016369768019687585,-2.53833065032959,-2.4105448436737063,15.828032493591309,2.501078231334686,14.467594327926635,-4.939931757450104,29.165973358154297,3.8957454216480256,-24.281264295578,14.599298725128174,-22.36515615463257,2.847602699995041,10.764830765724183,4.88822767496109,-15.849827117919922,-2.5425720727443695,37.0
0.0,0.0,0.0,0.0005278736674588446,0.00041400334002922377,-0.0007945488880050778,15.483688227419288,161.3895146764622,-2.637048698584144,0.5297044679716267,0.43351736664772034,1.0172409808635712,-2.279998779296875,-1.504110457473111,-0.12372669655829668,1.0749851471185685,-2.453458547592163,2.8206822174430513,0.29939004838466643,-1.105209231376648,2.4308953392505646,0.570060247357356,-0.1687930181622505,-1.0467285031080247,2.421585202217102,1.8716011003355169,5.869745281346023e-46,1.8897919021821215e-05,-5.869745281346023e-46,0.000637363207692107,-3.735098962816515e-05,1.8948216521343222e-05,-5.869745281346023e-46,0.0005435061159351201,2.6686358698919222e-05,2.2753217699202385e-05,-1.640410212067375e-05,0.00044342809729536913,-2.118773728943579e-05,2.06647456028166e-05,-1.0797467823896994e-05,0.0007651988198238294,-2.5378392934799194,-2.4137352514266968,15.828856682777404,2.5004357182979584,14.47050009250641,-4.941166393756866,29.16513376235962,3.896496458053589,-24.281276874542236,14.599384589195251,-22.366452379226686,2.847937366962433,10.767207536697388,4.887514533996582,-15.848912081718446,-2.5432035076618194,37.5
0.0,0.0,0.0,0.0005749110908301748,0.0001187362141027092,-0.000674495725193876,15.483096612268884,161.39187394409768,-2.639799386154948,0.5848290006821181,0.43351736664772034,1.0172443354129792,-2.2800206923484803,-1.5041103806991714,-0.12372741561383009,1.0749850273132324,-2.453458547592163,2.8206819328177106,0.29938992857933044,-1.105209231376648,2.430903122425079,0.5700603110235507,-0.16879433684051037,-1.0467300605773926,2.421581745147705,1.8716012445207222,5.869745281346023e-46,2.255499611757213e-05,-3.506662445060479e-05,0.0002610848347132404,3.855577533083751e-05,-3.955226536555731e-05,-5.869745281346023e-46,-0.0003234750080667697,-1.4058314292379821e-05,5.869745281346023e-46,0.00011586760142511547,0.0009240716045409886,6.667005038002044e-06,4.532990593806053e-05,-1.3848410530697784e-06,-0.0011572842648415271,-2.5379375648498534,-2.416265332698822,15.843246784210205,2.499503116607666,14.471759886741639,-4.944075486660004,29.16550691604614,3.8968834292888643,-24.280983028411864,14.599673061370849,-22.37309655189514,2.848316711187363,10.767861976623536,4.887881619930267,-15.844217991828918,-2.5449720454216003,38.0
0.0,0.0,0.0,-5.8051090353390755e-05,5.6864802350948454e-05,-0.0015475215775942294,15.479635297803691,161.39771802329233,-2.640705551796269,0.5935559314156619,0.43351736664772034,1.017245773077011,-2.2800228595733643,-1.5041103563562137,-0.12372981246560812,1.0749850273132324,-2.453458547592163,2.8206819683958795,0.29938992857933044,-1.105209231376648,2.430909596681595,0.5700602099066533,-0.1687954157590866,-1.0467283833026886,2.4215805530548096,1.8716020366030888,5.869745281346023e-46,1.8544950914987957e-05,-5.869745281346023e-46,0.00039234388878541817,6.253773879188887e-05,-9.42786031295103e-07,-5.869745281346023e-46,0.00030016351351421313,4.484845301891694e-06,5.869745281346023e-46,-1.408266644576139e-05,0.001159802227522875,-2.9467986433444833e-05,5.3849069140270216e-05,-6.096288869562875e-38,0.0006331241814129802,-2.5377410221099854,-2.417482135295868,15.84378366470337,2.5000051295757295,14.470002760887146,-4.943144130706787,29.165413627624513,3.8967896592617035,-24.281175422668458,14.599673061370849,-22.377063884735108,2.84803236246109,10.768725848197937,4.885735743045807,-15.844770889282227,-2.544509669542313,38.5
0.0,0.0,0.0,0.0017994682692222138,-0.0010924973612118634,0.02061707434481373,15.480681624687936,161.3943862047763,-2.6388886411849173,26.411484113820087,0.43258115887641907,1.0163386803865433,-2.277712653875351,-1.5045456571104086,-0.12357557594776153,1.073970919251442,-2.4506922256946564,2.820033767886238,0.30001933813095094,-1.1033334571123123,2.4279112637043,0.5703053640799088,-0.16878966331481934,-1.044998334646225,2.4185894894599915,1.8710798202577659,-0.02575248234850547,-0.028462538267982306,0.05487019496375738,0.020396037665095568,0.023581619828508826,-0.032707993299459975,0.07089887729273303,0.00915282465759985,0.004622696524364042,0.06750631070972474,-0.07468744117387413,-0.029506110583300545,0.006962958567062575,0.07030662056158465,-0.08332937760847607,-0.04720173116434725,-4.914352691173553,-2.207506838962436,18.352258524894715,1.969208621571306,15.694596910476685,-4.361680792942643,31.903688507080076,3.1352156208083035,-25.130549030303953,15.128989901542663,-25.26805362701416,3.4648307085037233,12.361802768707275,4.965456146225333,-19.192773427963257,-2.1984136568009855,39.0
0.0,0.0,0.0,0.013851267947348573,0.0014736406628372122,-0.019883824743040252,15.482914184574135,161.38377063186093,-2.631210253333117,7.124551520387056,0.42986900597810745,0.9890135252475738,-2.236990102529526,-1.3934628409507248,-0.11090789280831814,1.0402548390626907,-2.4022967898845673,2.9072430081006866,0.29572142377495764,-1.0910600477457046,2.441613086462021,0.6108297135016091,-0.16721721291542052,-1.0222693860530854,2.413907833099365,1.8461843812879477,0.02779892410835232,-0.00039406243552407675,0.030012500166424982,0.23634627879492437,-0.015926959626110116,0.009368763892518603,0.005698879939029932,0.1813873853599557,0.007579741414873347,-0.09160479256917016,0.1524933563354252,0.2000307378897053,-0.020133628634661737,-0.09381297943480707,0.16336536407660215,0.07705226588138879,-3.987862318754196,-0.9000515360757708,13.717338366508484,2.1954851176938974,14.463592710494995,-1.5411367002129555,25.8977872467041,3.666544289961457,-22.356805057525634,11.807033202648164,-22.326604070663453,1.8750988986808808,9.966967616081238,1.2644519823417069,-13.457895674705505,-4.558560052644461,39.5
0.0,0.0,0.0,0.0031752927376164897,-0.0007146121042966933,-0.0005794472555483478,15.486733540099738,161.3724146276709,-2.6331837109525424,6.770975739665775,0.4354674361646175,1.0032682663202286,-2.238643797636032,-1.3698824684304753,-0.12047693997621536,1.0637641769647599,-2.4170482993125915,2.9237617435067205,0.30504575073719026,-1.1163752740621566,2.4674782764911654,0.664040572770795,-0.1754163394123316,-1.0577176558971404,2.458578313589096,1.8893491400816387,0.0022895072623347248,0.0026747508748985,-0.008682601895014946,0.00861193803820204,-0.001333896855959615,0.002794412542330562,-0.009908947154950198,0.007681414164060024,-0.0021290625332881447,0.003969922198511422,-0.011944457716792952,0.008627620866513842,0.0009484668564193848,0.0037587963175946186,-0.013546069295991219,0.005649920888397533,-3.981381033658981,-3.5019865083694457,13.102543621063232,2.8905105245113374,14.666283965110779,-4.448590676784516,25.845076026916505,4.970320060253143,-22.94365803718567,14.40226652622223,-22.221951875686646,2.5853008425235746,10.219276065826415,4.178341464996338,-14.422307195663452,-3.7553225910663603,40.0
0.0,0.0,0.0,0.004579138361657127,0.0006624764355464855,0.0004895863019176655,15.486350884100949,161.38230995341152,-2.63959680209192,9.657023534471893,0.43658460408449173,1.0044975131750107,-2.242824144363403,-1.3658494322033559,-0.12102880842983722,1.065137926340103,-2.421816935539246,2.927272336811767,0.30399844989180563,-1.1145900011062622,2.462136299610138,0.6679238735978621,-0.17487549476325512,-1.0558829820156097,2.4526913022994994,1.8926897895873858,0.003074094233731393,0.003940564899243416,-0.012684999165731679,0.009687775666277557,-0.0016098956801313326,0.003828052300768468,-0.0136060444592032,0.008261018880488654,-0.0027683455718556004,0.004771272392444677,-0.014646923721351028,0.011248253547785884,0.0015878636729591417,0.004833469487023497,-0.015934261432865405,0.009090201781890482,-3.779228080511093,-3.3921493816375734,13.338781275749206,2.934709976911545,14.621859221458434,-4.668239593505859,26.57743465423584,5.157124347686768,-23.43974555015564,14.856718835830689,-22.626846837997437,2.6499644899368286,10.618075795173645,4.532647075653077,-14.993223404884338,-3.764587548971176,40.5
0.0,0.0,0.0,0.002114412349592738,0.0009603208071439457,0.0009512057658210998,15.487030171930565,161.38229395647429,-2.6402652797985393,6.673570742320645,0.4383792449533939,1.0066510754823685,-2.250527970790863,-1.3599403629391313,-0.12216551460325718,1.0676028335094452,-2.4300587248802183,2.9324307554236926,0.30217337504029274,-1.11178759932518,2.453587715625763,0.6741067337152604,-0.1740563712269068,-1.0528387582302094,2.443141186237335,1.8979716120102064,0.0024114977078585637,0.002514592534787093,-0.010434433901639596,0.007027235813241142,-0.0016987213814240432,0.003081220018066477,-0.010998811175167924,0.007973479859433322,-0.0026096584335288113,0.0038460776642484924,-0.011149061958800917,0.007702311857089007,0.0009772794933323393,0.00426980358138001,-0.012672208568018338,0.006136814857489507,-3.4429021668434143,-2.9120723092556,13.566914157867432,3.1314113187789916,14.61066867351532,-4.711261332035065,27.388719968795776,5.338609292507171,-24.007907123565673,14.926285529136658,-22.68062752723694,2.9771154844760894,10.94763976573944,4.688623948097229,-15.09634446144104,-3.899643542766571,41.0
0.0,0.0,0.0,-0.0012052392415183466,0.000423053326619883,0.0009691828585554174,15.483243203212808,161.36984005688416,-2.638883905159077,1.601955338192586,0.43898780733346937,1.00702339887619,-2.2522096502780915,-1.3589596207862562,-0.12254361797124147,1.068228855729103,-2.4319063913822174,2.9328251450301184,0.3017136541008949,-1.1111948204040527,2.4517110335826873,0.6741884118255957,-0.1739485115557909,-1.0521949726343154,2.4408812534809115,1.9009288917788345,0.00042370773720891533,-2.1885638097037846e-05,-0.0003792886073336781,-0.0004496480874381632,-0.0003903092064024918,0.00028899862321885505,-0.00038281404207578127,-0.001770477501399222,-0.00019800153764275213,6.815223935212679e-05,-0.0004435692736538982,-0.0017462816048573015,-0.00012683390315634252,1.8886390568975397e-05,-0.0009218880848341529,0.0038540612594679608,-3.5537183356285094,-2.8819139552116395,13.79938961982727,2.727318296432495,14.667960391044616,-4.793532612323761,27.37453905105591,4.354668682813644,-23.908742561340333,14.877406854629516,-22.822857475280763,1.8545182877779007,10.985685949325562,4.698770484924316,-15.044005942344665,-3.0882463991641997,41.5
0.0,0.0,0.0,-0.0011299519897211533,-0.00030038552398836574,0.00023360373205278718,15.48065278361031,161.37168967011186,-2.6434406718571637,0.6399296446991964,0.439034423828125,1.007025914788246,-2.2522432804107666,-1.3590397259670723,-0.12259527012705802,1.0682554525136947,-2.4319053328037263,2.93264718865295,0.3016914762556553,-1.111201286315918,2.451703565120697,0.6739472779852892,-0.1739710420370102,-1.0521943736076356,2.440803289413452,1.9013853858857608,4.983162450296527e-05,-1.6061520106416212e-05,-2.4256494118070007e-15,-0.0001751926318001307,9.851415443405e-05,6.375268911041955e-05,-3.940435324431942e-06,-0.00031283854834505243,-5.065160572967187e-06,-1.8070764623265628e-07,-5.13780633301578e-05,0.0006646815910829043,-2.9270724841155097e-05,3.696931697270524e-05,-1.5995216495139323e-22,-0.0008673738098140681,-3.5923996353149414,-2.878261789083481,13.829381346702576,2.632716075181961,14.681672325134278,-4.805928313732148,27.368101558685304,4.136506173610687,-23.857040643692017,14.861146984100342,-22.8724711227417,1.5781809735298156,10.979782652854919,4.683014070987701,-15.028948245048523,-2.972039967775345,42.0
0.0,0.0,0.0,-0.0002641421505664933,-0.0008904630964840862,-0.0005038209736806808,15.487531784859746,161.38423008799157,-2.642336606392273,0.5070606850259123,0.43905467092990874,1.007033821940422,-2.2522432804107666,-1.3590352992939978,-0.12259898524731398,1.0682650381326675,-2.431910991668701,2.9326484376338895,0.3016878813505173,-1.111201286315918,2.451707601547241,0.6739477835697768,-0.17396348983049392,-1.0521972489356994,2.440794620513916,1.901403671191418,4.972335224107917e-07,4.304849350944879e-05,-5.869745281346023e-46,-0.0006513831021836534,-3.7933833892413574e-05,-2.079689185543252e-08,-8.9001162175123e-33,-0.0007703042242895369,-1.3058607383799e-06,-5.869745281346023e-46,6.013456506876532e-05,0.0008383623157155567,2.191044534861801e-05,-0.0001587464345023807,-3.242479684668045e-05,-3.153597830103114e-05,-3.6027984273433686,-2.8838035559654234,13.82855715751648,2.620393017530441,14.678870978355407,-4.812994425296783,27.372579412460325,4.131993284225464,-23.853343601226808,14.861146926879883,-22.87566388130188,1.577299730181694,10.972946500778198,4.6851112651824955,-15.022125387191773,-2.984371449947357,42.5
0.0,0.0,0.0,-0.00018073287341318953,-0.0005847409987210876,-0.0002448942896770091,15.489646527245457,161.37891252426618,-2.6396674598922356,0.6224002572243407,0.43907455876469614,1.007034420967102,-2.2522570061683655,-1.359031647850472,-0.1226015019416809,1.0682717478275299,-2.4319220781326294,2.9326497652613033,0.3016839277744293,-1.111201286315918,2.4517087936401367,0.673948897728186,-0.1739631301909685,-1.0521982073783875,2.4407810151576994,1.901414535640307,1.6589310941189094e-05,5.869745281346023e-46,-4.03636095771897e-05,3.437812900801628e-05,5.275737437592973e-05,6.449911044575573e-06,-4.009222983440423e-05,0.0003203474029704158,-3.103454297465441e-05,-5.869745281346023e-46,5.869745281346023e-46,0.0006564209697529639,-2.6453899426509127e-05,-2.4128362095937168e-05,-1.0514160457332496e-05,-0.0003226915478972707,-3.6175448548793794,-2.882293688058853,13.83882821559906,2.6102022314071656,14.672213315963745,-4.817628107070923,27.381069526672363,4.12575788974762,-23.85046531677246,14.861146926879883,-22.87676468849182,1.5762366592884063,10.971919584274293,4.685731537342072,-15.01181658267975,-2.9918009662628173,43.0
